public/luts/builtin/fuji_astia.cube
TITLE "Rec709800_sRGB-LA:FLog2_to_ASTIA_LA:FLog2_to_ASTIA"
LUT_3D_SIZE 5
# Rec709 (800%)/sRGB -> LA - :FLog2_to_ASTIA/LA - :FLog2_to_ASTIA, CineEI Shift 0.00, Black Level -0.02% IRE, Input 100% -> Output 100% - Created with LUTCalc v4.09 by Ben Turley February 2025
0.00000000 0.00000000 0.00000000
0.13296495 0.00328738 0.00000000
0.49768983 0.01265753 0.00001107
0.83025376 0.03503738 0.02745572
1.00069272 0.56865120 0.32320912
0.02988917 0.20641985 0.00006143
0.21722580 0.20507745 0.00000194
0.53189088 0.21721451 0.00001017
0.80380023 0.25753453 0.00001092
1.00053104 0.59998485 0.32546172
0.16070161 0.59510136 0.00003737
0.33426123 0.58291020 0.00000583
0.56787200 0.57182913 0.00000441
0.78401893 0.57039008 0.00001003
1.00025393 0.65526997 0.33455571
0.38706594 0.83627402 0.01499545
0.48047517 0.82797943 0.00971575
0.62153395 0.81620108 0.00010776
0.78435706 0.80125301 0.02405442
1.00058115 0.73546354 0.35372759
0.78200690 1.00090175 0.53449101
0.78651468 1.00086703 0.53385389
0.79625539 1.00078162 0.53238282
0.81312859 1.00063785 0.52994121
0.98832722 1.00117232 0.50049998
0.00000015 0.00548199 0.10971194
0.18910048 0.00000000 0.13443081
0.59721682 0.00000000 0.20134843
0.87155568 0.03023707 0.29732656
1.00063303 0.56922876 0.41385402
0.00633440 0.25289359 0.28695766
0.23563883 0.23563883 0.23563883
0.57018104 0.23280475 0.20341358
0.83064788 0.25978320 0.24670027
1.00046323 0.59834421 0.41302497
0.12357183 0.59722436 0.28269403
0.32394354 0.58396439 0.23842716
0.57556092 0.56772297 0.20153477
0.79423604 0.56002390 0.20784642
1.00025936 0.65194003 0.41569845
0.36303032 0.81851344 0.29128543
0.46430610 0.81102230 0.26992196
0.61728346 0.80209466 0.24254691
0.78463533 0.78668083 0.23601962
1.00024540 0.73008000 0.42348085
0.78041329 1.00091608 0.55268848
0.78500250 1.00088188 0.55204808
0.79487946 1.00079760 0.55056821
0.81183968 1.00061610 0.54773177
0.98843032 1.00116697 0.51568175
0.00389507 0.00967146 0.32928974
0.26235507 0.00591058 0.46000838
0.67379290 0.00680088 0.59447197
0.90547009 0.04515570 0.64437916
1.00041388 0.57587147 0.54568576
0.00000000 0.32118733 0.72969044
0.22731188 0.29485319 0.65950013
0.60438561 0.28013390 0.60242782
0.85453070 0.28946247 0.59390800
1.00016538 0.60187330 0.54222004
0.05832256 0.61233686 0.69048905
0.28585113 0.59730127 0.63600317
0.57533896 0.57533896 0.57533896
0.80106782 0.56402084 0.54490525
1.00064568 0.65084679 0.53799432
0.30667998 0.80851200 0.62403838
0.42634720 0.80140732 0.59779606
0.60411892 0.79059038 0.55822440
0.78277338 0.77421235 0.52662395
1.00096467 0.72412987 0.53417852
0.77538645 1.00100773 0.59004893
0.77967553 1.00102340 0.58917105
0.78908412 1.00105849 0.58713052
0.80651617 1.00097075 0.58404240
0.98865406 1.00115543 0.54731561
0.03373503 0.03290506 0.77544079
0.36044130 0.04043380 0.88672808
0.71824965 0.06208196 0.90895891
0.93049127 0.11044814 0.90155248
1.00042924 0.59830407 0.67528384
0.00000000 0.40019998 0.98718793
0.19117589 0.37549491 0.96125986
0.61554196 0.35303692 0.89235202
0.86769594 0.34684350 0.85772220
1.00051108 0.61851737 0.67138779
0.02381932 0.64107538 0.96687991
0.18683885 0.62641128 0.92460941
0.55705297 0.60584573 0.85847431
0.80224085 0.58758449 0.81158370
1.00062167 0.65867252 0.66412766
0.17142168 0.80494783 0.89037229
0.34347560 0.79957896 0.86152363
0.56688065 0.78814626 0.81580309
0.76766484 0.76766484 0.76766484
0.99995394 0.72188811 0.65367256
0.76790806 1.00082047 0.65060864
0.77233739 1.00085201 0.64969722
0.78205375 1.00092228 0.64757517
0.79916732 1.00101134 0.64370273
0.98922460 1.00100212 0.60149342
0.45057770 0.54624457 1.00104268
0.52479778 0.55012672 1.00099303
0.64148624 0.55541589 1.00094496
0.77795315 0.55929266 1.00083971
1.00091626 0.61557877 1.00093950
0.33774492 0.58613169 1.00109977
0.42509769 0.58834699 1.00103581
0.57686112 0.59307548 1.00089723
0.72550493 0.59656420 1.00065519
1.00060073 0.62922249 1.00070836
0.16685877 0.65050550 1.00096308
0.29993118 0.65004306 1.00078054
0.47601146 0.64964837 1.00050777
0.65399700 0.65266741 1.00086948
1.00026145 0.65795586 1.00033190
0.10347937 0.72886280 1.00105413
0.18452913 0.72707989 1.00099931
0.37891889 0.72370907 1.00088858
0.58568060 0.72014357 1.00082438
1.00085484 0.70380810 1.00035396
0.59121156 0.99790983 1.00088297
0.59953744 0.99792356 1.00085667
0.61847137 0.99796168 1.00079262
0.65179656 0.99816426 1.00069877
0.97801801 0.97801801 0.97801801
