public/luts/builtin/fuji_provia.cube
TITLE "Rec709800_sRGB-LA:FLog2_to_PROVIA_LA:FLog2_to_PROVIA"
LUT_3D_SIZE 9
# Rec709 (800%)/sRGB -> LA - :FLog2_to_PROVIA/LA - :FLog2_to_PROVIA, CineEI Shift 0.00, Black Level -0.02% IRE, Input 100% -> Output 100% - Created with LUTCalc v4.09 by Ben Turley February 2025
0.00000000 0.00000000 0.00000000
0.05393557 0.00161648 0.00297489
0.15866412 0.00266402 0.01295711
0.31541013 0.01460141 0.02025220
0.50798035 0.02997456 0.03086418
0.69331074 0.04971689 0.04375156
0.85958034 0.09437617 0.06655428
0.99961519 0.20049647 0.11801863
1.00007973 0.59763866 0.29120582
0.00161678 0.06375183 0.00000000
0.06798507 0.07002942 0.00000000
0.19351341 0.07909461 0.00000638
0.35672360 0.08956019 0.00000000
0.52723724 0.10631683 0.00000000
0.67884863 0.12868913 0.01452301
0.85092788 0.17398789 0.02927357
0.99802414 0.26299240 0.08321406
1.00020102 0.60765223 0.29228824
0.00390866 0.20758768 0.00000000
0.07351799 0.20788659 0.00001090
0.20603436 0.21202710 0.00000324
0.36336427 0.21984170 0.00000337
0.52336549 0.23353071 0.00000000
0.66885103 0.25286580 0.00000000
0.84148721 0.28664368 0.00000000
0.99076209 0.35240257 0.05006214
1.00039533 0.62421231 0.29430484
0.02488017 0.38878735 0.00005478
0.08471791 0.38533897 0.00001090
0.21861400 0.38218556 0.00007085
0.37337789 0.38320664 0.00000082
0.52645509 0.38698442 0.00000000
0.66540050 0.39766161 0.00000000
0.82695110 0.41890700 0.00000108
0.98028704 0.46189682 0.02566612
1.00050418 0.64729269 0.29839606
0.04338236 0.56423494 0.00007430
0.11344756 0.55970822 0.00004900
0.23699099 0.55353242 0.00003202
0.38389124 0.54769369 0.00000000
0.53018690 0.54489840 0.00001060
0.66037288 0.54560072 0.00000603
0.80963673 0.55213691 0.00000000
0.96894044 0.57134459 0.02371096
1.00053910 0.67588174 0.30419099
0.06359960 0.70480637 0.00000000
0.13249924 0.69997784 0.00000000
0.25031424 0.69327504 0.00000000
0.38984160 0.68468393 0.00005733
0.52948770 0.67574513 0.00000000
0.65121416 0.66973284 0.00000000
0.79017529 0.66717219 0.00000000
0.95005367 0.67160221 0.02854426
1.00057184 0.70737436 0.31108630
0.10013647 0.84375652 0.01164398
0.16178927 0.83991106 0.01088559
0.28519279 0.83036222 0.00903600
0.39581164 0.82421858 0.00000000
0.52231283 0.81530317 0.00000000
0.63728318 0.80616038 0.00372416
0.77475916 0.79833575 0.01536548
0.92657303 0.78869667 0.04953403
1.00040411 0.75629675 0.32169991
0.21458096 0.96582595 0.09150561
0.25705341 0.96313055 0.09010822
0.33124582 0.95802384 0.08830910
0.43323749 0.95022974 0.08643214
0.52664896 0.94352890 0.08614908
0.62683527 0.93609671 0.08988367
0.74447631 0.92577660 0.10055491
0.89013290 0.91158331 0.13503059
1.00042808 0.82373467 0.34812606
0.65333037 1.00078477 0.51288245
0.65622987 1.00079267 0.51262813
0.66128750 1.00080636 0.51218436
0.66907387 1.00082726 0.51150110
0.67960829 1.00085514 0.51057634
0.69273167 1.00088923 0.50942325
0.71488781 1.00091565 0.50756061
0.76412624 1.00094500 0.50383162
0.97923661 1.00103304 0.47893804
0.00000699 0.00195971 0.04340966
0.06591904 0.00282067 0.04515787
0.19445190 0.00356237 0.06210832
0.36481203 0.01377925 0.07974859
0.56200579 0.02723437 0.09446917
0.72733761 0.04644961 0.11432010
0.88025228 0.09322217 0.14802320
1.00077554 0.19789312 0.21862624
1.00026609 0.59807159 0.32853222
0.00000000 0.07589414 0.07827293
0.07817605 0.07817605 0.07817605
0.22074988 0.08453607 0.07350223
0.39100687 0.09265991 0.07574605
0.55730216 0.10657588 0.08294605
0.70663462 0.12905897 0.09321980
0.86888065 0.17487142 0.12275894
0.99944330 0.26091931 0.19449884
1.00028940 0.60777041 0.32918506
0.00038072 0.22799687 0.08211002
0.07833932 0.22396225 0.07353531
0.22326433 0.22351733 0.06336479
0.38532892 0.22719803 0.05961937
0.54655062 0.23817114 0.06155340
0.69072937 0.25550393 0.06940272
0.85768834 0.28717000 0.09043016
0.99523186 0.35085582 0.16139570
1.00032748 0.62381877 0.33047730
0.02214003 0.40233880 0.07368710
0.08600692 0.39745773 0.06330703
0.22820908 0.39256282 0.05110492
0.38741727 0.38969992 0.04165384
0.54224247 0.39263999 0.04110242
0.67940924 0.40009603 0.04680951
0.83649869 0.41796092 0.06915064
0.98178954 0.45784878 0.13059882
1.00018257 0.64651656 0.33269787
0.04385813 0.56954077 0.06599654
0.11254354 0.56376937 0.05813885
0.24196337 0.55625383 0.04977787
0.39171372 0.54991385 0.04070443
0.53812390 0.54520067 0.04022918
0.66714059 0.54397396 0.04354779
0.81483151 0.54873826 0.05946516
0.97101761 0.56708222 0.11558297
1.00016394 0.67498534 0.33661118
0.06424118 0.70281031 0.07197857
0.13316555 0.69797081 0.06618974
0.25073033 0.69057158 0.05725505
0.39342697 0.68111818 0.05184612
0.53242195 0.67195274 0.05133424
0.65443280 0.66590078 0.05474072
0.79501148 0.66199527 0.06788590
0.95181320 0.66723935 0.11385155
1.00039578 0.70641732 0.34184497
0.09730239 0.83744954 0.09845133
0.15874440 0.83344900 0.09252100
0.28459065 0.82535910 0.08800879
0.39662866 0.81980875 0.07919755
0.52337236 0.81104088 0.07692840
0.63939570 0.80179780 0.07786958
0.77674135 0.79355637 0.09089263
0.92788575 0.78348893 0.12631387
1.00021565 0.75454427 0.35076912
0.21351051 0.96071671 0.18103051
0.25690239 0.95800896 0.17857137
0.33089701 0.95272310 0.17334678
0.43256932 0.94579450 0.16774654
0.52649241 0.93934885 0.16544053
0.62645262 0.93102450 0.16566318
0.74397830 0.92157872 0.17158465
0.88867665 0.90811923 0.19573824
1.00052257 0.82198023 0.37232296
0.65267153 1.00079835 0.52043669
0.65557241 1.00080613 0.52017934
0.66063229 1.00081964 0.51973019
0.66842178 1.00084025 0.51903843
0.67896205 1.00086773 0.51810173
0.69209099 1.00090129 0.51693299
0.71402184 1.00095492 0.51499748
0.76335741 1.00099096 0.51118878
0.97936224 1.00101019 0.48567723
0.00202542 0.00918395 0.11649623
0.08166375 0.00979916 0.12367604
0.22760740 0.01109469 0.15792272
0.41801432 0.01772399 0.20190651
0.61523058 0.03020211 0.24090724
0.77115840 0.05296364 0.27091812
0.90580085 0.10017624 0.30721006
1.00088384 0.20221955 0.35895643
1.00014064 0.59860503 0.38560307
0.00176427 0.09227544 0.21430474
0.08811825 0.09398295 0.21993676
0.25024655 0.09767677 0.22448671
0.42887420 0.10465991 0.23102262
0.59391061 0.11840826 0.24123813
0.74142174 0.13887824 0.25707123
0.88897435 0.18245195 0.28527427
0.99990732 0.26397395 0.33437206
1.00002097 0.60805351 0.38569905
0.00501366 0.25454701 0.26806621
0.07527483 0.24809228 0.25556510
0.24403685 0.24403685 0.24403685
0.41106488 0.24444051 0.23292036
0.57545167 0.25175318 0.23074999
0.71727622 0.26591187 0.23820093
0.87342123 0.29375816 0.25843441
0.99790169 0.35196243 0.30515920
0.99981665 0.62370059 0.38603640
0.01465442 0.42494370 0.27215836
0.07612442 0.41809451 0.25887749
0.23522109 0.40899827 0.24247543
0.40407535 0.40249385 0.22892907
0.56011395 0.40250632 0.21999075
0.69676329 0.40616725 0.22194533
0.84810154 0.42158989 0.23381550
0.98280526 0.45708258 0.27603685
0.99971112 0.64632353 0.38631113
0.04162274 0.57953738 0.26396958
0.10395527 0.57343829 0.25241041
0.24428960 0.56474029 0.23692570
0.39702394 0.55549038 0.22100696
0.54634806 0.54877821 0.21266525
0.67633034 0.54578663 0.21043673
0.82103226 0.54853221 0.21695437
0.97500656 0.56438084 0.25217322
1.00003951 0.67413410 0.38748844
0.06538282 0.70363877 0.25806514
0.13384774 0.69817179 0.24756471
0.24936985 0.68993344 0.23517721
0.39530997 0.67960782 0.22067272
0.53480345 0.66992353 0.21101625
0.65817873 0.66357473 0.20775793
0.79796412 0.65893635 0.21222082
0.95532415 0.66317785 0.24042246
1.00025949 0.70457555 0.38985483
0.09622778 0.83323366 0.26071033
0.15757331 0.82868806 0.25414003
0.28087775 0.82083475 0.24432864
0.39722631 0.81489576 0.23412183
0.52458793 0.80628319 0.22597703
0.64119500 0.79669768 0.22012611
0.77780176 0.78793354 0.22245049
0.92823298 0.77844408 0.24504647
0.99986005 0.75198135 0.39490839
0.20894656 0.95241706 0.29458642
0.25259724 0.94955935 0.29154840
0.32857556 0.94530667 0.28617894
0.43086112 0.93985416 0.28013367
0.52549556 0.93203138 0.27571057
0.62536084 0.92491681 0.27194102
0.74277076 0.91441552 0.27179840
0.88743900 0.90122656 0.28471362
1.00063902 0.81875375 0.41003278
0.65156760 1.00082101 0.53316092
0.65447068 1.00082861 0.53289909
0.65953419 1.00084181 0.53244198
0.66732865 1.00086191 0.53173761
0.67787801 1.00088869 0.53078310
0.69101613 1.00092135 0.52959089
0.71294359 1.00097340 0.52761318
0.76200049 1.00105132 0.52369731
0.97956754 1.00096876 0.49713897
0.00687596 0.01487850 0.20489319
0.10387116 0.01672868 0.23068703
0.27007176 0.01945113 0.28756497
0.47411957 0.02369750 0.35847431
0.66132632 0.03903130 0.41058978
0.80634979 0.06482478 0.43886291
0.92878139 0.11303438 0.47023993
1.00092204 0.21200742 0.50629319
1.00037309 0.60059992 0.45628446
0.00133081 0.11763904 0.38181058
0.10047181 0.11746578 0.39517887
0.28120792 0.11847144 0.40344309
0.46753520 0.12256398 0.40964230
0.63087632 0.13581852 0.41662151
0.77817600 0.15731001 0.42968815
0.90892430 0.19601780 0.45143902
1.00060006 0.27348946 0.48452181
1.00042708 0.60956028 0.45569162
0.00000000 0.28814656 0.46744768
0.07706667 0.27834870 0.44960066
0.25836907 0.27130319 0.43206125
0.43715697 0.26901876 0.41979113
0.60461378 0.27254085 0.41423280
0.74326168 0.28300973 0.41463627
0.88655987 0.30580870 0.42642191
0.99806513 0.35853915 0.45567703
1.00043509 0.62461718 0.45482948
0.01067832 0.45140591 0.47244202
0.07536479 0.44309988 0.45756991
0.24201356 0.43118539 0.43950574
0.42017368 0.42017368 0.42017368
0.57634442 0.41804219 0.40562886
0.71292235 0.41924478 0.39997509
0.85775027 0.42964636 0.40176224
0.98561832 0.46122114 0.42522482
1.00038400 0.64661895 0.45374700
0.03412001 0.59302024 0.46336357
0.08735303 0.58558730 0.45027960
0.24435308 0.57536495 0.42994319
0.40432597 0.56454669 0.40950945
0.55458030 0.55568960 0.39559406
0.68425325 0.55105479 0.38569249
0.82710677 0.55139075 0.38283584
0.97840263 0.56406901 0.40070829
1.00039163 0.67373040 0.45304580
0.06318400 0.70728884 0.44569665
0.12769712 0.70150630 0.43555182
0.24375503 0.69256400 0.42019075
0.39661164 0.68127409 0.40280908
0.53790303 0.67170288 0.38740485
0.66246550 0.66460100 0.37576958
0.80201884 0.65820434 0.37222840
0.95817538 0.66039435 0.38549480
1.00039307 0.70323940 0.45327580
0.09605985 0.83059279 0.43144196
0.15818188 0.82530919 0.42325706
0.27617613 0.81755852 0.41099631
0.39396614 0.81049803 0.39830610
0.52438423 0.80123428 0.38582375
0.64272218 0.79218781 0.37595739
0.77924336 0.78258510 0.36944366
0.92918977 0.77424867 0.37925633
1.00011934 0.74945292 0.45438658
0.19938644 0.94417968 0.42619578
0.24401362 0.94180355 0.42219789
0.32484964 0.93733886 0.41587989
0.42651800 0.93057702 0.40794892
0.52222408 0.92454119 0.40023146
0.62218618 0.91685381 0.39346246
0.73965796 0.90827839 0.38851900
0.88587204 0.89313420 0.39045024
1.00073095 0.81546567 0.46177464
0.64926388 1.00086107 0.55274308
0.65216950 1.00086805 0.55247417
0.65723692 1.00088016 0.55200455
0.66503606 1.00089859 0.55128056
0.67559477 1.00092310 0.55029874
0.68874296 1.00095293 0.54907119
0.71064662 1.00100030 0.54703154
0.75972732 1.00102748 0.54301504
0.97985342 1.00090170 0.51406401
0.02303184 0.02200198 0.30947372
0.13756060 0.02439005 0.36037296
0.31751949 0.02941472 0.43933340
0.52992472 0.03667040 0.52870124
0.70405299 0.05697990 0.57595555
0.83276453 0.08326899 0.59938727
0.94705049 0.13265348 0.62316473
1.00082734 0.22647403 0.64357368
1.00061438 0.60581706 0.52792859
0.00234667 0.14826204 0.55989476
0.11818566 0.14713146 0.57853845
0.31391192 0.14560536 0.58235694
0.50388404 0.14829948 0.58368234
0.66575050 0.16049990 0.58814256
0.80325018 0.18228918 0.59398433
0.92478177 0.21616894 0.60678943
1.00063876 0.28630408 0.62269969
1.00065043 0.61446728 0.52724841
0.00023027 0.32283706 0.64994263
0.08361799 0.31269861 0.63152583
0.27711969 0.30263381 0.61225442
0.46313969 0.29550430 0.59779219
0.62902182 0.29621831 0.58833807
0.76461694 0.30329680 0.58417415
0.89634260 0.32244265 0.58390428
0.99815708 0.36866610 0.59654145
1.00072730 0.62892905 0.52598510
0.01729472 0.47749316 0.65089307
0.08033953 0.46791682 0.63615803
0.25071055 0.45567156 0.61590927
0.43140053 0.44377597 0.59529373
0.59207441 0.43653303 0.57850805
0.72823042 0.43535576 0.56623123
0.86662343 0.44235182 0.56011538
0.98761926 0.46797770 0.56837665
1.00060603 0.64946058 0.52364437
0.02429806 0.60863298 0.63560815
0.07208051 0.60118823 0.62266030
0.24009407 0.58911250 0.60415247
0.40874761 0.57636434 0.58177723
0.56440739 0.56440739 0.56440739
0.69131626 0.56045740 0.55006488
0.83281627 0.55823169 0.53958273
0.98082220 0.56864105 0.54054374
1.00052247 0.67475474 0.52148502
0.06095362 0.71479259 0.61266966
0.11433384 0.70865564 0.60222129
0.23282974 0.69890829 0.58579718
0.39312965 0.68749239 0.56699917
0.54041311 0.67675596 0.54994266
0.66637317 0.66776097 0.53590311
0.80558879 0.66141514 0.52290525
0.96039645 0.66196378 0.52255475
1.00051276 0.70253440 0.51961391
0.09593281 0.83021800 0.58498590
0.15681998 0.82421098 0.57762860
0.26483620 0.81748153 0.56641469
0.39054755 0.81002515 0.55170314
0.52372849 0.80150127 0.53660135
0.64321108 0.79128007 0.52392204
0.77990891 0.78080003 0.51207261
0.93046759 0.77243458 0.50913030
1.00072476 0.74666105 0.51894801
0.18053058 0.93629025 0.55126560
0.22670029 0.93324789 0.54691763
0.31590950 0.92869623 0.53967560
0.41718397 0.92328655 0.53196282
0.51587528 0.91538504 0.52312891
0.61725623 0.90917871 0.51382946
0.73589319 0.89992706 0.50517753
0.88166368 0.88615926 0.49729086
1.00066273 0.81243409 0.51794312
0.64688045 1.00085947 0.57706033
0.64973694 1.00086576 0.57676896
0.65471863 1.00087666 0.57625984
0.66238560 1.00089329 0.57547424
0.67276786 1.00091548 0.57440748
0.68581959 1.00094403 0.57310010
0.70773108 1.00099205 0.57097651
0.75724684 1.00101749 0.56677735
0.98019257 1.00080604 0.53569319
0.05971486 0.03346943 0.44905907
0.18674292 0.03779115 0.51359304
0.37195878 0.04568665 0.60932712
0.58379079 0.05985179 0.69927041
0.74035045 0.08079390 0.73060329
0.85731245 0.11040736 0.74776828
0.96161126 0.15666514 0.76142809
1.00091907 0.24701865 0.76512322
1.00080804 0.61278625 0.59606705
0.01627696 0.19097578 0.74626504
0.14784527 0.18652553 0.74984911
0.34546006 0.18148422 0.74820664
0.53694253 0.18276011 0.74420955
0.69544010 0.19186889 0.74233693
0.82331263 0.20770328 0.74283712
0.93820445 0.23900053 0.74373231
1.00080577 0.30353902 0.74504260
1.00091670 0.62074204 0.59506704
0.01161272 0.35659939 0.80856867
0.09467964 0.34562863 0.79203693
0.29445491 0.33427550 0.77189885
0.48589558 0.32461276 0.75444165
0.65005238 0.32178296 0.73936581
0.78087943 0.32634158 0.72836027
0.90633284 0.34182352 0.71976852
0.99857966 0.38392324 0.71923955
1.00101221 0.63438425 0.59349165
0.01787473 0.50298743 0.80363081
0.07411881 0.49297561 0.78906173
0.25741536 0.47952401 0.76822695
0.44041031 0.46701428 0.74497306
0.60357929 0.45808203 0.72451919
0.74059904 0.45387423 0.70749437
0.87388260 0.45797706 0.69614374
0.99175067 0.47987056 0.69115595
1.00099251 0.65331006 0.59081762
0.02281887 0.62506403 0.78157781
0.07417469 0.61759461 0.76942181
0.23469458 0.60531797 0.74905278
0.41078583 0.59192518 0.72541489
0.56919979 0.58030594 0.70454888
0.69914524 0.57230844 0.68868218
0.83719507 0.56879347 0.67432155
0.98210856 0.57514706 0.66545780
1.00086194 0.67690099 0.58848226
0.05059999 0.72397259 0.75263992
0.09719958 0.71750865 0.74172380
0.22313087 0.70690735 0.72570041
0.39245814 0.69489056 0.70587093
0.54359846 0.68323039 0.68701658
0.67285996 0.67285996 0.67285996
0.80945725 0.66709750 0.65493559
0.96326266 0.66492157 0.64446271
1.00074450 0.70314094 0.58570834
0.09518912 0.83092165 0.71865202
0.15225439 0.82511562 0.71020806
0.25098982 0.81933651 0.69867148
0.38776413 0.81034273 0.68253967
0.52172811 0.80186894 0.66778283
0.64331397 0.79182089 0.65391707
0.77990841 0.78065564 0.63668806
0.93027596 0.77112448 0.62525168
1.00073992 0.74439618 0.58176199
0.16043982 0.92722084 0.66277488
0.21040937 0.92493843 0.65866749
0.30683402 0.92055814 0.65178156
0.40768277 0.91439276 0.64206188
0.50747862 0.90895098 0.63154036
0.60942312 0.90179340 0.62130827
0.72929121 0.89228485 0.60949364
0.87667339 0.87822643 0.59510109
1.00075424 0.80915752 0.57598200
0.64458946 1.00086304 0.60511491
0.64744914 1.00086929 0.60481983
0.65243600 1.00088012 0.60430394
0.66010983 1.00089665 0.60350713
0.67049943 1.00091870 0.60242365
0.68345340 1.00094566 0.60106418
0.70494538 1.00098793 0.59880696
0.75425425 1.00100860 0.59441599
0.98048830 1.00069038 0.56075145
0.12154013 0.06550981 0.68646037
0.26407669 0.07340223 0.76969484
0.45289311 0.08446372 0.85559110
0.63471616 0.10531502 0.89074300
0.78176848 0.12607339 0.89727496
0.88090302 0.15412561 0.90247790
0.97120009 0.20016066 0.90453411
1.00104002 0.28042497 0.89601648
1.00035065 0.62505772 0.67931260
0.03718056 0.24637301 0.92439695
0.19430976 0.23929844 0.92143764
0.39001349 0.23318080 0.91395117
0.57412488 0.23052692 0.90795636
0.72747907 0.23552653 0.90356234
0.84201625 0.24808713 0.89854226
0.94908311 0.27530428 0.89208704
1.00101101 0.33329724 0.88387524
1.00024177 0.63223957 0.67801824
0.01295396 0.40067721 0.95190685
0.10280300 0.38943996 0.94124045
0.31701075 0.37652139 0.92648493
0.51199860 0.36582837 0.91027429
0.67031057 0.36062029 0.89737534
0.79670703 0.36096973 0.88680492
0.91488889 0.37357439 0.87497250
0.99900144 0.40869983 0.86373027
1.00006823 0.64408799 0.67591977
0.01525752 0.53720062 0.94409397
0.07064602 0.52772934 0.93343812
0.26121460 0.51324792 0.91826915
0.45537133 0.49841686 0.90066460
0.61788780 0.48829735 0.88402725
0.75477838 0.48176326 0.86796087
0.88188716 0.48282198 0.84958026
0.99587243 0.49882793 0.83652581
1.00035360 0.66099461 0.67331735
0.03502936 0.64820741 0.92372265
0.08578444 0.63976081 0.91283859
0.22670276 0.62749964 0.89993142
0.41422544 0.61375336 0.88176591
0.57658251 0.60151928 0.86268303
0.70613794 0.59239407 0.84554610
0.84414906 0.58564981 0.82926474
0.98555492 0.58874595 0.81065097
1.00083002 0.68326532 0.67001936
0.03566464 0.74035460 0.89994758
0.07840593 0.73321028 0.89201363
0.22102106 0.72118752 0.87884024
0.39111550 0.70866861 0.85908180
0.54564812 0.69701649 0.84239630
0.67579903 0.68698979 0.82757141
0.81404547 0.67717020 0.80904729
0.96509398 0.67214371 0.78701413
1.00075775 0.70701394 0.66590781
0.08599809 0.83016680 0.85933028
0.13131366 0.82565871 0.85146118
0.22893847 0.82068901 0.84058464
0.37702694 0.81072605 0.82603922
0.51379549 0.80309751 0.81222317
0.63984355 0.79306314 0.79456945
0.77765460 0.77765460 0.77765460
0.92676676 0.76874726 0.75842596
1.00058406 0.74464912 0.66001437
0.15808400 0.91929171 0.78781428
0.20593240 0.91616302 0.78424605
0.29752317 0.91169506 0.77797829
0.38973520 0.90760601 0.76673304
0.49270179 0.89972640 0.75617068
0.59695927 0.89269185 0.74379764
0.71827637 0.88326126 0.72969021
0.86845023 0.86946545 0.71177445
1.00053775 0.80644675 0.65082062
0.63969300 1.00082492 0.64733602
0.64252412 1.00082909 0.64707170
0.64746058 1.00083637 0.64660936
0.65505526 1.00084756 0.64589472
0.66533411 1.00086266 0.64492190
0.67825903 1.00088751 0.64361586
0.69980379 1.00093573 0.64131309
0.74891276 1.00101015 0.63694777
0.98144195 1.00045001 0.60047563
0.27476483 0.17423266 0.99125914
0.39741611 0.18805675 1.00077529
0.54785071 0.19538326 1.00026832
0.69263944 0.20468578 1.00040679
0.81455950 0.22047276 1.00065674
0.90141047 0.24348012 1.00043073
0.98168190 0.27777557 1.00098556
1.00096227 0.34084039 0.99907016
1.00060223 0.64550671 0.78102169
0.14265898 0.33296419 1.00101508
0.28891494 0.32589825 1.00108166
0.46103296 0.31804289 1.00087464
0.62540101 0.31417356 1.00067585
0.76182594 0.31678327 1.00077490
0.86723066 0.32516951 1.00065776
0.96404783 0.34360753 1.00082754
1.00081809 0.38707302 0.99799887
1.00049693 0.65268116 0.78074090
0.06091331 0.46994830 1.00064955
0.17391233 0.46051820 1.00052802
0.36535261 0.44718302 1.00093945
0.54897854 0.43515310 1.00092622
0.69989444 0.42810939 1.00106071
0.82040483 0.42637353 1.00090487
0.92825145 0.43208442 0.99801846
0.99848135 0.45466677 0.99370494
1.00043140 0.66399463 0.77994961
0.03979140 0.58788418 1.00088359
0.10562927 0.57903229 1.00084179
0.29179420 0.56530172 1.00051339
0.48132938 0.55083311 1.00083283
0.63969345 0.53938563 0.99903439
0.77373304 0.53219251 0.99811231
0.89010825 0.52750556 0.99665860
0.99731305 0.53217023 0.98443623
1.00069814 0.67868895 0.77801659
0.02853236 0.68048367 1.00089267
0.07097246 0.67404818 1.00088066
0.22629653 0.66235439 1.00101872
0.41844244 0.64812279 0.99865056
0.58332330 0.63650260 0.99814309
0.71733460 0.62591265 0.99431526
0.85214174 0.61778020 0.98288484
0.98346803 0.60956268 0.96695298
1.00096078 0.69791673 0.77615816
0.05245423 0.75511674 0.99918650
0.09376743 0.74994432 0.99932657
0.21001591 0.73974054 0.99811159
0.38357085 0.72717103 0.99795559
0.54218291 0.71611574 0.98942020
0.67410791 0.70544750 0.98095344
0.81428705 0.69278087 0.96607588
0.95945769 0.68043347 0.93808280
1.00097751 0.71935009 0.77282812
0.05376620 0.82613111 0.99290432
0.08767895 0.82286416 0.98938350
0.18289426 0.81654355 0.98199459
0.35928823 0.80695301 0.97444773
0.49448629 0.79884719 0.96244489
0.62173947 0.78899633 0.94739851
0.76592082 0.77688256 0.92714446
0.91247168 0.76336967 0.90408678
1.00046601 0.75060315 0.76743323
0.15419217 0.90043083 0.92685512
0.19548680 0.89877162 0.92402416
0.26356047 0.89592637 0.91788357
0.35105985 0.89182455 0.91059293
0.46189079 0.88547049 0.90025990
0.56812834 0.87889643 0.88982573
0.69479070 0.86838727 0.87373461
0.85199666 0.85199666 0.85199666
1.00074155 0.80299862 0.75596713
0.62747331 1.00087652 0.71463001
0.63071652 1.00086345 0.71444772
0.63636839 1.00084010 0.71412883
0.64504968 1.00080278 0.71363590
0.65677174 1.00074964 0.71296484
0.67137691 1.00067918 0.71212150
0.69269412 1.00070868 0.70999437
0.74178887 1.00075176 0.70593415
0.98199168 0.99969769 0.67106783
0.63582325 0.54699857 1.00031456
0.65423035 0.54858812 1.00030668
0.68258350 0.55131898 1.00034481
0.72208509 0.55499142 1.00040570
0.77410605 0.55831041 1.00045248
0.81673742 0.56240985 1.00005775
0.87543672 0.56675842 1.00012712
0.95716799 0.57468373 1.00052196
1.00038670 0.65105302 0.99936289
0.60436321 0.56277661 1.00055027
0.62335326 0.56421566 1.00059280
0.65355384 0.56675532 1.00067338
0.69537659 0.57037072 1.00074619
0.74672973 0.57393350 1.00062460
0.79401215 0.57764249 1.00041473
0.86013138 0.58165637 1.00035202
0.94404402 0.58768467 1.00046115
1.00052187 0.65581811 0.99943038
0.55383493 0.58849467 1.00106355
0.57508635 0.58944960 1.00105030
0.60996563 0.59110854 1.00102803
0.65822605 0.59354625 1.00103419
0.70991556 0.59681945 1.00093603
0.76547305 0.60020562 1.00074640
0.83176091 0.60321660 1.00046006
0.92153783 0.60824504 1.00068967
1.00073092 0.66379771 0.99954438
0.49290765 0.62361213 1.00106514
0.51664967 0.62369361 1.00106204
0.55578921 0.62389646 1.00104640
0.60994440 0.62444947 1.00095826
0.66676846 0.62576634 1.00075339
0.72467995 0.62844228 1.00058893
0.79657110 0.63275038 1.00040504
0.89553093 0.63555119 1.00065509
1.00090700 0.67539016 0.99973589
0.42718865 0.66209251 1.00104425
0.45509822 0.66151655 1.00103616
0.50058418 0.66052423 1.00102269
0.55451837 0.65967350 1.00088737
0.61915320 0.65893938 1.00067579
0.68052735 0.66022395 1.00049829
0.75895218 0.66367105 1.00084051
0.86690279 0.66598169 1.00037192
1.00098709 0.69081980 0.99999822
0.37182963 0.70074106 1.00105107
0.39853027 0.69979926 1.00104462
0.44158868 0.69833484 1.00101488
0.50262581 0.69627368 1.00096804
0.57071251 0.69463118 1.00081517
0.63586417 0.69390309 1.00079529
0.72366345 0.69396411 1.00067625
0.83595066 0.69673617 1.00065265
1.00079069 0.70900416 1.00056690
0.29407582 0.75354232 1.00082163
0.32234782 0.75185487 1.00077625
0.37277051 0.74896654 1.00071642
0.45203443 0.74464540 1.00074559
0.51323124 0.74218977 1.00081288
0.58132841 0.73964226 1.00091973
0.67497551 0.73659468 1.00096236
0.80132577 0.73786147 1.00079774
1.00052470 0.73703624 1.00083573
0.24334747 0.81943813 1.00065993
0.26748589 0.81825273 1.00057385
0.31027821 0.81620407 1.00041720
0.37778227 0.81310742 1.00016663
0.45279822 0.80984666 0.99998130
0.51580203 0.80627738 1.00021737
0.61168855 0.80092706 1.00057545
0.74652882 0.79696200 1.00065929
1.00090065 0.78441595 1.00101518
0.44381866 0.99834726 0.99863147
0.44965389 0.99833198 0.99855731
0.45978865 0.99830581 0.99843471
0.47535940 0.99826680 0.99826593
0.49652410 0.99821665 0.99808597
0.52305113 0.99815874 0.99797930
0.55574343 0.99800799 0.99797137
0.62007921 0.99813226 0.99821745
0.98019703 0.98019703 0.98019703
