public/luts/builtin/fuji_acros.cube
TITLE "Rec709800_sRGB-LA:FLog2_to_ACROS_LA:FLog2_to_ACROS"
LUT_3D_SIZE 5
# Rec709 (800%)/sRGB -> LA - :FLog2_to_ACROS/LA - :FLog2_to_ACROS, CineEI Shift 0.00, Black Level -0.01% IRE, Input 100% -> Output 100% - Created with LUTCalc v4.09 by Ben Turley February 2025
0.00000000 0.00000000 0.00000000
0.02824707 0.02824707 0.02824707
0.13143028 0.13143028 0.13143028
0.27584934 0.27584934 0.27584934
0.73424910 0.73424910 0.73424910
0.11856561 0.11856561 0.11856561
0.16209655 0.16209655 0.16209655
0.25255683 0.25255683 0.25255683
0.37738535 0.37738535 0.37738535
0.74816590 0.74816590 0.74816590
0.39572865 0.39572865 0.39572865
0.41898090 0.41898090 0.41898090
0.46629592 0.46629592 0.46629592
0.54085863 0.54085863 0.54085863
0.77577160 0.77577160 0.77577160
0.65305607 0.65305607 0.65305607
0.66216327 0.66216327 0.66216327
0.68128584 0.68128584 0.68128584
0.71307765 0.71307765 0.71307765
0.81672900 0.81672900 0.81672900
0.93528545 0.93528545 0.93528545
0.93602279 0.93602279 0.93602279
0.93777950 0.93777950 0.93777950
0.94122458 0.94122458 0.94122458
0.96538621 0.96538621 0.96538621
0.01418082 0.01418082 0.01418082
0.05843246 0.05843246 0.05843246
0.17993929 0.17993929 0.17993929
0.32156580 0.32156580 0.32156580
0.74201594 0.74201594 0.74201594
0.18004400 0.18004400 0.18004400
0.22153141 0.22153141 0.22153141
0.30765937 0.30765937 0.30765937
0.42551237 0.42551237 0.42551237
0.75558545 0.75558545 0.75558545
0.44225162 0.44225162 0.44225162
0.46471593 0.46471593 0.46471593
0.50799100 0.50799100 0.50799100
0.57489495 0.57489495 0.57489495
0.78089793 0.78089793 0.78089793
0.66907716 0.66907716 0.66907716
0.67800144 0.67800144 0.67800144
0.69712727 0.69712727 0.69712727
0.72928718 0.72928718 0.72928718
0.82018762 0.82018762 0.82018762
0.93568222 0.93568222 0.93568222
0.93642425 0.93642425 0.93642425
0.93818556 0.93818556 0.93818556
0.94168941 0.94168941 0.94168941
0.96632929 0.96632929 0.96632929
0.04140086 0.04140086 0.04140086
0.11639791 0.11639791 0.11639791
0.25771509 0.25771509 0.25771509
0.40395520 0.40395520 0.40395520
0.75400548 0.75400548 0.75400548
0.26532932 0.26532932 0.26532932
0.31392890 0.31392890 0.31392890
0.39487908 0.39487908 0.39487908
0.49786733 0.49786733 0.49786733
0.76662290 0.76662290 0.76662290
0.49813066 0.49813066 0.49813066
0.52266832 0.52266832 0.52266832
0.56271389 0.56271389 0.56271389
0.62306345 0.62306345 0.62306345
0.78966438 0.78966438 0.78966438
0.69144889 0.69144889 0.69144889
0.70122626 0.70122626 0.70122626
0.72171492 0.72171492 0.72171492
0.75317693 0.75317693 0.75317693
0.82655630 0.82655630 0.82655630
0.93681349 0.93681349 0.93681349
0.93758047 0.93758047 0.93758047
0.93939010 0.93939010 0.93939010
0.94289967 0.94289967 0.94289967
0.96833406 0.96833406 0.96833406
0.11885042 0.11885042 0.11885042
0.23101455 0.23101455 0.23101455
0.36798710 0.36798710 0.36798710
0.49869445 0.49869445 0.49869445
0.76961192 0.76961192 0.76961192
0.35867101 0.35867101 0.35867101
0.41488777 0.41488777 0.41488777
0.49058746 0.49058746 0.49058746
0.57400384 0.57400384 0.57400384
0.78029701 0.78029701 0.78029701
0.55064489 0.55064489 0.55064489
0.57843977 0.57843977 0.57843977
0.62139194 0.62139194 0.62139194
0.67383760 0.67383760 0.67383760
0.80180838 0.80180838 0.80180838
0.71192735 0.71192735 0.71192735
0.72369401 0.72369401 0.72369401
0.74626165 0.74626165 0.74626165
0.77652265 0.77652265 0.77652265
0.83501976 0.83501976 0.83501976
0.93817113 0.93817113 0.93817113
0.93899069 0.93899069 0.93899069
0.94091348 0.94091348 0.94091348
0.94446627 0.94446627 0.94446627
0.97183585 0.97183585 0.97183585
0.62872439 0.62872439 0.62872439
0.64298635 0.64298635 0.64298635
0.66940657 0.66940657 0.66940657
0.70629106 0.70629106 0.70629106
0.82021198 0.82021198 0.82021198
0.63618364 0.63618364 0.63618364
0.65021374 0.65021374 0.65021374
0.67706292 0.67706292 0.67706292
0.71351422 0.71351422 0.71351422
0.82623638 0.82623638 0.82623638
0.65721392 0.65721392 0.65721392
0.67010422 0.67010422 0.67010422
0.69496396 0.69496396 0.69496396
0.72934078 0.72934078 0.72934078
0.83906827 0.83906827 0.83906827
0.70002518 0.70002518 0.70002518
0.70942678 0.70942678 0.70942678
0.72892218 0.72892218 0.72892218
0.75892922 0.75892922 0.75892922
0.86121135 0.86121135 0.86121135
0.92731980 0.92731980 0.92731980
0.92826511 0.92826511 0.92826511
0.93042955 0.93042955 0.93042955
0.93449586 0.93449586 0.93449586
0.98632240 0.98632240 0.98632240
