public/luts/builtin/fuji_velvia.cube
TITLE "Rec709800_sRGB-LA:FLog2_to_Velvia_LA:FLog2_to_Velvia"
LUT_3D_SIZE 5
# Rec709 (800%)/sRGB -> LA - :FLog2_to_Velvia/LA - :FLog2_to_Velvia, CineEI Shift 0.00, Black Level -0.00% IRE, Input 100% -> Output 100% - Created with LUTCalc v4.09 by Ben Turley February 2025
0.00000000 0.00000000 0.00000000
0.10506033 0.00090624 0.00000000
0.53891264 0.00000069 0.00000000
0.93257996 0.05127917 0.00118721
1.00040122 0.60999411 0.23482104
0.00000000 0.17804699 0.00000000
0.16325806 0.19017397 0.00000000
0.56475002 0.21940011 0.00000612
0.88843230 0.30463376 0.00000589
1.00039993 0.63287134 0.23701836
0.00057131 0.62778932 0.00000797
0.17952932 0.60668742 0.00000000
0.54164473 0.58343487 0.00000000
0.82759736 0.58233275 0.00001112
1.00036792 0.67694589 0.24177299
0.06522238 0.89797609 0.00000000
0.21726699 0.87637268 0.00000000
0.50817391 0.84395722 0.00001122
0.76692212 0.81180219 0.00000881
1.00049178 0.75603307 0.24935011
0.58507684 1.00026551 0.37976770
0.59369274 1.00025725 0.37847953
0.61361751 1.00023909 0.37549627
0.65151078 1.00023317 0.37007789
1.00086328 1.00063814 0.30139939
0.00000000 0.00000491 0.06089793
0.19752335 0.00001101 0.10677934
0.66585392 0.00001131 0.23835271
0.96900742 0.04193257 0.32651879
1.00045541 0.60554676 0.34415883
0.00000063 0.23683334 0.26500237
0.22137481 0.22137481 0.22137481
0.60828185 0.23066788 0.18988059
0.91593745 0.29683858 0.21947318
1.00046684 0.62765991 0.34132119
0.00242631 0.61793930 0.20972220
0.19166037 0.59420473 0.17065274
0.54995073 0.56722282 0.13698328
0.83663951 0.56336431 0.14179615
1.00048596 0.67159203 0.33776425
0.06277200 0.87675932 0.17962681
0.20988200 0.85197040 0.16007264
0.50533095 0.82250543 0.13000180
0.76576061 0.79611199 0.12453275
1.00038201 0.74927088 0.33107072
0.58286489 1.00031185 0.40249591
0.59148787 1.00030228 0.40119234
0.61143242 1.00028085 0.39816481
0.64928280 1.00024304 0.39230081
1.00085675 1.00058694 0.32164134
0.00185828 0.00000074 0.30656403
0.33311336 0.00000226 0.52733645
0.76075127 0.00000043 0.72421616
0.99371015 0.06317378 0.72317083
1.00057095 0.60438452 0.49636187
0.00000000 0.30075846 0.75717882
0.26941558 0.26702075 0.69972534
0.64583679 0.26218038 0.65007668
0.94537940 0.30887334 0.61948589
1.00063854 0.62467145 0.49069957
0.00912427 0.62361996 0.65014556
0.19762280 0.59532805 0.61011943
0.56212714 0.56212714 0.56212714
0.84906523 0.55316226 0.52946566
1.00048020 0.66593362 0.47841996
0.05398996 0.85826005 0.54211514
0.19495713 0.83648132 0.52051246
0.50279072 0.80654114 0.48727864
0.76561905 0.77802931 0.46015599
1.00042379 0.73888472 0.45988447
0.57668588 1.00030462 0.45275621
0.58514435 1.00030566 0.45121809
0.60470480 1.00030807 0.44762273
0.64259441 1.00027389 0.44159184
1.00083065 1.00047361 0.36410955
0.09725227 0.00038020 0.80609971
0.50777884 0.00000134 0.97298081
0.82239665 0.00253693 1.00066376
0.99979572 0.11758989 0.98257830
1.00027925 0.61250574 0.65279249
0.00246042 0.36145059 1.00023435
0.33532693 0.32531675 0.99195282
0.68046683 0.31276865 0.97005852
0.96441579 0.33759261 0.92957256
1.00040549 0.62962257 0.64648666
0.01109102 0.63248244 0.97959638
0.19899398 0.60504081 0.95757186
0.57377011 0.57245160 0.90394330
0.86313543 0.55604554 0.85567249
1.00030200 0.66557410 0.63480046
0.03521325 0.83643504 0.88432021
0.16045430 0.82429081 0.85529083
0.49626754 0.79398939 0.81035585
0.76053305 0.76053305 0.76053305
1.00038346 0.73112413 0.61077023
0.56847565 1.00027614 0.53489615
0.57682247 1.00026655 0.53354853
0.59609819 1.00024547 0.53039547
0.63355158 1.00024175 0.52415751
1.00085735 1.00023610 0.44125559
0.65156634 0.44301475 1.00036846
0.69499518 0.44829766 1.00029405
0.79062162 0.45664913 1.00025895
0.91658153 0.46633048 1.00032432
1.00029724 0.58167778 1.00035610
0.57701086 0.49343244 1.00063725
0.62506313 0.49655519 1.00060305
0.71800713 0.50297599 1.00062254
0.86116171 0.50943931 1.00037464
1.00025910 0.59531070 1.00039726
0.45935390 0.58137372 1.00036709
0.52262523 0.57876995 1.00028746
0.62475250 0.57590948 1.00025971
0.76258641 0.58003701 1.00043413
1.00025314 0.62440588 1.00039575
0.32159404 0.68987703 1.00029724
0.39927516 0.68316563 1.00026554
0.52455550 0.67409904 1.00026062
0.66770316 0.66621366 1.00032166
1.00037970 0.67289675 1.00048104
0.37561324 1.00026532 1.00021754
0.39307427 1.00025640 1.00021873
0.43301469 1.00023682 1.00022156
0.49414775 1.00035747 1.00022139
0.99082751 0.99082751 0.99082751
