public/luts/builtin/fuji_provia.cube
TITLE "Rec709800_sRGB-LA:FLog2_to_PROVIA_LA:FLog2_to_PROVIA"
LUT_3D_SIZE 33
# Rec709 (800%)/sRGB -> LA - :FLog2_to_PROVIA/LA - :FLog2_to_PROVIA, CineEI Shift 0.00, Black Level -0.02% IRE, Input 100% -> Output 100% - Created with LUTCalc v4.09 by Ben Turley February 2025
0.00000000 0.00000000 0.00000000
0.00000000 0.00001075 0.00000000
0.00809892 0.00000000 0.00000400
0.03187508 0.00106020 0.00000000
0.05393557 0.00161648 0.00297489
0.07597602 0.00207554 0.00505887
0.09996782 0.00221103 0.00747195
0.12584803 0.00242430 0.00967695
0.15866412 0.00266402 0.01295711
0.19525345 0.00453427 0.01534661
0.23213374 0.00888171 0.01684524
0.27363725 0.01163520 0.01866465
0.31541013 0.01460141 0.02025220
0.36094106 0.01826560 0.02232299
0.40582957 0.02189851 0.02452455
0.45919953 0.02559898 0.02809128
0.50798035 0.02997456 0.03086418
0.56056168 0.03293481 0.03568442
0.60772600 0.03753787 0.03813595
0.65139420 0.04237774 0.04039566
0.69331074 0.04971689 0.04375156
0.73930983 0.05941490 0.04897901
0.78623399 0.06908732 0.05451337
0.82576486 0.08065030 0.06095946
0.85958034 0.09437617 0.06655428
0.90366318 0.11350417 0.07400718
0.94264870 0.13435585 0.08247763
0.98188536 0.16386422 0.09726905
0.99961519 0.20049647 0.11801863
1.00017299 0.24602963 0.15367343
1.00068882 0.30835370 0.20014196
0.99980369 0.38381951 0.20770748
1.00007973 0.59763866 0.29120582
0.00000000 0.00001081 0.00000000
0.00000693 0.00000103 0.00000000
0.01730018 0.00272199 0.00000000
0.03552892 0.00639546 0.00000000
0.05520573 0.00894878 0.00000000
0.07807949 0.01087813 0.00240470
0.10529576 0.01266241 0.00345852
0.13553565 0.01486590 0.00493293
0.17097547 0.01874916 0.00755915
0.20897494 0.02200508 0.00971479
0.24746014 0.02558129 0.01145317
0.28894339 0.02883112 0.01305697
0.33071749 0.03354607 0.01469921
0.37723798 0.03678502 0.01718329
0.42350212 0.03963374 0.01989080
0.47419764 0.04259558 0.02229866
0.52019068 0.04687974 0.02431043
0.56769856 0.05224471 0.02718830
0.61272052 0.05783820 0.03008860
0.65068272 0.06380237 0.03225689
0.68821240 0.06995963 0.03626136
0.73349713 0.07822298 0.04074239
0.78135140 0.08759080 0.04544948
0.82049142 0.09932338 0.05097450
0.85692465 0.11407755 0.05717774
0.90120262 0.13084528 0.06509457
0.94093946 0.15277544 0.07349755
0.98125301 0.18177658 0.08784897
0.99887994 0.21552526 0.10884911
1.00016884 0.25985788 0.14568206
1.00078920 0.31983584 0.19590452
0.99978028 0.39206843 0.20610842
1.00010865 0.60000989 0.29145296
0.00000000 0.02155005 0.00000451
0.00009501 0.02277222 0.00006994
0.01986792 0.02370137 0.00000000
0.03858505 0.02572715 0.00000000
0.05882944 0.02760020 0.00001089
0.08365125 0.02904989 0.00001067
0.11062847 0.03186072 0.00005716
0.14111044 0.03511340 0.00000000
0.17979173 0.03801154 0.00000000
0.21724768 0.04003358 0.00129986
0.25710448 0.04288132 0.00619659
0.29878482 0.04636840 0.00859091
0.34264827 0.05024924 0.01045765
0.38888375 0.05374484 0.01272822
0.43602068 0.05760119 0.01483950
0.48492339 0.06170174 0.01683332
0.52740313 0.06597392 0.01821958
0.56970928 0.07081954 0.02002445
0.60979132 0.07563195 0.02181491
0.64837401 0.08113089 0.02430320
0.68567823 0.08743261 0.02848900
0.72927944 0.09635187 0.03299400
0.77853649 0.10636654 0.03731517
0.81810510 0.11828848 0.04214749
0.85431378 0.13163967 0.04732095
0.89879493 0.14922929 0.05638609
0.93925643 0.17159699 0.06631245
0.98078966 0.19840606 0.08008887
0.99829671 0.23060100 0.10075748
1.00014966 0.27319927 0.13841472
1.00087630 0.33105919 0.19182599
0.99980604 0.40023540 0.20453951
1.00013720 0.60235903 0.29170351
0.00000000 0.03986221 0.00000000
0.00681520 0.04140066 0.00000000
0.02331319 0.04280885 0.00000000
0.04098025 0.04527913 0.00000523
0.06176044 0.04744710 0.00000703
0.08441532 0.04971074 0.00000000
0.11510368 0.05199721 0.00001079
0.14762500 0.05453216 0.00000370
0.18661221 0.05712031 0.00000865
0.22429609 0.05977003 0.00000773
0.26507933 0.06221841 0.00000000
0.30800199 0.06529688 0.00000000
0.35247322 0.06856969 0.00422492
0.39692098 0.07166079 0.00670716
0.44215795 0.07518926 0.00838818
0.48646795 0.07918404 0.00967284
0.52829380 0.08326584 0.01144835
0.57016055 0.08851317 0.01384449
0.60829432 0.09419938 0.01552179
0.64525943 0.10044705 0.01776445
0.68137558 0.10714669 0.02084706
0.72520816 0.11600185 0.02472508
0.77632570 0.12494681 0.02967251
0.81464234 0.13604271 0.03385945
0.85252384 0.15049944 0.03823368
0.89752111 0.16851587 0.04606509
0.93704216 0.18963719 0.05646955
0.98008444 0.21423281 0.07229402
0.99825697 0.24570512 0.09441995
1.00012058 0.28645146 0.13175492
1.00093264 0.34232453 0.18731125
0.99985713 0.40860267 0.20296397
1.00016636 0.60477010 0.29196637
0.00161678 0.06375183 0.00000000
0.00944758 0.06525409 0.00003603
0.02705996 0.06678744 0.00000832
0.04367920 0.06852090 0.00000000
0.06798507 0.07002942 0.00000000
0.09184310 0.07182622 0.00005130
0.12084717 0.07381094 0.00006997
0.15368967 0.07633330 0.00000113
0.19351341 0.07909461 0.00000638
0.23099633 0.08133351 0.00000456
0.27193367 0.08383629 0.00000935
0.31325265 0.08670095 0.00000172
0.35672360 0.08956019 0.00000000
0.40014679 0.09243246 0.00000000
0.44479300 0.09646576 0.00000000
0.48702386 0.10116365 0.00000000
0.52723724 0.10631683 0.00000000
0.56734534 0.11179549 0.00163620
0.60520523 0.11732893 0.00771569
0.64277482 0.12285576 0.01099174
0.67884863 0.12868913 0.01452301
0.72210358 0.13739331 0.01776410
0.77204568 0.14725484 0.02072398
0.81053322 0.15952132 0.02373925
0.85092788 0.17398789 0.02927357
0.89488621 0.19085914 0.03698335
0.93423534 0.20937161 0.04568168
0.97846257 0.23322833 0.06165837
0.99802414 0.26299240 0.08321406
1.00010394 0.30177093 0.12486396
1.00098388 0.35541692 0.18169830
0.99987057 0.41863530 0.20125204
1.00020102 0.60765223 0.29228824
0.00266805 0.08965142 0.00006659
0.01456628 0.09061089 0.00001760
0.02816168 0.09247135 0.00005417
0.04570061 0.09383439 0.00000913
0.06908114 0.09526671 0.00003007
0.09393912 0.09682385 0.00001079
0.12427038 0.09905758 0.00003253
0.15980921 0.10221689 0.00000000
0.19879677 0.10542088 0.00000000
0.23742239 0.10857607 0.00000000
0.27812594 0.11095826 0.00001267
0.31778291 0.11347218 0.00000380
0.35921995 0.11676578 0.00000018
0.40061146 0.11967752 0.00000000
0.44444830 0.12338518 0.00000361
0.48567801 0.12762758 0.00000984
0.52591986 0.13211053 0.00001091
0.56547618 0.13702149 0.00005113
0.60267784 0.14269999 0.00000000
0.64028546 0.14934310 0.00000000
0.67599053 0.15655763 0.00343846
0.71906151 0.16578077 0.00876072
0.77134201 0.17594006 0.01297331
0.80859952 0.18716557 0.01639656
0.84820796 0.19977360 0.02069752
0.89245507 0.21453032 0.02742679
0.93134644 0.23228372 0.03680142
0.97471171 0.25473103 0.04980072
0.99804404 0.28271915 0.07292426
1.00012974 0.31895838 0.11519103
1.00103595 0.37048932 0.17563052
0.99987486 0.43040348 0.19933773
1.00024174 0.61106245 0.29267998
0.00370873 0.12226967 0.00000000
0.01420441 0.12423612 0.00000587
0.03036147 0.12532236 0.00000164
0.04701086 0.12641458 0.00000639
0.07128918 0.12721051 0.00000238
0.09644298 0.12864313 0.00000552
0.12684996 0.13034400 0.00000000
0.16152710 0.13288617 0.00000704
0.20190731 0.13536319 0.00000000
0.24121113 0.13780874 0.00000000
0.28162577 0.13998669 0.00000000
0.32186729 0.14293469 0.00004245
0.36157793 0.14623819 0.00000134
0.40105934 0.15000716 0.00001080
0.44458638 0.15446517 0.00000000
0.48475609 0.15915296 0.00000000
0.52476057 0.16396213 0.00000000
0.56369219 0.16898665 0.00000000
0.60058788 0.17451208 0.00001044
0.63873740 0.18099986 0.00003272
0.67374179 0.18776535 0.00000000
0.71622446 0.19678088 0.00000000
0.76567872 0.20544190 0.00090293
0.80440895 0.21506645 0.00661287
0.84710102 0.22666140 0.01267234
0.89161005 0.24079320 0.01999807
0.92750066 0.25758406 0.02699869
0.97079237 0.27824127 0.03989744
0.99568571 0.30433623 0.06483954
1.00016576 0.33815640 0.10519565
1.00094479 0.38673912 0.16750641
0.99993021 0.44358551 0.19787854
1.00028799 0.61497117 0.29314376
0.00181595 0.16262230 0.00000076
0.01657218 0.16303681 0.00000249
0.03093868 0.16413844 0.00000023
0.04964199 0.16458356 0.00001064
0.07155185 0.16543482 0.00000519
0.10095849 0.16627316 0.00000591
0.12936491 0.16817535 0.00000000
0.16465582 0.17000476 0.00000000
0.20328544 0.17264840 0.00004972
0.24190785 0.17452573 0.00004220
0.28245806 0.17713105 0.00000531
0.32191768 0.18024158 0.00003345
0.36263369 0.18287175 0.00006430
0.40326538 0.18609500 0.00006595
0.44569819 0.19012526 0.00000192
0.48418763 0.19464886 0.00000635
0.52426752 0.19882332 0.00000000
0.56236090 0.20300673 0.00000000
0.59861109 0.20738659 0.00000159
0.63618423 0.21304499 0.00000000
0.67071240 0.21894897 0.00000313
0.71500239 0.22709984 0.00000000
0.76438531 0.23540891 0.00001473
0.80147969 0.24509377 0.00000000
0.84301341 0.25608051 0.00131967
0.88716131 0.26888317 0.00945023
0.92398540 0.28426959 0.01814428
0.96783977 0.30342127 0.03435995
0.99638100 0.32729880 0.06021727
1.00022370 0.35918886 0.09817454
1.00083110 0.40441486 0.15928798
1.00000126 0.45777461 0.19640513
1.00033914 0.61934280 0.29368154
0.00390866 0.20758768 0.00000000
0.01641436 0.20733706 0.00000077
0.03356739 0.20743291 0.00000899
0.05129791 0.20775579 0.00000155
0.07351799 0.20788659 0.00001090
0.10067548 0.20842463 0.00000980
0.13380713 0.20912443 0.00000385
0.16772612 0.21044875 0.00000011
0.20603436 0.21202710 0.00000324
0.24405216 0.21305589 0.00000771
0.28406249 0.21551336 0.00000518
0.32419600 0.21731472 0.00000995
0.36336427 0.21984170 0.00000337
0.40353453 0.22265314 0.00000316
0.44418897 0.22619556 0.00000750
0.48295428 0.22995717 0.00000000
0.52336549 0.23353071 0.00000000
0.56139213 0.23740494 0.00000000
0.59818498 0.24176483 0.00000000
0.63503206 0.24720766 0.00000000
0.66885103 0.25286580 0.00000000
0.71239097 0.26051154 0.00000000
0.75736160 0.26793556 0.00000489
0.79646714 0.27668592 0.00001991
0.84148721 0.28664368 0.00000000
0.88371508 0.29829121 0.00000000
0.91955057 0.31230073 0.00849664
0.96281604 0.33013900 0.02624686
0.99076209 0.35240257 0.05006214
1.00021532 0.38164965 0.09259826
1.00068956 0.42383065 0.15098836
1.00005171 0.47326079 0.19421824
1.00039533 0.62421231 0.29430484
0.01138878 0.25235379 0.00000731
0.01975862 0.25122053 0.00000431
0.03431270 0.25122925 0.00001092
0.05239653 0.25051566 0.00000000
0.07875036 0.25028819 0.00004502
0.10503746 0.25062995 0.00007067
0.13513759 0.25102121 0.00000000
0.17195107 0.25187590 0.00000000
0.20884351 0.25270958 0.00007058
0.24843244 0.25374959 0.00000141
0.28773821 0.25518969 0.00000787
0.32638923 0.25667019 0.00000541
0.36574754 0.25875021 0.00000000
0.40535405 0.26141442 0.00000000
0.44477605 0.26457067 0.00000000
0.48351615 0.26780327 0.00000000
0.52294370 0.27101673 0.00000159
0.56001291 0.27453247 0.00000317
0.59731198 0.27844304 0.00000259
0.63427381 0.28275688 0.00000000
0.66775932 0.28760067 0.00000000
0.71274728 0.29432922 0.00000000
0.75618328 0.30092850 0.00000000
0.79226236 0.30872573 0.00000000
0.83828706 0.31779061 0.00000301
0.87883482 0.32863044 0.00005688
0.91386570 0.34181705 0.00000000
0.95746297 0.35817810 0.01968895
0.98481523 0.37834578 0.04144807
1.00018241 0.40527467 0.08648870
1.00053071 0.44415195 0.14433037
1.00010654 0.48950586 0.19202930
1.00042800 0.62943430 0.29513438
0.01577469 0.29764321 0.00000791
0.02481609 0.29657232 0.00000537
0.03848548 0.29578744 0.00000362
0.05605514 0.29516812 0.00007440
0.07961951 0.29471244 0.00000000
0.11041404 0.29441816 0.00000000
0.13823882 0.29481286 0.00000000
0.17534633 0.29487776 0.00000000
0.21313876 0.29523865 0.00007423
0.25065241 0.29617287 0.00000000
0.29055040 0.29722653 0.00000987
0.32853209 0.29866832 0.00000893
0.36730400 0.29995998 0.00000000
0.40733351 0.30117229 0.00000000
0.44621093 0.30358377 0.00000000
0.48524659 0.30612201 0.00000000
0.52348969 0.30879373 0.00000000
0.55974730 0.31168323 0.00000618
0.59736478 0.31522606 0.00000195
0.63353617 0.31927169 0.00000000
0.66679360 0.32358500 0.00000000
0.71067970 0.32943718 0.00000000
0.75287157 0.33536658 0.00000000
0.78862196 0.34276066 0.00000000
0.83249805 0.35060938 0.00000000
0.87308628 0.36058412 0.00001625
0.91028429 0.37245051 0.00000000
0.95266845 0.38699109 0.01095147
0.98571325 0.40527720 0.03616136
1.00015734 0.43032761 0.07895839
1.00040013 0.46561512 0.13991534
1.00016021 0.50662858 0.19045888
1.00045209 0.63503244 0.29611306
0.02200326 0.34265718 0.00000996
0.03261353 0.34172316 0.00000420
0.04305830 0.34096303 0.00000000
0.05970124 0.34007434 0.00000000
0.08046250 0.33930582 0.00001153
0.11206891 0.33881304 0.00006612
0.14278038 0.33839564 0.00000000
0.17854312 0.33785924 0.00000000
0.21679504 0.33772658 0.00007227
0.25467622 0.33815957 0.00000000
0.29246202 0.33898095 0.00000958
0.33116673 0.34028967 0.00000933
0.37038843 0.34104968 0.00001093
0.40878564 0.34204241 0.00001053
0.44807245 0.34331335 0.00000860
0.48754793 0.34508870 0.00000216
0.52458944 0.34775299 0.00001092
0.56022171 0.35065827 0.00000740
0.59753834 0.35365121 0.00000696
0.63281906 0.35713836 0.00000000
0.66540066 0.36099137 0.00000000
0.70912203 0.36608219 0.00000000
0.74835684 0.37122292 0.00000000
0.78701170 0.37734148 0.00000000
0.83361534 0.38444930 0.00000164
0.87040945 0.39316731 0.00006320
0.90710101 0.40377803 0.00000000
0.94812834 0.41752356 0.00446360
0.98279541 0.43382677 0.03060683
1.00013686 0.45555609 0.07129085
1.00017728 0.48730507 0.13349290
1.00021281 0.52443355 0.18952116
1.00047757 0.64100196 0.29720034
0.02488017 0.38878735 0.00005478
0.03641767 0.38783699 0.00003366
0.04940398 0.38690808 0.00001089
0.06514686 0.38607650 0.00001027
0.08471791 0.38533897 0.00001090
0.11351089 0.38439763 0.00000636
0.14867680 0.38320375 0.00000000
0.18234369 0.38268444 0.00007194
0.21861400 0.38218556 0.00007085
0.25942462 0.38166893 0.00006573
0.29630487 0.38213522 0.00000265
0.33395328 0.38262544 0.00001018
0.37337789 0.38320664 0.00000082
0.41142506 0.38396782 0.00000000
0.45089354 0.38470845 0.00000000
0.48969997 0.38557837 0.00001652
0.52645509 0.38698442 0.00000000
0.56223850 0.38934494 0.00000127
0.59856108 0.39184407 0.00001070
0.63305300 0.39460661 0.00000000
0.66540050 0.39766161 0.00000000
0.70828988 0.40233649 0.00000000
0.74644700 0.40714673 0.00000000
0.78543092 0.41269056 0.00000000
0.82695110 0.41890700 0.00000108
0.86410634 0.42700895 0.00005947
0.90338015 0.43650596 0.00000000
0.94412849 0.44808563 0.00074617
0.98028704 0.46189682 0.02566612
0.99956033 0.48145852 0.06727672
0.99993245 0.50918184 0.12661537
1.00025592 0.54248621 0.18868673
1.00050418 0.64729269 0.29839606
0.03185130 0.43437094 0.00000000
0.04273120 0.43336928 0.00001515
0.05671596 0.43247977 0.00001055
0.07147136 0.43163699 0.00000337
0.09001002 0.43044520 0.00001089
0.11668186 0.42920600 0.00000475
0.14992127 0.42798423 0.00000112
0.18858158 0.42683875 0.00002349
0.22253067 0.42568524 0.00000005
0.26097840 0.42521465 0.00000314
0.30179454 0.42484319 0.00000575
0.33817313 0.42504587 0.00000183
0.37580785 0.42553056 0.00000000
0.41406381 0.42633775 0.00004568
0.45389533 0.42683024 0.00003900
0.49098203 0.42766809 0.00006131
0.52669734 0.42880962 0.00006630
0.56333369 0.42961170 0.00006871
0.59846753 0.43178660 0.00000091
0.63182669 0.43441082 0.00000787
0.66399988 0.43700384 0.00000743
0.70518434 0.44047317 0.00000000
0.74270289 0.44460863 0.00000000
0.78535023 0.44912648 0.00000000
0.82321360 0.45394638 0.00000832
0.85778645 0.46022839 0.00006191
0.89934237 0.46788937 0.00000000
0.94018075 0.47791562 0.00065321
0.98005203 0.49016058 0.02348863
0.99859915 0.50723993 0.05855552
0.99967957 0.53102456 0.12036613
1.00030716 0.56101653 0.18598779
1.00053189 0.65391914 0.29971196
0.03475932 0.48037668 0.00007398
0.04484002 0.47952731 0.00000000
0.06107447 0.47832218 0.00000172
0.07810750 0.47720384 0.00000549
0.09677796 0.47624342 0.00000026
0.12193347 0.47523916 0.00001163
0.15324580 0.47392927 0.00006572
0.19380973 0.47223229 0.00005236
0.22799020 0.47115105 0.00007433
0.26437600 0.47047807 0.00005640
0.30322766 0.46930474 0.00006036
0.34268549 0.46846551 0.00006839
0.37852615 0.46868069 0.00007403
0.41664410 0.46867018 0.00005915
0.45586734 0.46871050 0.00000471
0.49227976 0.46906614 0.00000000
0.52784099 0.46955496 0.00000522
0.56400132 0.46991425 0.00002402
0.59875486 0.47046920 0.00001316
0.63151210 0.47206396 0.00000057
0.66387753 0.47395096 0.00000852
0.70419476 0.47660336 0.00000803
0.74029540 0.47957377 0.00000000
0.78547121 0.48314034 0.00000082
0.82119267 0.48746254 0.00001024
0.85190844 0.49277200 0.00000000
0.89422359 0.49868636 0.00000000
0.93453918 0.50755563 0.00211056
0.97873207 0.51775766 0.02295592
0.99802039 0.53223014 0.05129881
0.99969287 0.55394623 0.11840575
1.00034370 0.57979158 0.18231129
1.00054987 0.66094929 0.30113202
0.03908778 0.52318997 0.00004816
0.05224102 0.52203385 0.00007440
0.06757863 0.52096132 0.00005834
0.08437732 0.51993398 0.00002588
0.10497163 0.51897468 0.00003641
0.12787843 0.51750777 0.00007287
0.15775231 0.51589951 0.00004561
0.19543782 0.51428056 0.00000000
0.23490321 0.51280206 0.00000000
0.26933437 0.51145722 0.00007051
0.30588065 0.51019647 0.00007431
0.34438134 0.50907619 0.00007265
0.38287950 0.50823516 0.00006184
0.42077951 0.50749094 0.00002307
0.45802986 0.50745967 0.00000000
0.49362731 0.50768975 0.00000655
0.53001523 0.50762498 0.00000629
0.56478724 0.50787277 0.00000133
0.59844434 0.50832018 0.00000000
0.63082830 0.50896715 0.00000029
0.66251789 0.51014668 0.00000149
0.70146327 0.51261897 0.00001023
0.73639666 0.51518989 0.00000338
0.77876555 0.51726699 0.00000000
0.81438823 0.52048584 0.00000000
0.84893296 0.52477241 0.00000574
0.89133222 0.52915212 0.00000000
0.92941552 0.53610912 0.00432947
0.97384213 0.54459900 0.02433441
0.99797321 0.55722719 0.05142050
0.99975342 0.57641604 0.11371730
1.00039094 0.59914837 0.18187358
1.00056108 0.66832307 0.30266285
0.04338236 0.56423494 0.00007430
0.05637899 0.56326772 0.00005595
0.07022439 0.56236856 0.00002444
0.08841683 0.56111481 0.00002832
0.11344756 0.55970822 0.00004900
0.13467938 0.55834941 0.00007412
0.16364343 0.55696417 0.00002885
0.19874256 0.55556287 0.00000000
0.23699099 0.55353242 0.00003202
0.27411750 0.55187957 0.00003998
0.30842392 0.55072317 0.00000000
0.34470996 0.54972601 0.00000000
0.38389124 0.54769369 0.00000000
0.42186039 0.54647383 0.00000000
0.45793536 0.54601447 0.00000492
0.49337061 0.54568751 0.00001042
0.53018690 0.54489840 0.00001060
0.56470864 0.54462593 0.00001085
0.59741011 0.54483285 0.00000873
0.62966391 0.54512072 0.00000669
0.66037288 0.54560072 0.00000603
0.69821583 0.54680586 0.00000879
0.73427817 0.54865742 0.00000837
0.77770794 0.55012441 0.00000401
0.80963673 0.55213691 0.00000000
0.84667399 0.55523468 0.00001081
0.88965701 0.55880452 0.00000000
0.92517999 0.56395250 0.00575195
0.96894044 0.57134459 0.02371096
0.99821686 0.58233659 0.05155602
0.99988455 0.59857962 0.10733334
1.00040235 0.61844244 0.18239688
1.00053910 0.67588174 0.30419099
0.04664905 0.60382876 0.00002126
0.06092473 0.60257685 0.00002904
0.07562111 0.60139154 0.00003686
0.09403456 0.60022992 0.00004466
0.12073895 0.59890944 0.00005332
0.14287190 0.59763950 0.00007427
0.17070671 0.59630993 0.00005176
0.20250345 0.59434028 0.00006583
0.23815313 0.59230867 0.00001134
0.27922626 0.59028363 0.00000104
0.31202838 0.58906239 0.00001056
0.34732773 0.58715569 0.00001092
0.38447048 0.58513677 0.00001043
0.42326819 0.58320060 0.00000820
0.45899715 0.58225072 0.00000998
0.49491475 0.58102700 0.00000814
0.53018732 0.58008500 0.00000886
0.56436026 0.57931723 0.00000945
0.59700246 0.57898407 0.00000768
0.62893706 0.57887632 0.00001093
0.65889331 0.57903823 0.00001019
0.69572325 0.57965490 0.00001084
0.73262589 0.58040777 0.00000992
0.77447920 0.58160255 0.00000381
0.80610712 0.58329559 0.00000000
0.84057678 0.58509801 0.00000000
0.88299903 0.58790797 0.00007025
0.91938506 0.59187923 0.00530270
0.96467184 0.59735330 0.02207065
0.99459844 0.60670458 0.05062219
0.99990935 0.62043013 0.10433894
1.00037002 0.63740612 0.18316278
1.00051534 0.68358941 0.30582832
0.05435458 0.63940512 0.00006145
0.06786234 0.63832356 0.00006929
0.08191179 0.63729364 0.00007371
0.10005436 0.63627865 0.00007389
0.12477927 0.63511859 0.00006716
0.15190323 0.63356551 0.00007352
0.17789095 0.63188461 0.00004627
0.20729342 0.63011761 0.00000790
0.24094586 0.62828026 0.00000000
0.27939708 0.62643248 0.00000549
0.31713983 0.62420564 0.00001092
0.35083871 0.62228212 0.00001089
0.38593728 0.62041156 0.00000962
0.42268410 0.61862635 0.00000590
0.46133041 0.61641242 0.00000874
0.49582912 0.61501388 0.00000407
0.52950381 0.61405281 0.00000414
0.56225312 0.61330221 0.00000568
0.59519617 0.61215201 0.00000392
0.62679886 0.61134553 0.00000406
0.65581438 0.61128714 0.00000828
0.69167628 0.61159438 0.00000824
0.72709195 0.61158407 0.00000763
0.76598594 0.61198340 0.00000000
0.79982488 0.61310768 0.00000000
0.83844847 0.61402622 0.00000308
0.87639510 0.61533201 0.00005875
0.91348162 0.61842930 0.00535422
0.95959720 0.62259424 0.02179809
0.98974936 0.63014133 0.05005562
0.99985445 0.64291046 0.10684878
1.00030204 0.65644733 0.18201028
1.00048968 0.69145219 0.30758100
0.05822993 0.67379604 0.00000000
0.07054798 0.67285147 0.00000000
0.08415751 0.67185777 0.00000000
0.10288823 0.67057935 0.00000000
0.12787833 0.66910185 0.00000000
0.16148812 0.66745452 0.00000000
0.18626668 0.66595233 0.00000000
0.21339999 0.66435755 0.00000000
0.24538771 0.66268637 0.00005446
0.28098305 0.66033576 0.00006110
0.31928340 0.65785592 0.00000391
0.35385169 0.65588208 0.00000029
0.38706934 0.65411542 0.00000000
0.42285048 0.65209460 0.00000000
0.46049797 0.64968766 0.00000284
0.49668958 0.64748746 0.00000822
0.52894252 0.64630325 0.00000344
0.56072700 0.64532469 0.00000393
0.59304707 0.64380292 0.00000079
0.62442292 0.64241630 0.00000000
0.65346162 0.64164299 0.00000000
0.68925131 0.64133114 0.00000000
0.72461926 0.64079978 0.00000000
0.76096554 0.64048549 0.00000000
0.79387962 0.64082898 0.00002348
0.83682597 0.64122363 0.00000000
0.87427698 0.64198813 0.00000000
0.90959129 0.64386836 0.00682218
0.95463619 0.64767312 0.02444340
0.99139717 0.65320608 0.04934831
1.00002516 0.66392699 0.10720339
1.00021604 0.67513998 0.18182112
1.00052757 0.69939694 0.30929753
0.06359960 0.70480637 0.00000000
0.07601653 0.70361284 0.00000000
0.09092414 0.70246125 0.00000000
0.10930047 0.70131113 0.00000000
0.13249924 0.69997784 0.00000000
0.16627598 0.69846793 0.00000000
0.19502719 0.69702399 0.00000000
0.22025831 0.69544374 0.00000000
0.25031424 0.69327504 0.00000000
0.28368758 0.69103565 0.00000000
0.31969592 0.68874721 0.00003298
0.35782971 0.68650878 0.00006884
0.38984160 0.68468393 0.00005733
0.42518228 0.68233067 0.00001525
0.46101349 0.68004249 0.00000000
0.49600975 0.67771892 0.00000000
0.52948770 0.67574513 0.00000000
0.56082658 0.67415328 0.00001869
0.59199980 0.67256066 0.00006455
0.62237866 0.67107608 0.00006101
0.65121416 0.66973284 0.00000000
0.68818512 0.66844667 0.00000000
0.72251417 0.66771759 0.00000000
0.75774773 0.66742836 0.00000000
0.79017529 0.66717219 0.00000000
0.83126352 0.66697860 0.00000000
0.86894064 0.66764986 0.00000000
0.90648693 0.66880838 0.01327474
0.95005367 0.67160221 0.02854426
0.98935544 0.67542291 0.05136922
1.00018623 0.68391316 0.10789864
1.00010319 0.69303276 0.18388096
1.00057184 0.70737436 0.31108630
0.07160683 0.74612539 0.00000000
0.08381615 0.74518161 0.00000000
0.09850726 0.74426849 0.00000000
0.11575486 0.74335451 0.00000000
0.13692436 0.74229224 0.00050521
0.16926908 0.73979444 0.00068089
0.20601366 0.73650799 0.00041204
0.22941471 0.73474555 0.00000000
0.25738187 0.73284834 0.00000000
0.28817042 0.73091919 0.00000000
0.32140621 0.72893178 0.00000000
0.35769110 0.72591362 0.00000000
0.39372393 0.72250786 0.00006025
0.42669194 0.72032101 0.00007439
0.46011934 0.71817743 0.00006255
0.49294900 0.71608536 0.00003801
0.52675711 0.71336863 0.00004268
0.55950122 0.71080147 0.00005762
0.58906737 0.70935981 0.00007194
0.61803410 0.70798831 0.00006437
0.64582649 0.70665489 0.00001971
0.68226936 0.70408866 0.00007337
0.71549806 0.70250996 0.00006490
0.75053832 0.70177148 0.00006603
0.78864706 0.70075052 0.00001295
0.82275061 0.69919980 0.00000000
