public/luts/builtin/fuji_velvia.cube
TITLE "Rec709800_sRGB-LA:FLog2_to_Velvia_LA:FLog2_to_Velvia"
LUT_3D_SIZE 9
# Rec709 (800%)/sRGB -> LA - :FLog2_to_Velvia/LA - :FLog2_to_Velvia, CineEI Shift 0.00, Black Level -0.00% IRE, Input 100% -> Output 100% - Created with LUTCalc v4.09 by Ben Turley February 2025
0.00000000 0.00000000 0.00000000
0.01163879 0.00023035 0.00000630
0.10506033 0.00090624 0.00000000
0.30112873 0.00000823 0.00000198
0.53891264 0.00000069 0.00000000
0.75810617 0.00029334 0.00000525
0.93257996 0.05127917 0.00118721
1.00048699 0.21619191 0.02301900
1.00040122 0.60999411 0.23482104
0.00000759 0.01957183 0.00000000
0.01984363 0.02445258 0.00000286
0.14640581 0.03302836 0.00000670
0.36383307 0.03941885 0.00000835
0.57030630 0.05268955 0.00000000
0.73817427 0.08269510 0.00001073
0.91453182 0.15462070 0.00000498
1.00041628 0.29161016 0.00257520
1.00040098 0.61863901 0.23555116
0.00000000 0.17804699 0.00000000
0.02203239 0.17993383 0.00000000
0.16325806 0.19017397 0.00000000
0.38013241 0.19943325 0.00000159
0.56475002 0.21940011 0.00000612
0.70725238 0.25150823 0.00000200
0.88843230 0.30463376 0.00000589
1.00046609 0.39163024 0.00000364
1.00039993 0.63287134 0.23701836
0.00053745 0.44320358 0.00000780
0.02123790 0.43843619 0.00000000
0.16636429 0.42927453 0.00000000
0.38210735 0.42101123 0.00000436
0.55291578 0.42193236 0.00000000
0.68404217 0.43392190 0.00001130
0.85819532 0.45653917 0.00000299
0.99975318 0.49830562 0.00000000
1.00041486 0.65228254 0.23904176
0.00057131 0.62778932 0.00000797
0.02855707 0.62114072 0.00000793
0.17952932 0.60668742 0.00000000
0.38107196 0.59261072 0.00000000
0.54164473 0.58343487 0.00000000
0.66700997 0.58043118 0.00001088
0.82759736 0.58233275 0.00001112
0.99290298 0.59569514 0.00001085
1.00036792 0.67694589 0.24177299
0.02325846 0.76011023 0.00016161
0.06255107 0.75138466 0.00000000
0.18598270 0.73753931 0.00000679
0.37928742 0.71948109 0.00000058
0.53018377 0.70384090 0.00000465
0.65016501 0.69315838 0.00001098
0.79975578 0.68444497 0.00000000
0.99074167 0.68054109 0.00001104
1.00034020 0.70694986 0.24517037
0.06522238 0.89797609 0.00000000
0.10850052 0.89182622 0.00000000
0.21726699 0.87637268 0.00000000
0.36606456 0.86345030 0.00000000
0.50817391 0.84395722 0.00001122
0.62271274 0.82556561 0.00000000
0.76692212 0.81180219 0.00000881
0.96706689 0.79622437 0.00000000
1.00049178 0.75603307 0.24935011
0.12170936 0.99600752 0.00255827
0.16747716 0.99544444 0.00237094
0.25805963 0.99552410 0.00230614
0.37914175 0.99379091 0.00204205
0.48560962 0.99002198 0.00164439
0.58740655 0.98971296 0.00194352
0.70852314 0.98158636 0.00280328
0.91082698 0.95764490 0.01342106
1.00068832 0.83987324 0.24810094
0.58507684 1.00026551 0.37976770
0.58821355 1.00026247 0.37929889
0.59369274 1.00025725 0.37847953
0.60214900 1.00024937 0.37721469
0.61361751 1.00023909 0.37549627
0.62789705 1.00022690 0.37334271
0.65151078 1.00023317 0.37007789
0.70596873 1.00029899 0.36364982
1.00086328 1.00063814 0.30139939
0.00000787 0.00000414 0.00592415
0.02072892 0.00000000 0.00702593
0.14416748 0.00000551 0.01447828
0.36910166 0.00001081 0.02714584
0.60198442 0.00000267 0.03777542
0.79730364 0.00001026 0.05386963
0.95075456 0.04541324 0.08459727
1.00051582 0.20852689 0.16172167
1.00031737 0.60791370 0.28090057
0.00001129 0.02787621 0.02969780
0.03079081 0.03079081 0.03079081
0.18552823 0.03571140 0.02416955
0.41403143 0.03835136 0.01495182
0.60490815 0.04911057 0.01116854
0.76603648 0.08047621 0.01196534
0.93260294 0.15108277 0.03125153
1.00051104 0.28358356 0.11371326
1.00033389 0.61652244 0.28057043
0.00001127 0.20838744 0.01034124
0.02176643 0.20531241 0.00514407
0.19215568 0.20442910 0.00243717
0.41144291 0.20660834 0.00000690
0.58690030 0.22256503 0.00000000
0.72754266 0.25079852 0.00000000
0.90288302 0.29919544 0.00225953
1.00049025 0.38307977 0.06551654
1.00036289 0.63071433 0.28024227
0.00003366 0.45408066 0.00000000
0.02344502 0.44803932 0.00000510
0.18309728 0.43334873 0.00000716
0.39840519 0.42159283 0.00000800
0.56389059 0.42174655 0.00000520
0.69597218 0.42863394 0.00000000
0.86846950 0.44884006 0.00003433
1.00040853 0.48750294 0.02925786
1.00038194 0.65006420 0.28067040
0.00076537 0.62295932 0.00070175
0.03052913 0.61494719 0.00014297
0.18537638 0.60045217 0.00000000
0.38906940 0.58483645 0.00000000
0.54660238 0.57644937 0.00013596
0.67071974 0.57261276 0.00000000
0.83278705 0.57309438 0.00000000
0.99391726 0.58465389 0.01514848
1.00037078 0.67472052 0.28116770
0.02148918 0.74791443 0.00200042
0.06036891 0.73949498 0.00150830
0.18488840 0.72516676 0.00143979
0.38124094 0.70726381 0.00157145
0.52991946 0.69374596 0.00206831
0.64976735 0.68462556 0.00000000
0.80095091 0.67686421 0.00102617
0.99103809 0.67192077 0.01939411
1.00038976 0.70457022 0.28219908
0.06478625 0.88611726 0.00398648
0.10772626 0.88011346 0.00189261
0.21443239 0.86457941 0.00179689
0.36483427 0.85161311 0.00238651
0.50702012 0.83437391 0.00265542
0.62192274 0.82004313 0.00338681
0.76635558 0.80812430 0.00770842
0.96725834 0.79215196 0.02819777
1.00042756 0.75316238 0.28239475
0.12252714 0.99311747 0.04652021
0.16830758 0.99251196 0.04445020
0.25865919 0.99263907 0.04146140
0.37800031 0.99140458 0.03877967
0.48414703 0.98727330 0.03770896
0.58561301 0.98623413 0.03679024
0.70664379 0.97615706 0.03977274
0.90915056 0.95282241 0.05429503
1.00066540 0.83714080 0.27588152
0.58425092 1.00028198 0.38823696
0.58738873 1.00027875 0.38776486
0.59286953 1.00027319 0.38693949
0.60132799 1.00026479 0.38566472
0.61280225 1.00025374 0.38393154
0.62709488 1.00024055 0.38175738
0.65061381 1.00022033 0.37812706
0.70500172 1.00027135 0.37150460
1.00086129 1.00061945 0.30891077
0.00000000 0.00000491 0.06089793
0.03348932 0.00000581 0.06817507
0.19752335 0.00001101 0.10677934
0.44411740 0.00000318 0.17297182
0.66585392 0.00001131 0.23835271
0.83442713 0.00001024 0.28789075
0.96900742 0.04193257 0.32651879
1.00047432 0.20283045 0.36834431
1.00045541 0.60554676 0.34415883
0.00000000 0.03605929 0.18702996
0.04141310 0.03950266 0.19639668
0.23259138 0.03953333 0.21027921
0.46656797 0.03613725 0.22313611
0.64347443 0.04933109 0.23528400
0.79364767 0.08302495 0.25311783
0.94642478 0.15006604 0.27937338
1.00042445 0.27892137 0.32565593
1.00045940 0.61388263 0.34302628
0.00000063 0.23683334 0.26500237
0.02134645 0.23077356 0.24437644
0.22137481 0.22137481 0.22137481
0.43970157 0.21819973 0.19821982
0.60828185 0.23066788 0.18988059
0.74659622 0.25387236 0.19771278
0.91593745 0.29683858 0.21947318
1.00028502 0.37568555 0.27446438
1.00046684 0.62765991 0.34132119
0.00000000 0.46306245 0.23532045
0.02153314 0.45450956 0.21232225
0.18809029 0.43737954 0.18634250
0.41280991 0.42222321 0.16630594
0.57433836 0.41993721 0.14888847
0.70565531 0.42557675 0.15052377
0.87923231 0.44179120 0.17147076
1.00085824 0.47857329 0.22556254
1.00048409 0.64712865 0.33969863
0.00242631 0.61793930 0.20972220
0.03254768 0.60973574 0.19369702
0.19166037 0.59420473 0.17065274
0.39294507 0.57850865 0.14915432
0.54995073 0.56722282 0.13698328
0.67510926 0.56332050 0.13313606
0.83663951 0.56336431 0.14179615
0.99416349 0.57438576 0.18808436
1.00048596 0.67159203 0.33776425
0.01749840 0.73591873 0.19517079
0.05398474 0.72763986 0.18352513
0.17903784 0.71348415 0.16495327
0.38044904 0.69511090 0.14037825
0.53018241 0.68098165 0.12581585
0.64961794 0.67254185 0.11699406
0.80219179 0.66477530 0.12539804
0.99134010 0.66166369 0.16586092
1.00043991 0.70072763 0.33562934
0.06277200 0.87675932 0.17962681
0.10502718 0.86878426 0.17200949
0.20988200 0.85197040 0.16007264
0.36433898 0.83906145 0.14368339
0.50533095 0.82250543 0.13000180
0.62046153 0.80882073 0.12251576
0.76576061 0.79611199 0.12453275
0.96749103 0.78065556 0.14985791
1.00038201 0.74927088 0.33107072
0.12372443 0.99110427 0.17415731
0.16958460 0.99045005 0.16993922
0.25877440 0.99039138 0.16132237
0.37535102 0.98874655 0.15208662
0.48144674 0.98323390 0.14617598
0.58251309 0.98178813 0.13740162
0.70384532 0.96787837 0.13673127
0.90679324 0.94257200 0.14694678
1.00058304 0.83166393 0.31830833
0.58286489 1.00031185 0.40249591
0.58600448 1.00030835 0.40202176
0.59148787 1.00030228 0.40119234
0.59994953 1.00029306 0.39991020
0.61143242 1.00028085 0.39816481
0.62574482 1.00026610 0.39597174
0.64928280 1.00024304 0.39230081
0.70332223 1.00023169 0.38491585
1.00085675 1.00058694 0.32164134
0.00000736 0.00000000 0.15787485
0.05793762 0.00001080 0.19783083
0.25989774 0.00000672 0.29382422
0.51668909 0.00000332 0.42087015
0.71888698 0.00000000 0.50698927
0.86582268 0.00000800 0.53631285
0.98378183 0.04703620 0.54842388
1.00041124 0.20712444 0.54759714
1.00045760 0.60429720 0.41992758
0.00000000 0.04838675 0.43100405
0.05666160 0.04775821 0.45992758
0.28509284 0.04122931 0.48591937
0.51430615 0.03737286 0.49823461
0.67478511 0.05686500 0.49835993
0.81860070 0.09027669 0.50186790
0.96060031 0.15638551 0.50416369
1.00036763 0.27977899 0.50800706
1.00046264 0.61222690 0.41836923
0.00000000 0.26976346 0.54440691
0.02670812 0.25679317 0.52217570
0.24223054 0.24171234 0.49282703
0.46536845 0.23441587 0.46867431
0.62803563 0.24280991 0.45500279
0.76452336 0.26329699 0.44847576
0.93486151 0.29980390 0.44665550
1.00037600 0.37220880 0.46053281
1.00046406 0.62554506 0.41580819
0.00019822 0.47625993 0.50493199
0.02355910 0.46564894 0.48579544
0.20201135 0.44514323 0.45710134
0.42721749 0.42721749 0.42721749
0.58627602 0.42440562 0.40794190
0.71848894 0.42717253 0.39834077
0.88974641 0.43897995 0.39655222
1.00082572 0.47171460 0.41130012
1.00052449 0.64445050 0.41177498
0.00226911 0.61914361 0.46416480
0.03652548 0.60973698 0.44891516
0.19541138 0.59286666 0.42230760
0.40015194 0.57494567 0.39852703
0.55604502 0.56295143 0.37903944
0.67910647 0.55850635 0.36542818
0.84194709 0.55618090 0.35848757
0.99618764 0.56532216 0.37020245
1.00053577 0.66816375 0.40706250
0.00845166 0.72919260 0.42664736
0.04569280 0.72036587 0.41594704
0.17453433 0.70435890 0.39586853
0.38101929 0.68577486 0.37279908
0.53034302 0.67356133 0.35440351
0.65084995 0.66457676 0.34105325
0.80549323 0.65588628 0.33433945
0.99121027 0.65268847 0.33819370
1.00046138 0.69610025 0.40162671
0.05966656 0.86341894 0.37818602
0.10118367 0.85474722 0.36999867
0.20489557 0.84096290 0.35666482
0.36055081 0.82672786 0.34013777
0.50325363 0.81225853 0.32573714
0.62037081 0.79800158 0.31510775
0.76662009 0.78493781 0.30715728
0.96712566 0.76910701 0.31200892
1.00037980 0.74428996 0.39211498
0.12540104 0.98946173 0.32258617
0.17111835 0.98831887 0.31728184
0.25819524 0.98639925 0.30894503
0.37087428 0.98294025 0.29915228
0.47745858 0.97700661 0.29064138
0.57817904 0.97023083 0.28248858
0.70034291 0.95674999 0.27573990
0.90363406 0.92990093 0.27164605
1.00032770 0.82600961 0.37214521
0.57983437 1.00033403 0.42444223
0.58297533 1.00033022 0.42397159
0.58845992 1.00032360 0.42314835
0.59692050 1.00031353 0.42187585
0.60840890 1.00030013 0.42014374
0.62274527 1.00028385 0.41796771
0.64631443 1.00025817 0.41432643
0.70015535 1.00022779 0.40650733
1.00084736 1.00053767 0.34032513
0.00185828 0.00000074 0.30656403
0.09673115 0.00000000 0.39073063
0.33311336 0.00000226 0.52733645
0.58420432 0.00000195 0.66814138
0.76075127 0.00000043 0.72421616
0.88943797 0.00000000 0.73259293
0.99371015 0.06317378 0.72317083
1.00025958 0.21651348 0.69105264
1.00057095 0.60438452 0.49636187
0.00000000 0.07079685 0.66536513
0.07739962 0.06403107 0.69911001
0.33447766 0.04681778 0.72536370
0.54939248 0.05059678 0.71964477
0.70189231 0.07211613 0.70169822
0.84036563 0.10742637 0.69004492
0.97215776 0.17168641 0.67479682
1.00041852 0.28589877 0.65358182
1.00060107 0.61195119 0.49410089
0.00000000 0.30075846 0.75717882
0.02939840 0.28653396 0.73180613
0.26941558 0.26702075 0.69972534
0.48856128 0.25689509 0.66998253
0.64583679 0.26218038 0.65007668
0.78094765 0.27818239 0.63572853
0.94537940 0.30887334 0.61948589
1.00038371 0.37449688 0.60997190
1.00063854 0.62467145 0.49069957
0.00000000 0.49050674 0.69977503
0.02124972 0.47881156 0.68106476
0.21920997 0.45863374 0.65184758
0.44050006 0.44016241 0.62318201
0.59918549 0.43216750 0.60090620
0.73214026 0.43281361 0.58501439
0.89993083 0.44079371 0.56815714
1.00076155 0.47006213 0.56368302
1.00059181 0.64289131 0.48473580
0.00912427 0.62361996 0.65014556
0.04425080 0.61324299 0.63548466
0.19762280 0.59532805 0.61011943
0.40709291 0.57639542 0.58383595
0.56212714 0.56212714 0.56212714
0.68475775 0.55794838 0.54533669
0.84906523 0.55316226 0.52946566
0.99699572 0.56133875 0.52086649
1.00048020 0.66593362 0.47841996
0.00598105 0.72701911 0.60373169
0.04265990 0.71893012 0.59331290
0.17083582 0.70205105 0.57315777
0.38012563 0.68337137 0.55186374
0.53284569 0.66918154 0.53176243
0.65365584 0.65998442 0.51408336
0.80903937 0.65046169 0.49635236
0.99255046 0.64721815 0.48511628
1.00040141 0.69289883 0.47159394
0.05398996 0.85826005 0.54211514
0.09330809 0.84895334 0.53411772
0.19495713 0.83648132 0.52051246
0.35913144 0.82071445 0.50324147
0.50279072 0.80654114 0.48727864
0.61978333 0.79195668 0.47406698
0.76561905 0.77802931 0.46015599
0.96683648 0.76209153 0.44849523
1.00042379 0.73888472 0.45988447
0.12639214 0.98507968 0.45890387
0.17105881 0.98428751 0.45310922
0.25539308 0.98319886 0.44326740
0.36464980 0.98094160 0.43324976
0.47250996 0.96946732 0.42280964
0.57326774 0.95578593 0.41296314
0.69433809 0.94223412 0.40271581
0.89848116 0.91632508 0.38974661
1.00036041 0.81955900 0.43532049
0.57668588 1.00030462 0.45275621
0.57976626 1.00030500 0.45219744
0.58514435 1.00030566 0.45121809
0.59343823 1.00030668 0.44969939
0.60470480 1.00030807 0.44762273
0.61892938 1.00030100 0.44522101
0.64259441 1.00027389 0.44159184
0.69629704 1.00024184 0.43374130
1.00083065 1.00047361 0.36410955
0.01694711 0.00000819 0.50857065
0.16358363 0.00000000 0.61116668
0.40979294 0.00000062 0.77045241
0.63605087 0.00001026 0.88635104
0.78915270 0.00000000 0.89357807
0.91107783 0.00142895 0.88731904
0.99762107 0.08159628 0.86204317
1.00025202 0.22965641 0.81596794
1.00032050 0.60605312 0.56759667
0.00000000 0.09603569 0.87632062
0.12138583 0.08602763 0.89678854
0.37698268 0.06991238 0.90534483
0.57715539 0.07553178 0.88808499
0.72733842 0.09656673 0.86273915
0.86392641 0.13106339 0.84339895
0.98199695 0.18992877 0.81813901
1.00027029 0.29546552 0.78319572
1.00029013 0.61320535 0.56542492
0.00000000 0.33001965 0.91518860
0.04009315 0.31420710 0.89493687
0.29807694 0.29349603 0.86162105
0.51026897 0.28243586 0.83111449
0.66279803 0.28403515 0.80734704
0.79710594 0.29550488 0.78890147
0.95502210 0.32085252 0.76190661
1.00048153 0.38034936 0.73994164
1.00028187 0.62535268 0.56173340
0.00066212 0.50504050 0.86224644
0.03028557 0.49196217 0.84242347
0.23705086 0.47133532 0.81262371
0.45232509 0.45411702 0.78019776
0.60836897 0.44341249 0.75569413
0.74378235 0.44087906 0.73594412
0.90820635 0.44578473 0.71104797
1.00047477 0.47213411 0.69158935
1.00036250 0.64290262 0.55519193
0.01001044 0.62887477 0.80978786
0.04689544 0.61789280 0.79224346
0.19601317 0.59983583 0.76696751
0.41234309 0.58110172 0.73691974
0.56771413 0.56663932 0.71128408
0.69136170 0.55887852 0.69128642
0.85500686 0.55356343 0.67060641
0.99941764 0.55984067 0.65039300
1.00041651 0.66484710 0.54763108
0.01334699 0.72784669 0.75805854
0.04946267 0.71913452 0.74551328
0.18132026 0.70186868 0.72159636
0.38034390 0.68366957 0.69513549
0.53458851 0.66864835 0.67361556
0.65757141 0.65757141 0.65757141
0.81346555 0.64753821 0.63630225
0.99363263 0.64342271 0.61559551
1.00042944 0.69052882 0.53947760
0.04517310 0.84988170 0.68569111
0.07929440 0.84393738 0.67634149
0.17955059 0.83362041 0.66270598
0.35811132 0.81626734 0.64464986
0.50110302 0.80266525 0.62648881
0.61804192 0.78708590 0.61102050
0.76551332 0.77194941 0.59245924
0.96569575 0.75567936 0.57137600
1.00056494 0.73454984 0.52636265
0.12901925 0.97206177 0.58067822
0.17194612 0.97209936 0.57515298
0.25250154 0.97218834 0.56587439
0.35662676 0.96789632 0.55547988
0.46572561 0.95750911 0.54344474
0.56676811 0.94352922 0.53151192
0.68736544 0.92822907 0.51716403
0.88938386 0.90483940 0.49839338
1.00029499 0.81348623 0.49713144
0.57359288 1.00024758 0.48434694
0.57667681 1.00024791 0.48381060
0.58206005 1.00024849 0.48287157
0.59035920 1.00024939 0.48141773
0.60163081 1.00025062 0.47943352
0.61573644 1.00025217 0.47693067
0.63897302 1.00025551 0.47271564
0.69182335 1.00025995 0.46418604
1.00086523 1.00040021 0.39363234
0.09725227 0.00038020 0.80609971
0.28320562 0.00000000 0.91358648
0.50777884 0.00000134 0.97298081
0.68034514 0.00000695 1.00042879
0.82239665 0.00253693 1.00066376
0.93319736 0.03575787 0.99620632
0.99979572 0.11758989 0.98257830
1.00032160 0.25047411 0.96237074
1.00027925 0.61250574 0.65279249
0.00652898 0.14625148 0.99463796
0.19248897 0.12472376 1.00025459
0.43273084 0.11599207 1.00027258
0.60841691 0.11708343 1.00057912
0.75642674 0.13871325 0.98953682
0.88409858 0.16776898 0.98225162
0.98903368 0.21699362 0.96758444
1.00030207 0.31154345 0.93670867
1.00032528 0.61896276 0.65039052
0.00246042 0.36145059 1.00023435
0.07802878 0.34536435 0.99896704
0.33532693 0.32531675 0.99195282
0.53543732 0.31385592 0.98128988
0.68046683 0.31276865 0.97005852
0.81413190 0.31787057 0.95760261
0.96441579 0.33759261 0.92957256
1.00025098 0.39037921 0.90249972
1.00040549 0.62962257 0.64648666
0.00513516 0.51938961 0.99303180
0.04997050 0.50706607 0.98338454
0.25730303 0.48617747 0.97516599
0.47019317 0.46796934 0.96245533
0.62145323 0.45637542 0.94006862
0.75864440 0.45214014 0.91530209
0.91879411 0.45365025 0.88910087
1.00032845 0.47654383 0.86556454
1.00041748 0.64515836 0.64157579
0.01109102 0.63248244 0.97959638
0.04986681 0.62215003 0.97083143
0.19899398 0.60504081 0.95757186
0.41961885 0.58661811 0.93109464
0.57377011 0.57245160 0.90394330
0.69863943 0.56320151 0.88390837
0.86313543 0.55604554 0.85567249
0.99982298 0.56045620 0.82148272
1.00030200 0.66557410 0.63480046
0.02661535 0.73100645 0.95695739
0.06787994 0.72008581 0.94444299
0.19845678 0.70129235 0.92111032
0.38421443 0.68314857 0.89694107
0.53762210 0.66878436 0.87385155
0.66004323 0.65751314 0.84877388
0.81948779 0.64639588 0.81870191
0.99461847 0.63973632 0.78411620
1.00022236 0.68930704 0.62587491
0.03521325 0.83643504 0.88432021
0.06319760 0.83451171 0.87517017
0.16045430 0.82429081 0.85529083
0.35182727 0.80654245 0.83205697
0.49626754 0.79398939 0.81035585
0.61476633 0.77825702 0.78672684
0.76053305 0.76053305 0.76053305
0.96095827 0.74468003 0.72588933
1.00038346 0.73112413 0.61077023
0.12696105 0.95201395 0.74256700
0.16637350 0.95305029 0.73631867
0.24016835 0.95479682 0.72561796
0.34337133 0.94907061 0.71040038
0.45459593 0.93756478 0.69681718
0.55664391 0.92571730 0.68153779
0.67723217 0.91017788 0.66341925
0.87846857 0.88612143 0.63490571
1.00033909 0.80654435 0.57921637
0.56847565 1.00027614 0.53489615
0.57151622 1.00027262 0.53440662
0.57682247 1.00026655 0.53354853
0.58499943 1.00025741 0.53221740
0.59609819 1.00024547 0.53039547
0.61014082 1.00023971 0.52808223
0.63355158 1.00024175 0.52415751
0.68587899 1.00024326 0.51574848
1.00085735 1.00023610 0.44125559
0.31747715 0.03143434 1.00062430
0.45693503 0.02552929 1.00040186
0.59698465 0.02768902 1.00056950
0.72812992 0.03859716 1.00065079
0.85326191 0.06911857 1.00054028
0.95365731 0.11045215 1.00057463
1.00032814 0.17735593 1.00056568
1.00021099 0.28930539 1.00046549
1.00054641 0.62314732 0.76901021
0.14905306 0.24078680 1.00023156
0.32588452 0.21827635 1.00023690
0.50173752 0.19754763 1.00051256
0.64904000 0.19637318 1.00044601
0.78229615 0.20734815 1.00051923
0.90832808 0.22715494 1.00041634
0.99483955 0.26352803 1.00046276
1.00021741 0.33909718 1.00036711
1.00056227 0.62976467 0.76788713
0.04424027 0.41036281 1.00028832
0.18620412 0.38913969 1.00030412
0.39963666 0.36726393 1.00024530
0.56832605 0.35667504 1.00039924
0.70744154 0.35259544 1.00046959
0.84388252 0.35465125 1.00041887
0.97508781 0.36707163 1.00055773
1.00026165 0.40730267 1.00031242
1.00056446 0.64015315 0.76602951
0.02229701 0.53765902 1.00021781
0.09292900 0.52474339 1.00024692
0.31114646 0.50601399 1.00024489
0.49883541 0.49006588 1.00030548
0.63976936 0.47829274 1.00027179
0.77603782 0.47192048 1.00036848
0.93056439 0.46959694 1.00053949
1.00059735 0.48341870 1.00063712
1.00054962 0.65411011 0.76317757
0.01852002 0.63840511 1.00022626
0.06447915 0.62901323 1.00025475
0.23536151 0.61145101 1.00022550
0.43271846 0.59414621 1.00041717
0.58145470 0.58004893 1.00027738
0.70680504 0.57019990 1.00057775
0.87634298 0.56075610 1.00076165
0.99881796 0.55759720 0.99918686
1.00038665 0.67253433 0.75992251
0.03579633 0.71846352 1.00032089
0.07569909 0.71093943 1.00042040
0.19200217 0.69608782 1.00039360
0.38647435 0.67871065 1.00020768
0.53750412 0.66545308 1.00020097
0.65770531 0.65327718 1.00080915
0.81876839 0.64095584 1.00004357
0.98898238 0.62854561 0.99017889
1.00028352 0.69378797 0.75366660
0.04441570 0.81758428 1.00023491
0.07889472 0.81231284 1.00048066
0.17359388 0.80067747 1.00086587
0.34613193 0.78219894 1.00084960
0.48311549 0.76913687 0.99896996
0.59961100 0.75550825 0.99275289
0.74719743 0.74014754 0.98584377
0.95019173 0.72015470 0.96158888
1.00030104 0.72792159 0.74130378
0.10628003 0.92239144 0.96437632
0.13513893 0.92471486 0.95949081
0.20258001 0.92388763 0.95280028
0.31145655 0.91496693 0.94424513
0.43065049 0.90375631 0.93078718
0.53567421 0.89378208 0.91231424
0.65592028 0.87868210 0.88985923
0.85353599 0.85353599 0.85353599
1.00020321 0.79672860 0.71078017
0.55451508 1.00033793 0.62466196
0.55788553 1.00033234 0.62432118
0.56379051 1.00032269 0.62372447
0.57288563 1.00030811 0.62280053
0.58519715 1.00028897 0.62153963
0.60060183 1.00026624 0.61994993
0.62377742 1.00024130 0.61628270
0.67515329 1.00021443 0.60797206
1.00073925 1.00020484 0.53036440
0.65156634 0.44301475 1.00036846
0.66803333 0.44496894 1.00034036
0.69499518 0.44829766 1.00029405
0.73643292 0.45281985 1.00025766
0.79062162 0.45664913 1.00025895
0.84290013 0.46095254 1.00032284
0.91658153 0.46633048 1.00032432
0.99066891 0.47698491 1.00036999
1.00029724 0.58167778 1.00035610
0.62285960 0.46257677 1.00050048
0.63936998 0.46433897 1.00047213
0.66616493 0.46742079 1.00042338
0.70624604 0.47170982 1.00036587
0.76027541 0.47577361 1.00031140
0.81105612 0.48003140 1.00026087
0.89771948 0.48434295 1.00035464
0.98532717 0.49134294 1.00026944
1.00028247 0.58676745 1.00037122
0.57701086 0.49343244 1.00063725
0.59524527 0.49457391 1.00062418
0.62506313 0.49655519 1.00060305
0.66686082 0.49929917 1.00068233
0.71800713 0.50297599 1.00062254
0.77562192 0.50673025 1.00050930
0.86116171 0.50943931 1.00037464
0.96958601 0.51463753 1.00036113
1.00025910 0.59531070 1.00039726
0.52112678 0.53458537 1.00035840
0.54180533 0.53468227 1.00043747
0.57510025 0.53487967 1.00056091
0.62116055 0.53537435 1.00065646
0.67086268 0.53710711 1.00072240
0.72879659 0.53996473 1.00066262
0.81281774 0.54282351 1.00045920
0.94161681 0.54519323 1.00050091
1.00023724 0.60776490 1.00039965
0.45935390 0.58137372 1.00036709
0.48349009 0.58038162 1.00034462
0.52262523 0.57876995 1.00028746
0.56947080 0.57728765 1.00027047
0.62475250 0.57590948 1.00025971
0.68051088 0.57700045 1.00032473
0.76258641 0.58003701 1.00043413
0.90325787 0.57993822 1.00063732
1.00025314 0.62440588 1.00039575
0.40447637 0.62801934 1.00025218
0.43003779 0.62657407 1.00025167
0.46883675 0.62442725 1.00024776
0.52127418 0.62137333 1.00024203
0.57906131 0.61871963 1.00020907
0.63627093 0.61706088 1.00026250
0.72043611 0.61585299 1.00039788
0.86127957 0.61523133 1.00052394
1.00036958 0.64345662 1.00037873
0.32159404 0.68987703 1.00029724
0.35069043 0.68734216 1.00028419
0.39927516 0.68316563 1.00026554
0.46822725 0.67737543 1.00025513
0.52455550 0.67409904 1.00026062
0.58355066 0.67074131 1.00027158
0.66770316 0.66621366 1.00032166
0.81018044 0.66344833 1.00033414
1.00037970 0.67289675 1.00048104
0.24451467 0.78649473 1.00041042
0.27290248 0.78399445 1.00042950
0.32069805 0.77966482 1.00046274
0.38903415 0.77305612 1.00051866
0.45900342 0.76662947 1.00053911
0.51698908 0.76193143 1.00043416
0.59949978 0.75496952 1.00029871
0.73523600 0.74576593 1.00028436
1.00021175 0.73182382 1.00039513
0.37561324 1.00026532 1.00021754
0.38196554 1.00026204 1.00021797
0.39307427 1.00025640 1.00021873
0.41012650 1.00024791 1.00021992
0.43301469 1.00023682 1.00022156
0.46091902 1.00022371 1.00022367
0.49414775 1.00035747 1.00022139
0.55680851 1.00049030 1.00025955
0.99082751 0.99082751 0.99082751
