public/luts/builtin/fuji_provia.cube
TITLE "Rec709800_sRGB-LA:FLog2_to_PROVIA_LA:FLog2_to_PROVIA"
LUT_3D_SIZE 5
# Rec709 (800%)/sRGB -> LA - :FLog2_to_PROVIA/LA - :FLog2_to_PROVIA, CineEI Shift 0.00, Black Level -0.02% IRE, Input 100% -> Output 100% - Created with LUTCalc v4.09 by Ben Turley February 2025
0.00000000 0.00000000 0.00000000
0.15866412 0.00266402 0.01295711
0.50798035 0.02997456 0.03086418
0.85958034 0.09437617 0.06655428
1.00007973 0.59763866 0.29120582
0.00390866 0.20758768 0.00000000
0.20603436 0.21202710 0.00000324
0.52336549 0.23353071 0.00000000
0.84148721 0.28664368 0.00000000
1.00039533 0.62421231 0.29430484
0.04338236 0.56423494 0.00007430
0.23699099 0.55353242 0.00003202
0.53018690 0.54489840 0.00001060
0.80963673 0.55213691 0.00000000
1.00053910 0.67588174 0.30419099
0.10013647 0.84375652 0.01164398
0.28519279 0.83036222 0.00903600
0.52231283 0.81530317 0.00000000
0.77475916 0.79833575 0.01536548
1.00040411 0.75629675 0.32169991
0.65333037 1.00078477 0.51288245
0.66128750 1.00080636 0.51218436
0.67960829 1.00085514 0.51057634
0.71488781 1.00091565 0.50756061
0.97923661 1.00103304 0.47893804
0.00202542 0.00918395 0.11649623
0.22760740 0.01109469 0.15792272
0.61523058 0.03020211 0.24090724
0.90580085 0.10017624 0.30721006
1.00014064 0.59860503 0.38560307
0.00501366 0.25454701 0.26806621
0.24403685 0.24403685 0.24403685
0.57545167 0.25175318 0.23074999
0.87342123 0.29375816 0.25843441
0.99981665 0.62370059 0.38603640
0.04162274 0.57953738 0.26396958
0.24428960 0.56474029 0.23692570
0.54634806 0.54877821 0.21266525
0.82103226 0.54853221 0.21695437
1.00003951 0.67413410 0.38748844
0.09622778 0.83323366 0.26071033
0.28087775 0.82083475 0.24432864
0.52458793 0.80628319 0.22597703
0.77780176 0.78793354 0.22245049
0.99986005 0.75198135 0.39490839
0.65156760 1.00082101 0.53316092
0.65953419 1.00084181 0.53244198
0.67787801 1.00088869 0.53078310
0.71294359 1.00097340 0.52761318
0.97956754 1.00096876 0.49713897
0.02303184 0.02200198 0.30947372
0.31751949 0.02941472 0.43933340
0.70405299 0.05697990 0.57595555
0.94705049 0.13265348 0.62316473
1.00061438 0.60581706 0.52792859
0.00023027 0.32283706 0.64994263
0.27711969 0.30263381 0.61225442
0.62902182 0.29621831 0.58833807
0.89634260 0.32244265 0.58390428
1.00072730 0.62892905 0.52598510
0.02429806 0.60863298 0.63560815
0.24009407 0.58911250 0.60415247
0.56440739 0.56440739 0.56440739
0.83281627 0.55823169 0.53958273
1.00052247 0.67475474 0.52148502
0.09593281 0.83021800 0.58498590
0.26483620 0.81748153 0.56641469
0.52372849 0.80150127 0.53660135
0.77990891 0.78080003 0.51207261
1.00072476 0.74666105 0.51894801
0.64688045 1.00085947 0.57706033
0.65471863 1.00087666 0.57625984
0.67276786 1.00091548 0.57440748
0.70773108 1.00099205 0.57097651
0.98019257 1.00080604 0.53569319
0.12154013 0.06550981 0.68646037
0.45289311 0.08446372 0.85559110
0.78176848 0.12607339 0.89727496
0.97120009 0.20016066 0.90453411
1.00035065 0.62505772 0.67931260
0.01295396 0.40067721 0.95190685
0.31701075 0.37652139 0.92648493
0.67031057 0.36062029 0.89737534
0.91488889 0.37357439 0.87497250
1.00006823 0.64408799 0.67591977
0.03502936 0.64820741 0.92372265
0.22670276 0.62749964 0.89993142
0.57658251 0.60151928 0.86268303
0.84414906 0.58564981 0.82926474
1.00083002 0.68326532 0.67001936
0.08599809 0.83016680 0.85933028
0.22893847 0.82068901 0.84058464
0.51379549 0.80309751 0.81222317
0.77765460 0.77765460 0.77765460
1.00058406 0.74464912 0.66001437
0.63969300 1.00082492 0.64733602
0.64746058 1.00083637 0.64660936
0.66533411 1.00086266 0.64492190
0.69980379 1.00093573 0.64131309
0.98144195 1.00045001 0.60047563
0.63582325 0.54699857 1.00031456
0.68258350 0.55131898 1.00034481
0.77410605 0.55831041 1.00045248
0.87543672 0.56675842 1.00012712
1.00038670 0.65105302 0.99936289
0.55383493 0.58849467 1.00106355
0.60996563 0.59110854 1.00102803
0.70991556 0.59681945 1.00093603
0.83176091 0.60321660 1.00046006
1.00073092 0.66379771 0.99954438
0.42718865 0.66209251 1.00104425
0.50058418 0.66052423 1.00102269
0.61915320 0.65893938 1.00067579
0.75895218 0.66367105 1.00084051
1.00098709 0.69081980 0.99999822
0.29407582 0.75354232 1.00082163
0.37277051 0.74896654 1.00071642
0.51323124 0.74218977 1.00081288
0.67497551 0.73659468 1.00096236
1.00052470 0.73703624 1.00083573
0.44381866 0.99834726 0.99863147
0.45978865 0.99830581 0.99843471
0.49652410 0.99821665 0.99808597
0.55574343 0.99800799 0.99797137
0.98019703 0.98019703 0.98019703
