public/luts/builtin/fuji_acros.cube
TITLE "Rec709800_sRGB-LA:FLog2_to_ACROS_LA:FLog2_to_ACROS"
LUT_3D_SIZE 9
# Rec709 (800%)/sRGB -> LA - :FLog2_to_ACROS/LA - :FLog2_to_ACROS, CineEI Shift 0.00, Black Level -0.01% IRE, Input 100% -> Output 100% - Created with LUTCalc v4.09 by Ben Turley February 2025
0.00000000 0.00000000 0.00000000
0.00920047 0.00920047 0.00920047
0.02824707 0.02824707 0.02824707
0.07071793 0.07071793 0.07071793
0.13143028 0.13143028 0.13143028
0.19493503 0.19493503 0.19493503
0.27584934 0.27584934 0.27584934
0.41685221 0.41685221 0.41685221
0.73424910 0.73424910 0.73424910
0.03203231 0.03203231 0.03203231
0.05082559 0.05082559 0.05082559
0.07831671 0.07831671 0.07831671
0.12298589 0.12298589 0.12298589
0.17790331 0.17790331 0.17790331
0.23284178 0.23284178 0.23284178
0.31426395 0.31426395 0.31426395
0.44757745 0.44757745 0.44757745
0.73949912 0.73949912 0.73949912
0.11856561 0.11856561 0.11856561
0.13259621 0.13259621 0.13259621
0.16209655 0.16209655 0.16209655
0.20430308 0.20430308 0.20430308
0.25255683 0.25255683 0.25255683
0.30441146 0.30441146 0.30441146
0.37738535 0.37738535 0.37738535
0.49298472 0.49298472 0.49298472
0.74816590 0.74816590 0.74816590
0.25360324 0.25360324 0.25360324
0.26650270 0.26650270 0.26650270
0.28944454 0.28944454 0.28944454
0.32072380 0.32072380 0.32072380
0.35628876 0.35628876 0.35628876
0.39697728 0.39697728 0.39697728
0.45610882 0.45610882 0.45610882
0.54964791 0.54964791 0.54964791
0.76095176 0.76095176 0.76095176
0.39572865 0.39572865 0.39572865
0.40436516 0.40436516 0.40436516
0.41898090 0.41898090 0.41898090
0.44006334 0.44006334 0.44006334
0.46629592 0.46629592 0.46629592
0.49670588 0.49670588 0.49670588
0.54085863 0.54085863 0.54085863
0.61288466 0.61288466 0.61288466
0.77577160 0.77577160 0.77577160
0.52159575 0.52159575 0.52159575
0.52722866 0.52722866 0.52722866
0.53688566 0.53688566 0.53688566
0.55058482 0.55058482 0.55058482
0.56896895 0.56896895 0.56896895
0.58992113 0.58992113 0.58992113
0.62154064 0.62154064 0.62154064
0.67528655 0.67528655 0.67528655
0.79215823 0.79215823 0.79215823
0.65305607 0.65305607 0.65305607
0.65642619 0.65642619 0.65642619
0.66216327 0.66216327 0.66216327
0.67043134 0.67043134 0.67043134
0.68128584 0.68128584 0.68128584
0.69387159 0.69387159 0.69387159
0.71307765 0.71307765 0.71307765
0.75040969 0.75040969 0.75040969
0.81672900 0.81672900 0.81672900
0.79301086 0.79301086 0.79301086
0.79476075 0.79476075 0.79476075
0.79791972 0.79791972 0.79791972
0.80195752 0.80195752 0.80195752
0.80691031 0.80691031 0.80691031
0.81324887 0.81324887 0.81324887
0.82381007 0.82381007 0.82381007
0.84251917 0.84251917 0.84251917
0.85605577 0.85605577 0.85605577
0.93528545 0.93528545 0.93528545
0.93555213 0.93555213 0.93555213
0.93602279 0.93602279 0.93602279
0.93676060 0.93676060 0.93676060
0.93777950 0.93777950 0.93777950
0.93907899 0.93907899 0.93907899
0.94122458 0.94122458 0.94122458
0.94566922 0.94566922 0.94566922
0.96538621 0.96538621 0.96538621
0.00448462 0.00448462 0.00448462
0.01621415 0.01621415 0.01621415
0.03997612 0.03997612 0.03997612
0.08700123 0.08700123 0.08700123
0.15005125 0.15005125 0.15005125
0.20994970 0.20994970 0.20994970
0.29119576 0.29119576 0.29119576
0.43086415 0.43086415 0.43086415
0.73731963 0.73731963 0.73731963
0.04786731 0.04786731 0.04786731
0.06594549 0.06594549 0.06594549
0.09321780 0.09321780 0.09321780
0.14070898 0.14070898 0.14070898
0.19358301 0.19358301 0.19358301
0.24873251 0.24873251 0.24873251
0.33062088 0.33062088 0.33062088
0.46188212 0.46188212 0.46188212
0.74256639 0.74256639 0.74256639
0.14542117 0.14542117 0.14542117
0.15736884 0.15736884 0.15736884
0.18389281 0.18389281 0.18389281
0.22541349 0.22541349 0.22541349
0.27249167 0.27249167 0.27249167
0.32307817 0.32307817 0.32307817
0.39504688 0.39504688 0.39504688
0.50689587 0.50689587 0.50689587
0.75122439 0.75122439 0.75122439
0.27854052 0.27854052 0.27854052
0.29143041 0.29143041 0.29143041
0.31240740 0.31240740 0.31240740
0.34156779 0.34156779 0.34156779
0.37692179 0.37692179 0.37692179
0.41631462 0.41631462 0.41631462
0.47285808 0.47285808 0.47285808
0.56208965 0.56208965 0.56208965
0.76345910 0.76345910 0.76345910
0.41572363 0.41572363 0.41572363
0.42408656 0.42408656 0.42408656
0.43782175 0.43782175 0.43782175
0.45834184 0.45834184 0.45834184
0.48376611 0.48376611 0.48376611
0.51294848 0.51294848 0.51294848
0.55468437 0.55468437 0.55468437
0.62398718 0.62398718 0.62398718
0.77780026 0.77780026 0.77780026
0.53517290 0.53517290 0.53517290
0.54063430 0.54063430 0.54063430
0.54988756 0.54988756 0.54988756
0.56335100 0.56335100 0.56335100
0.58089256 0.58089256 0.58089256
0.60111113 0.60111113 0.60111113
0.63154005 0.63154005 0.63154005
0.68330813 0.68330813 0.68330813
0.79385653 0.79385653 0.79385653
0.65947932 0.65947932 0.65947932
0.66272607 0.66272607 0.66272607
0.66834517 0.66834517 0.66834517
0.67691824 0.67691824 0.67691824
0.68774612 0.68774612 0.68774612
0.70007069 0.70007069 0.70007069
0.71963237 0.71963237 0.71963237
0.75606061 0.75606061 0.75606061
0.81806430 0.81806430 0.81806430
0.79503995 0.79503995 0.79503995
0.79684382 0.79684382 0.79684382
0.79992949 0.79992949 0.79992949
0.80404525 0.80404525 0.80404525
0.80909432 0.80909432 0.80909432
0.81538127 0.81538127 0.81538127
0.82593359 0.82593359 0.82593359
0.84466450 0.84466450 0.84466450
0.85697072 0.85697072 0.85697072
0.93543187 0.93543187 0.93543187
0.93569912 0.93569912 0.93569912
0.93617097 0.93617097 0.93617097
0.93690983 0.93690983 0.93690983
0.93792956 0.93792956 0.93792956
0.93922938 0.93922938 0.93922938
0.94143558 0.94143558 0.94143558
0.94589593 0.94589593 0.94589593
0.96573528 0.96573528 0.96573528
0.01418082 0.01418082 0.01418082
0.02825607 0.02825607 0.02825607
0.05843246 0.05843246 0.05843246
0.11225009 0.11225009 0.11225009
0.17993929 0.17993929 0.17993929
0.23798609 0.23798609 0.23798609
0.32156580 0.32156580 0.32156580
0.45727143 0.45727143 0.45727143
0.74201594 0.74201594 0.74201594
0.06827594 0.06827594 0.06827594
0.08815476 0.08815476 0.08815476
0.12065449 0.12065449 0.12065449
0.17131510 0.17131510 0.17131510
0.22499562 0.22499562 0.22499562
0.28174700 0.28174700 0.28174700
0.36224065 0.36224065 0.36224065
0.48687420 0.48687420 0.48687420
0.74715318 0.74715318 0.74715318
0.18004400 0.18004400 0.18004400
0.19314114 0.19314114 0.19314114
0.22153141 0.22153141 0.22153141
0.26191760 0.26191760 0.26191760
0.30765937 0.30765937 0.30765937
0.35621359 0.35621359 0.35621359
0.42551237 0.42551237 0.42551237
0.52989515 0.52989515 0.52989515
0.75558545 0.75558545 0.75558545
0.31275053 0.31275053 0.31275053
0.32518280 0.32518280 0.32518280
0.34599986 0.34599986 0.34599986
0.37428925 0.37428925 0.37428925
0.40825921 0.40825921 0.40825921
0.44547674 0.44547674 0.44547674
0.49940544 0.49940544 0.49940544
0.58235193 0.58235193 0.58235193
0.76732010 0.76732010 0.76732010
0.44225162 0.44225162 0.44225162
0.45089189 0.45089189 0.45089189
0.46471593 0.46471593 0.46471593
0.48402337 0.48402337 0.48402337
0.50799100 0.50799100 0.50799100
0.53564568 0.53564568 0.53564568
0.57489495 0.57489495 0.57489495
0.63990318 0.63990318 0.63990318
0.78089793 0.78089793 0.78089793
0.55288416 0.55288416 0.55288416
0.55814850 0.55814850 0.55814850
0.56730607 0.56730607 0.56730607
0.58094942 0.58094942 0.58094942
0.59789797 0.59789797 0.59789797
0.61772089 0.61772089 0.61772089
0.64660125 0.64660125 0.64660125
0.69470770 0.69470770 0.69470770
0.79640154 0.79640154 0.79640154
0.66907716 0.66907716 0.66907716
0.67229044 0.67229044 0.67229044
0.67800144 0.67800144 0.67800144
0.68648788 0.68648788 0.68648788
0.69712727 0.69712727 0.69712727
0.70915125 0.70915125 0.70915125
0.72928718 0.72928718 0.72928718
0.76394347 0.76394347 0.76394347
0.82018762 0.82018762 0.82018762
0.79776583 0.79776583 0.79776583
0.79954797 0.79954797 0.79954797
0.80267499 0.80267499 0.80267499
0.80684557 0.80684557 0.80684557
0.81210270 0.81210270 0.81210270
0.81862099 0.81862099 0.81862099
0.82937577 0.82937577 0.82937577
0.84747596 0.84747596 0.84747596
0.85853018 0.85853018 0.85853018
0.93568222 0.93568222 0.93568222
0.93595053 0.93595053 0.93595053
0.93642425 0.93642425 0.93642425
0.93716458 0.93716458 0.93716458
0.93818556 0.93818556 0.93818556
0.93948572 0.93948572 0.93948572
0.94168941 0.94168941 0.94168941
0.94628021 0.94628021 0.94628021
0.96632929 0.96632929 0.96632929
0.02494900 0.02494900 0.02494900
0.04478540 0.04478540 0.04478540
0.08344750 0.08344750 0.08344750
0.14812951 0.14812951 0.14812951
0.21711810 0.21711810 0.21711810
0.27646071 0.27646071 0.27646071
0.36129933 0.36129933 0.36129933
0.49027504 0.49027504 0.49027504
0.74770574 0.74770574 0.74770574
0.09870935 0.09870935 0.09870935
0.11952718 0.11952718 0.11952718
0.16038485 0.16038485 0.16038485
0.21140249 0.21140249 0.21140249
0.26724897 0.26724897 0.26724897
0.32431522 0.32431522 0.32431522
0.40250112 0.40250112 0.40250112
0.51792088 0.51792088 0.51792088
0.75265768 0.75265768 0.75265768
0.22268867 0.22268867 0.22268867
0.23562400 0.23562400 0.23562400
0.26613264 0.26613264 0.26613264
0.30713950 0.30713950 0.30713950
0.35065144 0.35065144 0.35065144
0.39806426 0.39806426 0.39806426
0.46148363 0.46148363 0.46148363
0.55706227 0.55706227 0.55706227
0.76075789 0.76075789 0.76075789
0.35005553 0.35005553 0.35005553
0.36312375 0.36312375 0.36312375
0.38434598 0.38434598 0.38434598
0.41201577 0.41201577 0.41201577
0.44503878 0.44503878 0.44503878
0.48018095 0.48018095 0.48018095
0.52953245 0.52953245 0.52953245
0.60518058 0.60518058 0.60518058
0.77180662 0.77180662 0.77180662
0.47091541 0.47091541 0.47091541
0.47961724 0.47961724 0.47961724
0.49351774 0.49351774 0.49351774
0.51309672 0.51309672 0.51309672
0.53607633 0.53607633 0.53607633
0.56146583 0.56146583 0.56146583
0.59802671 0.59802671 0.59802671
0.65826493 0.65826493 0.65826493
0.78497792 0.78497792 0.78497792
0.57246092 0.57246092 0.57246092
0.57783932 0.57783932 0.57783932
0.58730781 0.58730781 0.58730781
0.60051886 0.60051886 0.60051886
0.61812723 0.61812723 0.61812723
0.63694935 0.63694935 0.63694935
0.66371254 0.66371254 0.66371254
0.70861960 0.70861960 0.70861960
0.80016531 0.80016531 0.80016531
0.68010341 0.68010341 0.68010341
0.68360646 0.68360646 0.68360646
0.68957826 0.68957826 0.68957826
0.69763859 0.69763859 0.69763859
0.70827565 0.70827565 0.70827565
0.72152529 0.72152529 0.72152529
0.74113516 0.74113516 0.74113516
0.77328598 0.77328598 0.77328598
0.82308889 0.82308889 0.82308889
0.80110926 0.80110926 0.80110926
0.80310550 0.80310550 0.80310550
0.80619907 0.80619907 0.80619907
0.81019125 0.81019125 0.81019125
0.81555895 0.81555895 0.81555895
0.82231141 0.82231141 0.82231141
0.83323092 0.83323092 0.83323092
0.85085854 0.85085854 0.85085854
0.86039040 0.86039040 0.86039040
0.93617997 0.93617997 0.93617997
0.93645113 0.93645113 0.93645113
0.93692850 0.93692850 0.93692850
0.93767341 0.93767341 0.93767341
0.93869922 0.93869922 0.93869922
0.94000313 0.94000313 0.94000313
0.94220715 0.94220715 0.94220715
0.94680931 0.94680931 0.94680931
0.96720823 0.96720823 0.96720823
0.04140086 0.04140086 0.04140086
0.06887419 0.06887419 0.06887419
0.11639791 0.11639791 0.11639791
0.19012299 0.19012299 0.19012299
0.25771509 0.25771509 0.25771509
0.31931692 0.31931692 0.31931692
0.40395520 0.40395520 0.40395520
0.52209514 0.52209514 0.52209514
0.75400548 0.75400548 0.75400548
0.13696697 0.13696697 0.13696697
0.16247583 0.16247583 0.16247583
0.20477525 0.20477525 0.20477525
0.25794087 0.25794087 0.25794087
0.31406504 0.31406504 0.31406504
0.37040323 0.37040323 0.37040323
0.44344202 0.44344202 0.44344202
0.54720398 0.54720398 0.54720398
0.75883423 0.75883423 0.75883423
0.26532932 0.26532932 0.26532932
0.28107825 0.28107825 0.28107825
0.31392890 0.31392890 0.31392890
0.35216440 0.35216440 0.35216440
0.39487908 0.39487908 0.39487908
0.43900893 0.43900893 0.43900893
0.49786733 0.49786733 0.49786733
0.58374702 0.58374702 0.58374702
0.76662290 0.76662290 0.76662290
0.38647016 0.38647016 0.38647016
0.40090374 0.40090374 0.40090374
0.42324300 0.42324300 0.42324300
0.45026113 0.45026113 0.45026113
0.48169387 0.48169387 0.48169387
0.51422060 0.51422060 0.51422060
0.55860393 0.55860393 0.55860393
0.62860478 0.62860478 0.62860478
0.77692367 0.77692367 0.77692367
0.49813066 0.49813066 0.49813066
0.50802645 0.50802645 0.50802645
0.52266832 0.52266832 0.52266832
0.54122618 0.54122618 0.54122618
0.56271389 0.56271389 0.56271389
0.58828506 0.58828506 0.58828506
0.62306345 0.62306345 0.62306345
0.67708292 0.67708292 0.67708292
0.78966438 0.78966438 0.78966438
0.59189806 0.59189806 0.59189806
0.59772204 0.59772204 0.59772204
0.60787283 0.60787283 0.60787283
0.62162561 0.62162561 0.62162561
0.63817317 0.63817317 0.63817317
0.65590853 0.65590853 0.65590853
0.68094088 0.68094088 0.68094088
0.72443762 0.72443762 0.72443762
0.80428390 0.80428390 0.80428390
0.69144889 0.69144889 0.69144889
0.69492929 0.69492929 0.69492929
0.70122626 0.70122626 0.70122626
0.71048048 0.71048048 0.71048048
0.72171492 0.72171492 0.72171492
0.73487122 0.73487122 0.73487122
0.75317693 0.75317693 0.75317693
0.78348687 0.78348687 0.78348687
0.82655630 0.82655630 0.82655630
0.80379092 0.80379092 0.80379092
0.80575148 0.80575148 0.80575148
0.80900837 0.80900837 0.80900837
0.81323856 0.81323856 0.81323856
0.81921480 0.81921480 0.81921480
0.82637110 0.82637110 0.82637110
0.83748060 0.83748060 0.83748060
0.85427848 0.85427848 0.85427848
0.86268992 0.86268992 0.86268992
0.93681349 0.93681349 0.93681349
0.93709147 0.93709147 0.93709147
0.93758047 0.93758047 0.93758047
0.93834256 0.93834256 0.93834256
0.93939010 0.93939010 0.93939010
0.94070618 0.94070618 0.94070618
0.94289967 0.94289967 0.94289967
0.94748630 0.94748630 0.94748630
0.96833406 0.96833406 0.96833406
0.06816608 0.06816608 0.06816608
0.09956140 0.09956140 0.09956140
0.15885898 0.15885898 0.15885898
0.23706431 0.23706431 0.23706431
0.30281062 0.30281062 0.30281062
0.36500386 0.36500386 0.36500386
0.44507195 0.44507195 0.44507195
0.55231824 0.55231824 0.55231824
0.76072716 0.76072716 0.76072716
0.18415617 0.18415617 0.18415617
0.21005360 0.21005360 0.21005360
0.25586796 0.25586796 0.25586796
0.30886266 0.30886266 0.30886266
0.36217344 0.36217344 0.36217344
0.41551592 0.41551592 0.41551592
0.48297726 0.48297726 0.48297726
0.57585831 0.57585831 0.57585831
0.76521488 0.76521488 0.76521488
0.30845394 0.30845394 0.30845394
0.32622583 0.32622583 0.32622583
0.35916036 0.35916036 0.35916036
0.39777936 0.39777936 0.39777936
0.43781932 0.43781932 0.43781932
0.47877153 0.47877153 0.47877153
0.53209301 0.53209301 0.53209301
0.61003813 0.61003813 0.61003813
0.77254580 0.77254580 0.77254580
0.41955794 0.41955794 0.41955794
0.43525982 0.43525982 0.43525982
0.45866865 0.45866865 0.45866865
0.48584838 0.48584838 0.48584838
0.51587727 0.51587727 0.51587727
0.54665738 0.54665738 0.54665738
0.58816703 0.58816703 0.58816703
0.65203309 0.65203309 0.65203309
0.78250384 0.78250384 0.78250384
0.52318751 0.52318751 0.52318751
0.53367230 0.53367230 0.53367230
0.54893538 0.54893538 0.54893538
0.56802091 0.56802091 0.56802091
0.59030888 0.59030888 0.59030888
0.61433183 0.61433183 0.61433183
0.64618643 0.64618643 0.64618643
0.69582857 0.69582857 0.69582857
0.79494176 0.79494176 0.79494176
0.60966676 0.60966676 0.60966676
0.61648837 0.61648837 0.61648837
0.62681492 0.62681492 0.62681492
0.64047482 0.64047482 0.64047482
0.65633852 0.65633852 0.65633852
0.67361309 0.67361309 0.67361309
0.69889534 0.69889534 0.69889534
0.74053449 0.74053449 0.74053449
0.80896606 0.80896606 0.80896606
0.70166061 0.70166061 0.70166061
0.70567290 0.70567290 0.70567290
0.71232286 0.71232286 0.71232286
0.72245586 0.72245586 0.72245586
0.73384200 0.73384200 0.73384200
0.74655145 0.74655145 0.74655145
0.76497668 0.76497668 0.76497668
0.79273655 0.79273655 0.79273655
0.83018307 0.83018307 0.83018307
0.80542244 0.80542244 0.80542244
0.80755657 0.80755657 0.80755657
0.81110645 0.81110645 0.81110645
0.81578371 0.81578371 0.81578371
0.82246910 0.82246910 0.82246910
0.83001266 0.83001266 0.83001266
0.84073123 0.84073123 0.84073123
0.85753208 0.85753208 0.85753208
0.86531674 0.86531674 0.86531674
0.93752724 0.93752724 0.93752724
0.93780640 0.93780640 0.93780640
0.93829703 0.93829703 0.93829703
0.93906055 0.93906055 0.93906055
0.94010790 0.94010790 0.94010790
0.94143235 0.94143235 0.94143235
0.94365163 0.94365163 0.94365163
0.94828070 0.94828070 0.94828070
0.96962898 0.96962898 0.96962898
0.11885042 0.11885042 0.11885042
0.16167694 0.16167694 0.16167694
0.23101455 0.23101455 0.23101455
0.30659043 0.30659043 0.30659043
0.36798710 0.36798710 0.36798710
0.42675170 0.42675170 0.42675170
0.49869445 0.49869445 0.49869445
0.59036217 0.59036217 0.59036217
0.76961192 0.76961192 0.76961192
0.25202141 0.25202141 0.25202141
0.28082561 0.28082561 0.28082561
0.32635845 0.32635845 0.32635845
0.37548216 0.37548216 0.37548216
0.42514662 0.42514662 0.42514662
0.47280147 0.47280147 0.47280147
0.53139539 0.53139539 0.53139539
0.61213869 0.61213869 0.61213869
0.77367547 0.77367547 0.77367547
0.35867101 0.35867101 0.35867101
0.37953765 0.37953765 0.37953765
0.41488777 0.41488777 0.41488777
0.45307313 0.45307313 0.45307313
0.49058746 0.49058746 0.49058746
0.52744416 0.52744416 0.52744416
0.57400384 0.57400384 0.57400384
0.64267480 0.64267480 0.64267480
0.78029701 0.78029701 0.78029701
0.45876213 0.45876213 0.45876213
0.47533332 0.47533332 0.47533332
0.49978105 0.49978105 0.49978105
0.52793595 0.52793595 0.52793595
0.55716820 0.55716820 0.55716820
0.58579731 0.58579731 0.58579731
0.62366009 0.62366009 0.62366009
0.68025521 0.68025521 0.68025521
0.79000824 0.79000824 0.79000824
0.55064489 0.55064489 0.55064489
0.56189204 0.56189204 0.56189204
0.57843977 0.57843977 0.57843977
0.59933816 0.59933816 0.59933816
0.62139194 0.62139194 0.62139194
0.64397507 0.64397507 0.64397507
0.67383760 0.67383760 0.67383760
0.72000233 0.72000233 0.72000233
0.80180838 0.80180838 0.80180838
0.62913655 0.62913655 0.62913655
0.63630104 0.63630104 0.63630104
0.64753973 0.64753973 0.64753973
0.66256001 0.66256001 0.66256001
0.67915097 0.67915097 0.67915097
0.69680349 0.69680349 0.69680349
0.72090681 0.72090681 0.72090681
0.75915717 0.75915717 0.75915717
0.81489362 0.81489362 0.81489362
0.71192735 0.71192735 0.71192735
0.71675640 0.71675640 0.71675640
0.72369401 0.72369401 0.72369401
0.73458011 0.73458011 0.73458011
0.74626165 0.74626165 0.74626165
0.75958775 0.75958775 0.75958775
0.77652265 0.77652265 0.77652265
0.80425930 0.80425930 0.80425930
0.83501976 0.83501976 0.83501976
0.80661473 0.80661473 0.80661473
0.80891360 0.80891360 0.80891360
0.81274392 0.81274392 0.81274392
0.81800818 0.81800818 0.81800818
0.82472860 0.82472860 0.82472860
0.83231276 0.83231276 0.83231276
0.84383489 0.84383489 0.84383489
0.86134787 0.86134787 0.86134787
0.86901798 0.86901798 0.86901798
0.93817113 0.93817113 0.93817113
0.93846847 0.93846847 0.93846847
0.93899069 0.93899069 0.93899069
0.93980236 0.93980236 0.93980236
0.94091348 0.94091348 0.94091348
0.94226698 0.94226698 0.94226698
0.94446627 0.94446627 0.94446627
0.94916902 0.94916902 0.94916902
0.97183585 0.97183585 0.97183585
0.26516241 0.26516241 0.26516241
0.31356757 0.31356757 0.31356757
0.36566720 0.36566720 0.36566720
0.41801624 0.41801624 0.41801624
0.46952260 0.46952260 0.46952260
0.51666936 0.51666936 0.51666936
0.57283214 0.57283214 0.57283214
0.64401128 0.64401128 0.64401128
0.78120225 0.78120225 0.78120225
0.35736218 0.35736218 0.35736218
0.38555900 0.38555900 0.38555900
0.42613588 0.42613588 0.42613588
0.46971025 0.46971025 0.46971025
0.51141533 0.51141533 0.51141533
0.55028709 0.55028709 0.55028709
0.59858746 0.59858746 0.59858746
0.66187133 0.66187133 0.66187133
0.78464589 0.78464589 0.78464589
0.43197854 0.43197854 0.43197854
0.45413780 0.45413780 0.45413780
0.48861635 0.48861635 0.48861635
0.52461424 0.52461424 0.52461424
0.55923847 0.55923847 0.55923847
0.59183089 0.59183089 0.59183089
0.63286238 0.63286238 0.63286238
0.68750468 0.68750468 0.68750468
0.79051126 0.79051126 0.79051126
0.50990988 0.50990988 0.50990988
0.52794506 0.52794506 0.52794506
0.55473128 0.55473128 0.55473128
0.58312343 0.58312343 0.58312343
0.61158499 0.61158499 0.61158499
0.63820733 0.63820733 0.63820733
0.67139009 0.67139009 0.67139009
0.71830391 0.71830391 0.71830391
0.79958196 0.79958196 0.79958196
0.58308853 0.58308853 0.58308853
0.59630955 0.59630955 0.59630955
0.61477833 0.61477833 0.61477833
0.63635683 0.63635683 0.63635683
0.65935526 0.65935526 0.65935526
0.68206582 0.68206582 0.68206582
0.71044483 0.71044483 0.71044483
0.75067000 0.75067000 0.75067000
0.81098178 0.81098178 0.81098178
0.64742298 0.64742298 0.64742298
0.65665826 0.65665826 0.65665826
0.66881685 0.66881685 0.66881685
0.68640467 0.68640467 0.68640467
0.70502439 0.70502439 0.70502439
0.72266618 0.72266618 0.72266618
0.74622432 0.74622432 0.74622432
0.77974137 0.77974137 0.77974137
0.82378724 0.82378724 0.82378724
0.71711334 0.71711334 0.71711334
0.72237363 0.72237363 0.72237363
0.73088159 0.73088159 0.73088159
0.74365047 0.74365047 0.74365047
0.75646743 0.75646743 0.75646743
0.77022704 0.77022704 0.77022704
0.78844949 0.78844949 0.78844949
0.81480622 0.81480622 0.81480622
0.84201034 0.84201034 0.84201034
0.80264008 0.80264008 0.80264008
0.80542720 0.80542720 0.80542720
0.80974906 0.80974906 0.80974906
0.81540149 0.81540149 0.81540149
0.82301465 0.82301465 0.82301465
0.83111561 0.83111561 0.83111561
0.84387642 0.84387642 0.84387642
0.86246351 0.86246351 0.86246351
0.87368295 0.87368295 0.87368295
0.93921677 0.93921677 0.93921677
0.93951618 0.93951618 0.93951618
0.94004137 0.94004137 0.94004137
0.94085596 0.94085596 0.94085596
0.94196773 0.94196773 0.94196773
0.94336371 0.94336371 0.94336371
0.94568824 0.94568824 0.94568824
0.95061272 0.95061272 0.95061272
0.97518340 0.97518340 0.97518340
0.62872439 0.62872439 0.62872439
0.63423743 0.63423743 0.63423743
0.64298635 0.64298635 0.64298635
0.65516452 0.65516452 0.65516452
0.66940657 0.66940657 0.66940657
0.68476063 0.68476063 0.68476063
0.70629106 0.70629106 0.70629106
0.73844507 0.73844507 0.73844507
0.82021198 0.82021198 0.82021198
0.63136134 0.63136134 0.63136134
0.63669559 0.63669559 0.63669559
0.64540885 0.64540885 0.64540885
0.65770924 0.65770924 0.65770924
0.67216898 0.67216898 0.67216898
0.68772218 0.68772218 0.68772218
0.70888731 0.70888731 0.70888731
0.74160163 0.74160163 0.74160163
0.82247740 0.82247740 0.82247740
0.63618364 0.63618364 0.63618364
0.64148160 0.64148160 0.64148160
0.65021374 0.65021374 0.65021374
0.66260965 0.66260965 0.66260965
0.67706292 0.67706292 0.67706292
0.69263776 0.69263776 0.69263776
0.71351422 0.71351422 0.71351422
0.74644056 0.74644056 0.74644056
0.82623638 0.82623638 0.82623638
0.64496259 0.64496259 0.64496259
0.65007046 0.65007046 0.65007046
0.65853141 0.65853141 0.65853141
0.67048791 0.67048791 0.67048791
0.68473963 0.68473963 0.68473963
0.70032649 0.70032649 0.70032649
0.72027845 0.72027845 0.72027845
0.75362148 0.75362148 0.75362148
0.83167658 0.83167658 0.83167658
0.65721392 0.65721392 0.65721392
0.66203394 0.66203394 0.66203394
0.67010422 0.67010422 0.67010422
0.68123614 0.68123614 0.68123614
0.69496396 0.69496396 0.69496396
0.70964529 0.70964529 0.70964529
0.72934078 0.72934078 0.72934078
0.76275944 0.76275944 0.76275944
0.83906827 0.83906827 0.83906827
0.67415364 0.67415364 0.67415364
0.67841542 0.67841542 0.67841542
0.68542068 0.68542068 0.68542068
0.69558241 0.69558241 0.69558241
0.70837993 0.70837993 0.70837993
0.72126549 0.72126549 0.72126549
0.74004363 0.74004363 0.74004363
0.77258322 0.77258322 0.77258322
0.84759080 0.84759080 0.84759080
0.70002518 0.70002518 0.70002518
0.70350124 0.70350124 0.70350124
0.70942678 0.70942678 0.70942678
0.71836360 0.71836360 0.71836360
0.72892218 0.72892218 0.72892218
0.74092201 0.74092201 0.74092201
0.75892922 0.75892922 0.75892922
0.78683896 0.78683896 0.78683896
0.86121135 0.86121135 0.86121135
0.74797483 0.74797483 0.74797483
0.75043476 0.75043476 0.75043476
0.75460444 0.75460444 0.75460444
0.76083082 0.76083082 0.76083082
0.76860135 0.76860135 0.76860135
0.77680320 0.77680320 0.77680320
0.78944576 0.78944576 0.78944576
0.81256409 0.81256409 0.81256409
0.88546937 0.88546937 0.88546937
0.92731980 0.92731980 0.92731980
0.92766401 0.92766401 0.92766401
0.92826511 0.92826511 0.92826511
0.92919125 0.92919125 0.92919125
0.93042955 0.93042955 0.93042955
0.93195911 0.93195911 0.93195911
0.93449586 0.93449586 0.93449586
0.94087110 0.94087110 0.94087110
0.98632240 0.98632240 0.98632240
