public/luts/builtin/fuji_acros.cube
TITLE "Rec709800_sRGB-LA:FLog2_to_ACROS_LA:FLog2_to_ACROS"
LUT_3D_SIZE 33
# Rec709 (800%)/sRGB -> LA - :FLog2_to_ACROS/LA - :FLog2_to_ACROS, CineEI Shift 0.00, Black Level -0.01% IRE, Input 100% -> Output 100% - Created with LUTCalc v4.09 by Ben Turley February 2025
0.00000000 0.00000000 0.00000000
0.00000432 0.00000432 0.00000432
0.00000000 0.00000000 0.00000000
0.00544948 0.00544948 0.00544948
0.00920047 0.00920047 0.00920047
0.01376049 0.01376049 0.01376049
0.01862330 0.01862330 0.01862330
0.02310390 0.02310390 0.02310390
0.02824707 0.02824707 0.02824707
0.03436563 0.03436563 0.03436563
0.04627807 0.04627807 0.04627807
0.05809174 0.05809174 0.05809174
0.07071793 0.07071793 0.07071793
0.08437433 0.08437433 0.08437433
0.09933593 0.09933593 0.09933593
0.11420276 0.11420276 0.11420276
0.13143028 0.13143028 0.13143028
0.14834436 0.14834436 0.14834436
0.16395028 0.16395028 0.16395028
0.17969857 0.17969857 0.17969857
0.19493503 0.19493503 0.19493503
0.21391964 0.21391964 0.21391964
0.23175003 0.23175003 0.23175003
0.25186660 0.25186660 0.25186660
0.27584934 0.27584934 0.27584934
0.30235199 0.30235199 0.30235199
0.33382373 0.33382373 0.33382373
0.37155002 0.37155002 0.37155002
0.41685221 0.41685221 0.41685221
0.47105904 0.47105904 0.47105904
0.53034464 0.53034464 0.53034464
0.59543531 0.59543531 0.59543531
0.73424910 0.73424910 0.73424910
0.00000000 0.00000000 0.00000000
0.00000886 0.00000886 0.00000886
0.00333107 0.00333107 0.00333107
0.00850236 0.00850236 0.00850236
0.01307855 0.01307855 0.01307855
0.01864598 0.01864598 0.01864598
0.02485785 0.02485785 0.02485785
0.03067228 0.03067228 0.03067228
0.03824159 0.03824159 0.03824159
0.04896238 0.04896238 0.04896238
0.05945040 0.05945040 0.05945040
0.07128930 0.07128930 0.07128930
0.08450850 0.08450850 0.08450850
0.09774082 0.09774082 0.09774082
0.11244680 0.11244680 0.11244680
0.12779721 0.12779721 0.12779721
0.14480842 0.14480842 0.14480842
0.16002163 0.16002163 0.16002163
0.17500353 0.17500353 0.17500353
0.18963910 0.18963910 0.18963910
0.20333281 0.20333281 0.20333281
0.22137213 0.22137213 0.22137213
0.23974137 0.23974137 0.23974137
0.26117700 0.26117700 0.26117700
0.28427089 0.28427089 0.28427089
0.31172406 0.31172406 0.31172406
0.34269764 0.34269764 0.34269764
0.38014810 0.38014810 0.38014810
0.42438011 0.42438011 0.42438011
0.47751857 0.47751857 0.47751857
0.53579304 0.53579304 0.53579304
0.59905077 0.59905077 0.59905077
0.73549582 0.73549582 0.73549582
0.00946779 0.00946779 0.00946779
0.01190112 0.01190112 0.01190112
0.01566501 0.01566501 0.01566501
0.01981675 0.01981675 0.01981675
0.02455296 0.02455296 0.02455296
0.02961746 0.02961746 0.02961746
0.03463413 0.03463413 0.03463413
0.04312516 0.04312516 0.04312516
0.05215149 0.05215149 0.05215149
0.06141329 0.06141329 0.06141329
0.07217773 0.07217773 0.07217773
0.08488429 0.08488429 0.08488429
0.09770277 0.09770277 0.09770277
0.11076087 0.11076087 0.11076087
0.12575362 0.12575362 0.12575362
0.14110129 0.14110129 0.14110129
0.15608268 0.15608268 0.15608268
0.17024172 0.17024172 0.17024172
0.18456138 0.18456138 0.18456138
0.19883980 0.19883980 0.19883980
0.21245053 0.21245053 0.21245053
0.23077911 0.23077911 0.23077911
0.24910711 0.24910711 0.24910711
0.26988353 0.26988353 0.26988353
0.29371323 0.29371323 0.29371323
0.32095994 0.32095994 0.32095994
0.35094601 0.35094601 0.35094601
0.38848311 0.38848311 0.38848311
0.43154105 0.43154105 0.43154105
0.48356765 0.48356765 0.48356765
0.54102683 0.54102683 0.54102683
0.60257570 0.60257570 0.60257570
0.73672889 0.73672889 0.73672889
0.02029474 0.02029474 0.02029474
0.02311038 0.02311038 0.02311038
0.02678778 0.02678778 0.02678778
0.03091140 0.03091140 0.03091140
0.03531644 0.03531644 0.03531644
0.04155505 0.04155505 0.04155505
0.04846400 0.04846400 0.04846400
0.05583939 0.05583939 0.05583939
0.06374317 0.06374317 0.06374317
0.07352320 0.07352320 0.07352320
0.08471355 0.08471355 0.08471355
0.09694955 0.09694955 0.09694955
0.10976811 0.10976811 0.10976811
0.12386852 0.12386852 0.12386852
0.13792494 0.13792494 0.13792494
0.15128466 0.15128466 0.15128466
0.16587911 0.16587911 0.16587911
0.17973439 0.17973439 0.17973439
0.19397211 0.19397211 0.19397211
0.20818593 0.20818593 0.20818593
0.22191206 0.22191206 0.22191206
0.23988955 0.23988955 0.23988955
0.25828052 0.25828052 0.25828052
0.27995863 0.27995863 0.27995863
0.30349199 0.30349199 0.30349199
0.32979785 0.32979785 0.32979785
0.36028660 0.36028660 0.36028660
0.39670619 0.39670619 0.39670619
0.43889709 0.43889709 0.43889709
0.48953268 0.48953268 0.48953268
0.54626088 0.54626088 0.54626088
0.60613567 0.60613567 0.60613567
0.73799097 0.73799097 0.73799097
0.03203231 0.03203231 0.03203231
0.03530625 0.03530625 0.03530625
0.04064706 0.04064706 0.04064706
0.04601971 0.04601971 0.04601971
0.05082559 0.05082559 0.05082559
0.05615011 0.05615011 0.05615011
0.06149317 0.06149317 0.06149317
0.06923748 0.06923748 0.06923748
0.07831671 0.07831671 0.07831671
0.08819015 0.08819015 0.08819015
0.09810151 0.09810151 0.09810151
0.10980973 0.10980973 0.10980973
0.12298589 0.12298589 0.12298589
0.13730529 0.13730529 0.13730529
0.15112925 0.15112925 0.15112925
0.16447992 0.16447992 0.16447992
0.17790331 0.17790331 0.17790331
0.19113980 0.19113980 0.19113980
0.20495473 0.20495473 0.20495473
0.21893269 0.21893269 0.21893269
0.23284178 0.23284178 0.23284178
0.25229800 0.25229800 0.25229800
0.27106506 0.27106506 0.27106506
0.29152667 0.29152667 0.29152667
0.31426395 0.31426395 0.31426395
0.34094575 0.34094575 0.34094575
0.37096886 0.37096886 0.37096886
0.40631794 0.40631794 0.40631794
0.44757745 0.44757745 0.44757745
0.49650944 0.49650944 0.49650944
0.55219334 0.55219334 0.55219334
0.61066339 0.61066339 0.61066339
0.73949912 0.73949912 0.73949912
0.04932603 0.04932603 0.04932603
0.05370091 0.05370091 0.05370091
0.05798393 0.05798393 0.05798393
0.06145697 0.06145697 0.06145697
0.06581564 0.06581564 0.06581564
0.07043893 0.07043893 0.07043893
0.07692804 0.07692804 0.07692804
0.08477688 0.08477688 0.08477688
0.09417097 0.09417097 0.09417097
0.10392600 0.10392600 0.10392600
0.11442824 0.11442824 0.11442824
0.12665831 0.12665831 0.12665831
0.13791488 0.13791488 0.13791488
0.15232419 0.15232419 0.15232419
0.16559755 0.16559755 0.16559755
0.17881253 0.17881253 0.17881253
0.19210868 0.19210868 0.19210868
0.20553989 0.20553989 0.20553989
0.21920853 0.21920853 0.21920853
0.23356197 0.23356197 0.23356197
0.24817601 0.24817601 0.24817601
0.26722033 0.26722033 0.26722033
0.28535459 0.28535459 0.28535459
0.30573083 0.30573083 0.30573083
0.32821967 0.32821967 0.32821967
0.35365455 0.35365455 0.35365455
0.38284052 0.38284052 0.38284052
0.41734489 0.41734489 0.41734489
0.45752084 0.45752084 0.45752084
0.50479286 0.50479286 0.50479286
0.55897728 0.55897728 0.55897728
0.61597895 0.61597895 0.61597895
0.74128444 0.74128444 0.74128444
0.06819456 0.06819456 0.06819456
0.07270556 0.07270556 0.07270556
0.07603701 0.07603701 0.07603701
0.08024706 0.08024706 0.08024706
0.08452906 0.08452906 0.08452906
0.08952949 0.08952949 0.08952949
0.09506068 0.09506068 0.09506068
0.10262513 0.10262513 0.10262513
0.11096207 0.11096207 0.11096207
0.12157740 0.12157740 0.12157740
0.13388633 0.13388633 0.13388633
0.14637338 0.14637338 0.14637338
0.15818345 0.15818345 0.15818345
0.17035209 0.17035209 0.17035209
0.18279011 0.18279011 0.18279011
0.19665660 0.19665660 0.19665660
0.20976753 0.20976753 0.20976753
0.22231915 0.22231915 0.22231915
0.23532705 0.23532705 0.23532705
0.24967089 0.24967089 0.24967089
0.26456455 0.26456455 0.26456455
0.28387198 0.28387198 0.28387198
0.30196019 0.30196019 0.30196019
0.32170033 0.32170033 0.32170033
0.34327140 0.34327140 0.34327140
0.36792228 0.36792228 0.36792228
0.39631126 0.39631126 0.39631126
0.42927876 0.42927876 0.42927876
0.46839065 0.46839065 0.46839065
0.51386221 0.51386221 0.51386221
0.56666513 0.56666513 0.56666513
0.62196034 0.62196034 0.62196034
0.74333107 0.74333107 0.74333107
0.09187059 0.09187059 0.09187059
0.09484420 0.09484420 0.09484420
0.09824082 0.09824082 0.09824082
0.10122361 0.10122361 0.10122361
0.10569458 0.10569458 0.10569458
0.11126212 0.11126212 0.11126212
0.11780639 0.11780639 0.11780639
0.12482573 0.12482573 0.12482573
0.13458611 0.13458611 0.13458611
0.14421057 0.14421057 0.14421057
0.15548976 0.15548976 0.15548976
0.16787585 0.16787585 0.16787585
0.17958372 0.17958372 0.17958372
0.19168850 0.19168850 0.19168850
0.20405203 0.20405203 0.20405203
0.21673945 0.21673945 0.21673945
0.22955949 0.22955949 0.22955949
0.24262384 0.24262384 0.24262384
0.25582799 0.25582799 0.25582799
0.26962886 0.26962886 0.26962886
0.28322169 0.28322169 0.28322169
0.30182867 0.30182867 0.30182867
0.31913802 0.31913802 0.31913802
0.33809944 0.33809944 0.33809944
0.35919718 0.35919718 0.35919718
0.38346594 0.38346594 0.38346594
0.41075901 0.41075901 0.41075901
0.44297899 0.44297899 0.44297899
0.48004668 0.48004668 0.48004668
0.52377782 0.52377782 0.52377782
0.57491592 0.57491592 0.57491592
0.62853560 0.62853560 0.62853560
0.74561940 0.74561940 0.74561940
0.11856561 0.11856561 0.11856561
0.12139187 0.12139187 0.12139187
0.12468221 0.12468221 0.12468221
0.12798288 0.12798288 0.12798288
0.13259621 0.13259621 0.13259621
0.13933134 0.13933134 0.13933134
0.14631457 0.14631457 0.14631457
0.15380795 0.15380795 0.15380795
0.16209655 0.16209655 0.16209655
0.17150740 0.17150740 0.17150740
0.18195086 0.18195086 0.18195086
0.19204903 0.19204903 0.19204903
0.20430308 0.20430308 0.20430308
0.21588272 0.21588272 0.21588272
0.22736484 0.22736484 0.22736484
0.23996535 0.23996535 0.23996535
0.25255683 0.25255683 0.25255683
0.26515400 0.26515400 0.26515400
0.27785875 0.27785875 0.27785875
0.29120673 0.29120673 0.29120673
0.30441146 0.30441146 0.30441146
0.32141684 0.32141684 0.32141684
0.33789726 0.33789726 0.33789726
0.35690539 0.35690539 0.35690539
0.37738535 0.37738535 0.37738535
0.39989290 0.39989290 0.39989290
0.42589715 0.42589715 0.42589715
0.45757784 0.45757784 0.45757784
0.49298472 0.49298472 0.49298472
0.53449583 0.53449583 0.53449583
0.58371492 0.58371492 0.58371492
0.63586989 0.63586989 0.63586989
0.74816590 0.74816590 0.74816590
0.15034160 0.15034160 0.15034160
0.15274324 0.15274324 0.15274324
0.15619419 0.15619419 0.15619419
0.15914566 0.15914566 0.15914566
0.16278970 0.16278970 0.16278970
0.16939799 0.16939799 0.16939799
0.17605886 0.17605886 0.17605886
0.18350743 0.18350743 0.18350743
0.19199882 0.19199882 0.19199882
0.20083917 0.20083917 0.20083917
0.21049904 0.21049904 0.21049904
0.22043220 0.22043220 0.22043220
0.23072982 0.23072982 0.23072982
0.24190797 0.24190797 0.24190797
0.25351852 0.25351852 0.25351852
0.26495992 0.26495992 0.26495992
0.27671924 0.27671924 0.27671924
0.28902466 0.28902466 0.28902466
0.30144619 0.30144619 0.30144619
0.31397928 0.31397928 0.31397928
0.32639789 0.32639789 0.32639789
0.34291046 0.34291046 0.34291046
0.35866212 0.35866212 0.35866212
0.37617162 0.37617162 0.37617162
0.39581570 0.39581570 0.39581570
0.41769474 0.41769474 0.41769474
0.44289656 0.44289656 0.44289656
0.47244561 0.47244561 0.47244561
0.50617866 0.50617866 0.50617866
0.54639665 0.54639665 0.54639665
0.59300067 0.59300067 0.59300067
0.64350775 0.64350775 0.64350775
0.75103962 0.75103962 0.75103962
0.18417717 0.18417717 0.18417717
0.18668053 0.18668053 0.18668053
0.18943090 0.18943090 0.18943090
0.19227857 0.19227857 0.19227857
0.19592097 0.19592097 0.19592097
0.20100870 0.20100870 0.20100870
0.20774499 0.20774499 0.20774499
0.21481639 0.21481639 0.21481639
0.22289222 0.22289222 0.22289222
0.23180595 0.23180595 0.23180595
0.24076035 0.24076035 0.24076035
0.25069621 0.25069621 0.25069621
0.26068592 0.26068592 0.26068592
0.27047776 0.27047776 0.27047776
0.28123194 0.28123194 0.28123194
0.29192172 0.29192172 0.29192172
0.30243035 0.30243035 0.30243035
0.31292400 0.31292400 0.31292400
0.32500524 0.32500524 0.32500524
0.33732565 0.33732565 0.33732565
0.34952030 0.34952030 0.34952030
0.36505561 0.36505561 0.36505561
0.38016384 0.38016384 0.38016384
0.39697546 0.39697546 0.39697546
0.41519691 0.41519691 0.41519691
0.43652133 0.43652133 0.43652133
0.46064547 0.46064547 0.46064547
0.48831188 0.48831188 0.48831188
0.52040359 0.52040359 0.52040359
0.55857991 0.55857991 0.55857991
0.60373725 0.60373725 0.60373725
0.65168936 0.65168936 0.65168936
0.75416787 0.75416787 0.75416787
0.21863072 0.21863072 0.21863072
0.22117249 0.22117249 0.22117249
0.22369870 0.22369870 0.22369870
0.22700207 0.22700207 0.22700207
0.23097804 0.23097804 0.23097804
0.23552986 0.23552986 0.23552986
0.24150252 0.24150252 0.24150252
0.24829557 0.24829557 0.24829557
0.25576977 0.25576977 0.25576977
0.26395341 0.26395341 0.26395341
0.27255774 0.27255774 0.27255774
0.28160597 0.28160597 0.28160597
0.29054291 0.29054291 0.29054291
0.29982596 0.29982596 0.29982596
0.30916593 0.30916593 0.30916593
0.31907413 0.31907413 0.31907413
0.32941440 0.32941440 0.32941440
0.33973842 0.33973842 0.33973842
0.35020488 0.35020488 0.35020488
0.36158207 0.36158207 0.36158207
0.37344306 0.37344306 0.37344306
0.38818199 0.38818199 0.38818199
0.40190734 0.40190734 0.40190734
0.41779336 0.41779336 0.41779336
0.43584622 0.43584622 0.43584622
0.45587460 0.45587460 0.45587460
0.47838044 0.47838044 0.47838044
0.50478167 0.50478167 0.50478167
0.53502383 0.53502383 0.53502383
0.57096963 0.57096963 0.57096963
0.61488695 0.61488695 0.61488695
0.66033789 0.66033789 0.66033789
0.75748513 0.75748513 0.75748513
0.25360324 0.25360324 0.25360324
0.25646088 0.25646088 0.25646088
0.25949954 0.25949954 0.25949954
0.26273637 0.26273637 0.26273637
0.26650270 0.26650270 0.26650270
0.27107271 0.27107271 0.27107271
0.27629692 0.27629692 0.27629692
0.28267612 0.28267612 0.28267612
0.28944454 0.28944454 0.28944454
0.29643914 0.29643914 0.29643914
0.30447029 0.30447029 0.30447029
0.31260421 0.31260421 0.31260421
0.32072380 0.32072380 0.32072380
0.32934209 0.32934209 0.32934209
0.33816813 0.33816813 0.33816813
0.34709778 0.34709778 0.34709778
0.35628876 0.35628876 0.35628876
0.36628969 0.36628969 0.36628969
0.37646479 0.37646479 0.37646479
0.38669340 0.38669340 0.38669340
0.39697728 0.39697728 0.39697728
0.41124560 0.41124560 0.41124560
0.42485239 0.42485239 0.42485239
0.43968206 0.43968206 0.43968206
0.45610882 0.45610882 0.45610882
0.47520424 0.47520424 0.47520424
0.49643981 0.49643981 0.49643981
0.52120027 0.52120027 0.52120027
0.54964791 0.54964791 0.54964791
0.58447882 0.58447882 0.58447882
0.62605854 0.62605854 0.62605854
0.66915338 0.66915338 0.66915338
0.76095176 0.76095176 0.76095176
0.28980400 0.28980400 0.28980400
0.29268821 0.29268821 0.29268821
0.29545283 0.29545283 0.29545283
0.29833395 0.29833395 0.29833395
0.30196255 0.30196255 0.30196255
0.30628546 0.30628546 0.30628546
0.31106088 0.31106088 0.31106088
0.31645760 0.31645760 0.31645760
0.32262281 0.32262281 0.32262281
0.32904100 0.32904100 0.32904100
0.33566195 0.33566195 0.33566195
0.34303757 0.34303757 0.34303757
0.35059749 0.35059749 0.35059749
0.35842498 0.35842498 0.35842498
0.36670761 0.36670761 0.36670761
0.37541320 0.37541320 0.37541320
0.38419308 0.38419308 0.38419308
0.39312480 0.39312480 0.39312480
0.40280098 0.40280098 0.40280098
0.41263254 0.41263254 0.41263254
0.42238458 0.42238458 0.42238458
0.43521584 0.43521584 0.43521584
0.44806145 0.44806145 0.44806145
0.46206862 0.46206862 0.46206862
0.47703503 0.47703503 0.47703503
0.49420059 0.49420059 0.49420059
0.51452669 0.51452669 0.51452669
0.53813695 0.53813695 0.53813695
0.56513591 0.56513591 0.56513591
0.59816846 0.59816846 0.59816846
0.63717859 0.63717859 0.63717859
0.67836981 0.67836981 0.67836981
0.76455953 0.76455953 0.76455953
0.32603090 0.32603090 0.32603090
0.32858317 0.32858317 0.32858317
0.33105152 0.33105152 0.33105152
0.33354670 0.33354670 0.33354670
0.33679212 0.33679212 0.33679212
0.34064855 0.34064855 0.34064855
0.34483392 0.34483392 0.34483392
0.34914235 0.34914235 0.34914235
0.35470525 0.35470525 0.35470525
0.36076800 0.36076800 0.36076800
0.36690336 0.36690336 0.36690336
0.37340067 0.37340067 0.37340067
0.38064595 0.38064595 0.38064595
0.38806404 0.38806404 0.38806404
0.39552167 0.39552167 0.39552167
0.40346862 0.40346862 0.40346862
0.41183592 0.41183592 0.41183592
0.42031336 0.42031336 0.42031336
0.42883806 0.42883806 0.42883806
0.43785832 0.43785832 0.43785832
0.44713265 0.44713265 0.44713265
0.45924799 0.45924799 0.45924799
0.47073031 0.47073031 0.47073031
0.48376879 0.48376879 0.48376879
0.49824222 0.49824222 0.49824222
0.51451896 0.51451896 0.51451896
0.53300638 0.53300638 0.53300638
0.55548402 0.55548402 0.55548402
0.58065763 0.58065763 0.58065763
0.61173223 0.61173223 0.61173223
0.64924524 0.64924524 0.64924524
0.68761702 0.68761702 0.68761702
0.76824325 0.76824325 0.76824325
0.36084279 0.36084279 0.36084279
0.36319257 0.36319257 0.36319257
0.36547047 0.36547047 0.36547047
0.36775740 0.36775740 0.36775740
0.37067732 0.37067732 0.37067732
0.37412332 0.37412332 0.37412332
0.37790435 0.37790435 0.37790435
0.38200976 0.38200976 0.38200976
0.38665383 0.38665383 0.38665383
0.39205344 0.39205344 0.39205344
0.39779548 0.39779548 0.39779548
0.40374120 0.40374120 0.40374120
0.41008777 0.41008777 0.41008777
0.41697177 0.41697177 0.41697177
0.42405634 0.42405634 0.42405634
0.43123395 0.43123395 0.43123395
0.43893030 0.43893030 0.43893030
0.44699413 0.44699413 0.44699413
0.45510215 0.45510215 0.45510215
0.46332038 0.46332038 0.46332038
0.47178807 0.47178807 0.47178807
0.48338346 0.48338346 0.48338346
0.49438216 0.49438216 0.49438216
0.50636072 0.50636072 0.50636072
0.51988951 0.51988951 0.51988951
0.53509615 0.53509615 0.53509615
0.55186341 0.55186341 0.55186341
0.57247044 0.57247044 0.57247044
0.59644921 0.59644921 0.59644921
0.62588850 0.62588850 0.62588850
0.66087237 0.66087237 0.66087237
0.69729902 0.69729902 0.69729902
0.77199864 0.77199864 0.77199864
0.39572865 0.39572865 0.39572865
0.39786953 0.39786953 0.39786953
0.39994830 0.39994830 0.39994830
0.40192455 0.40192455 0.40192455
0.40436516 0.40436516 0.40436516
0.40754179 0.40754179 0.40754179
0.41101618 0.41101618 0.41101618
0.41480101 0.41480101 0.41480101
0.41898090 0.41898090 0.41898090
0.42371783 0.42371783 0.42371783
0.42903255 0.42903255 0.42903255
0.43464236 0.43464236 0.43464236
0.44006334 0.44006334 0.44006334
0.44615932 0.44615932 0.44615932
0.45273560 0.45273560 0.45273560
0.45946675 0.45946675 0.45946675
0.46629592 0.46629592 0.46629592
0.47352598 0.47352598 0.47352598
0.48113314 0.48113314 0.48113314
0.48892387 0.48892387 0.48892387
0.49670588 0.49670588 0.49670588
0.50713530 0.50713530 0.50713530
0.51749577 0.51749577 0.51749577
0.52870069 0.52870069 0.52870069
0.54085863 0.54085863 0.54085863
0.55490152 0.55490152 0.55490152
0.57080917 0.57080917 0.57080917
0.58967715 0.58967715 0.58967715
0.61288466 0.61288466 0.61288466
0.64036575 0.64036575 0.64036575
0.67235593 0.67235593 0.67235593
0.70709924 0.70709924 0.70709924
0.77577160 0.77577160 0.77577160
0.42948390 0.42948390 0.42948390
0.43128683 0.43128683 0.43128683
0.43304266 0.43304266 0.43304266
0.43481388 0.43481388 0.43481388
0.43689319 0.43689319 0.43689319
0.43973462 0.43973462 0.43973462
0.44290073 0.44290073 0.44290073
0.44643122 0.44643122 0.44643122
0.45027224 0.45027224 0.45027224
0.45434331 0.45434331 0.45434331
0.45913379 0.45913379 0.45913379
0.46406719 0.46406719 0.46406719
0.46910321 0.46910321 0.46910321
0.47434658 0.47434658 0.47434658
0.48030651 0.48030651 0.48030651
0.48663877 0.48663877 0.48663877
0.49308131 0.49308131 0.49308131
0.49956186 0.49956186 0.49956186
0.50641843 0.50641843 0.50641843
0.51366827 0.51366827 0.51366827
0.52087810 0.52087810 0.52087810
0.53037361 0.53037361 0.53037361
0.53956343 0.53956343 0.53956343
0.55017950 0.55017950 0.55017950
0.56179731 0.56179731 0.56179731
0.57478901 0.57478901 0.57478901
0.59008331 0.59008331 0.59008331
0.60786896 0.60786896 0.60786896
0.62893342 0.62893342 0.62893342
0.65438462 0.65438462 0.65438462
0.68395923 0.68395923 0.68395923
0.71689723 0.71689723 0.71689723
0.77956992 0.77956992 0.77956992
0.46140274 0.46140274 0.46140274
0.46303503 0.46303503 0.46303503
0.46462933 0.46462933 0.46462933
0.46624206 0.46624206 0.46624206
0.46814071 0.46814071 0.46814071
0.47057584 0.47057584 0.47057584
0.47353488 0.47353488 0.47353488
0.47677377 0.47677377 0.47677377
0.48030355 0.48030355 0.48030355
0.48405380 0.48405380 0.48405380
0.48814021 0.48814021 0.48814021
0.49272631 0.49272631 0.49272631
0.49744618 0.49744618 0.49744618
0.50233179 0.50233179 0.50233179
0.50753910 0.50753910 0.50753910
0.51343720 0.51343720 0.51343720
0.51947038 0.51947038 0.51947038
0.52553479 0.52553479 0.52553479
0.53156400 0.53156400 0.53156400
0.53796073 0.53796073 0.53796073
0.54467303 0.54467303 0.54467303
0.55355812 0.55355812 0.55355812
0.56184892 0.56184892 0.56184892
0.57135412 0.57135412 0.57135412
0.58240347 0.58240347 0.58240347
0.59474669 0.59474669 0.59474669
0.60867699 0.60867699 0.60867699
0.62538811 0.62538811 0.62538811
0.64475780 0.64475780 0.64475780
0.66801932 0.66801932 0.66801932
0.69641916 0.69641916 0.69641916
0.72695436 0.72695436 0.72695436
0.78339392 0.78339392 0.78339392
0.49245771 0.49245771 0.49245771
0.49391901 0.49391901 0.49391901
0.49536652 0.49536652 0.49536652
0.49688868 0.49688868 0.49688868
0.49868389 0.49868389 0.49868389
0.50080371 0.50080371 0.50080371
0.50348173 0.50348173 0.50348173
0.50642652 0.50642652 0.50642652
0.50964406 0.50964406 0.50964406
0.51300055 0.51300055 0.51300055
0.51653939 0.51653939 0.51653939
0.52061468 0.52061468 0.52061468
0.52492309 0.52492309 0.52492309
0.52951556 0.52951556 0.52951556
0.53439723 0.53439723 0.53439723
0.53942819 0.53942819 0.53942819
0.54495421 0.54495421 0.54495421
0.55054657 0.55054657 0.55054657
0.55611034 0.55611034 0.55611034
0.56175525 0.56175525 0.56175525
0.56768108 0.56768108 0.56768108
0.57594922 0.57594922 0.57594922
0.58376260 0.58376260 0.58376260
0.59242001 0.59242001 0.59242001
0.60236834 0.60236834 0.60236834
0.61396243 0.61396243 0.61396243
0.62700835 0.62700835 0.62700835
0.64220810 0.64220810 0.64220810
0.66034800 0.66034800 0.66034800
0.68192539 0.68192539 0.68192539
0.70839843 0.70839843 0.70839843
0.73713591 0.73713591 0.73713591
0.78777113 0.78777113 0.78777113
0.52159575 0.52159575 0.52159575
0.52295363 0.52295363 0.52295363
0.52428410 0.52428410 0.52428410
0.52563394 0.52563394 0.52563394
0.52722866 0.52722866 0.52722866
0.52909951 0.52909951 0.52909951
0.53142135 0.53142135 0.53142135
0.53405345 0.53405345 0.53405345
0.53688566 0.53688566 0.53688566
0.53990939 0.53990939 0.53990939
0.54311727 0.54311727 0.54311727
0.54654567 0.54654567 0.54654567
0.55058482 0.55058482 0.55058482
0.55499755 0.55499755 0.55499755
0.55951078 0.55951078 0.55951078
0.56412663 0.56412663 0.56412663
0.56896895 0.56896895 0.56896895
0.57413932 0.57413932 0.57413932
0.57936046 0.57936046 0.57936046
0.58465636 0.58465636 0.58465636
0.58992113 0.58992113 0.58992113
0.59724833 0.59724833 0.59724833
0.60452614 0.60452614 0.60452614
0.61263434 0.61263434 0.61263434
0.62154064 0.62154064 0.62154064
0.63218960 0.63218960 0.63218960
0.64436031 0.64436031 0.64436031
0.65830356 0.65830356 0.65830356
0.67528655 0.67528655 0.67528655
0.69536044 0.69536044 0.69536044
0.72000924 0.72000924 0.72000924
0.74749180 0.74749180 0.74749180
0.79215823 0.79215823 0.79215823
0.55701981 0.55701981 0.55701981
0.55819053 0.55819053 0.55819053
0.55934136 0.55934136 0.55934136
0.56051263 0.56051263 0.56051263
0.56190041 0.56190041 0.56190041
0.56360472 0.56360472 0.56360472
0.56559936 0.56559936 0.56559936
0.56788592 0.56788592 0.56788592
0.57040313 0.57040313 0.57040313
0.57311379 0.57311379 0.57311379
0.57600126 0.57600126 0.57600126
0.57913023 0.57913023 0.57913023
0.58261224 0.58261224 0.58261224
0.58660761 0.58660761 0.58660761
0.59069637 0.59069637 0.59069637
0.59488188 0.59488188 0.59488188
0.59916104 0.59916104 0.59916104
0.60357652 0.60357652 0.60357652
0.60831694 0.60831694 0.60831694
0.61313253 0.61313253 0.61313253
0.61791617 0.61791617 0.61791617
0.62409788 0.62409788 0.62409788
0.63036419 0.63036419 0.63036419
0.63770075 0.63770075 0.63770075
0.64573912 0.64573912 0.64573912
0.65472749 0.65472749 0.65472749
