public/luts/builtin/fuji_classic_chrome.cube
TITLE "Rec709800_sRGB-LA:FLog2_to_CLASSICCHROME_LA:FLog2_to_CLASSICCHROME"
LUT_3D_SIZE 5
# Rec709 (800%)/sRGB -> LA - :FLog2_to_CLASSIC-CHROME/LA - :FLog2_to_CLASSIC-CHROME, CineEI Shift 0.00, Black Level -0.01% IRE, Input 100% -> Output 100% - Created with LUTCalc v4.09 by Ben Turley February 2025
0.00000000 0.00000000 0.00000000
0.10759452 0.00146312 0.00240865
0.46092654 0.02468987 0.01705623
0.79933640 0.12617330 0.07416387
0.95262804 0.66211033 0.43248287
0.01543761 0.15480734 0.00000378
0.19087735 0.16714912 0.00000000
0.50219725 0.20925249 0.01727731
0.78063773 0.30433408 0.07502155
0.95244373 0.68366348 0.44685563
0.15858893 0.52464790 0.05041473
0.32444818 0.51873739 0.05718656
0.56223440 0.52705333 0.08015282
0.77795432 0.56113608 0.13214710
0.95345400 0.72432538 0.47483958
0.38924487 0.77506284 0.20653098
0.48764754 0.77189835 0.21167522
0.63994225 0.76946927 0.22914025
0.79492708 0.77202212 0.27176554
0.95684084 0.78631415 0.52024016
0.82630123 0.97674188 0.71925762
0.82997971 0.97696232 0.71933776
0.83814917 0.97746058 0.71953712
0.85285144 0.97831894 0.71990944
0.98128044 0.98719843 0.71136182
0.00000876 0.00258771 0.06331279
0.16139769 0.00669298 0.09118221
0.56966691 0.04203288 0.16699369
0.83168278 0.15351034 0.25481258
0.95331677 0.66781344 0.50153687
0.00389438 0.21744049 0.23358347
0.21524436 0.21524436 0.21524436
0.54760717 0.24876971 0.22330601
0.80512004 0.33199098 0.27980108
0.95335672 0.68788110 0.51188440
0.12801900 0.55202679 0.32087869
0.31844770 0.54523128 0.30934703
0.57313345 0.54809414 0.30986687
0.78828421 0.57414752 0.33689404
0.95427965 0.72658928 0.53442116
0.36863723 0.77792523 0.40877538
0.47524159 0.77414855 0.40853294
0.63776392 0.77181168 0.41331995
0.79750796 0.77497322 0.43313241
0.95777074 0.78690832 0.57099269
0.82516413 0.97687596 0.73043835
0.82888083 0.97709352 0.73050112
0.83711172 0.97758455 0.73065892
0.85185292 0.97844938 0.73101584
0.98172349 0.98827512 0.72202580
0.00000000 0.01131519 0.21787830
0.23720274 0.02543228 0.32921888
0.64541221 0.08813559 0.45437412
0.86207757 0.20757670 0.51943532
0.95375370 0.68088227 0.60567435
0.00500474 0.30216448 0.56638468
0.21557687 0.29360016 0.53430476
0.58596953 0.31613597 0.52232921
0.82662546 0.38010194 0.54267781
0.95419585 0.69870726 0.61288650
0.08177334 0.59299722 0.61294926
0.28942028 0.58407296 0.59525618
0.58036257 0.58036257 0.58036257
0.79704741 0.60021910 0.57971070
0.95584696 0.73397002 0.62620231
0.31947701 0.78730801 0.64140263
0.44325533 0.78317295 0.63688403
0.62876281 0.78050375 0.63154549
0.79935784 0.78357094 0.63266711
0.95866086 0.78942186 0.65038170
0.82244717 0.97688589 0.75559824
0.82610000 0.97713110 0.75573201
0.83416542 0.97768129 0.75605326
0.84904016 0.97854742 0.75638019
0.98281980 0.99042443 0.74449748
0.02181020 0.05380177 0.55185489
0.33727525 0.09407222 0.66868543
0.69260393 0.17393191 0.71321463
0.88252027 0.29101668 0.73584333
0.95606951 0.70362586 0.71031204
0.00996767 0.39126359 0.80059529
0.19489207 0.38212687 0.77553738
0.60785551 0.39752147 0.75589588
0.84117558 0.44634874 0.75227251
0.95652561 0.71821696 0.71467312
0.05276044 0.63586235 0.81144513
0.20922869 0.62871983 0.79921764
0.56807924 0.62750360 0.78313883
0.80199273 0.64026172 0.77245030
0.95842770 0.74713004 0.72327845
0.21128043 0.79632744 0.80794617
0.36293283 0.79369129 0.80234949
0.59550680 0.79158523 0.79628656
0.79284126 0.79284126 0.79284126
0.96162557 0.79510994 0.73589181
0.81742429 0.97694185 0.79339375
0.82099184 0.97722493 0.79356776
0.82905621 0.97785325 0.79397770
0.84389256 0.97881463 0.79441403
0.98403568 0.99065984 0.78437452
0.46356504 0.57852140 0.96245935
0.53772675 0.58803500 0.96205361
0.65426043 0.60545187 0.96093968
0.78090317 0.62958211 0.95930550
0.96196570 0.74029624 0.95792838
0.35661567 0.61183908 0.96215186
0.44289061 0.61984926 0.96166873
0.59460011 0.63609636 0.96047782
0.73959376 0.65825346 0.95860839
0.96276459 0.75050173 0.95870531
0.21125905 0.67176497 0.96110035
0.32557045 0.67535552 0.96083443
0.49904954 0.68374317 0.95841132
0.68031676 0.70228763 0.95747287
0.96421458 0.77293999 0.96005902
0.17053340 0.74367427 0.95827823
0.24659161 0.74426602 0.95763659
0.40833970 0.74764182 0.95658956
0.61925616 0.75702368 0.95564553
0.96709129 0.80610979 0.96287711
0.63888889 0.96071009 0.95553629
0.64844605 0.96116086 0.95620300
0.67015872 0.96222213 0.95772233
0.70791953 0.96389528 0.96043349
0.97841135 0.97841135 0.97841135
