public/luts/builtin/fuji_classic_neg.cube
TITLE "Rec709800_sRGB-LA:FLog2_to_CLASSICNeg._LA:FLog2_to_CLASSICNeg."
LUT_3D_SIZE 5
# Rec709 (800%)/sRGB -> LA - :FLog2_to_CLASSIC-Neg./LA - :FLog2_to_CLASSIC-Neg., CineEI Shift 0.00, Black Level -0.01% IRE, Input 100% -> Output 100% - Created with LUTCalc v4.09 by Ben Turley February 2025
0.00000000 0.00000000 0.00000000
0.10628991 0.00656751 0.00003664
0.40988881 0.04161448 0.00000541
0.81323458 0.13063427 0.00000000
0.96266414 0.62871509 0.33772972
0.01065607 0.15548136 0.04166979
0.14108246 0.16469922 0.02939410
0.42881605 0.19825110 0.00827062
0.80024978 0.26430993 0.00995847
0.96473520 0.65968525 0.36143494
0.08756293 0.48243264 0.18852946
0.20671902 0.47977058 0.16764846
0.48987215 0.49632902 0.13589791
0.80992648 0.53731422 0.12454516
0.96796536 0.71921989 0.40541956
0.21641392 0.78548655 0.40182101
0.32745636 0.78735244 0.38105533
0.57464928 0.79459306 0.34165425
0.82676316 0.80313678 0.31732108
0.97271402 0.79652408 0.47987165
0.82258519 0.98661479 0.82386993
0.82801937 0.98690388 0.82261993
0.83979007 0.98756616 0.81966719
0.85923878 0.98880840 0.81445595
0.97337805 0.99249180 0.76531822
0.00954343 0.01293665 0.07215697
0.15868032 0.02393920 0.07126791
0.56393697 0.07874959 0.07204497
0.85458155 0.15998966 0.10078608
0.96716488 0.64046962 0.41679353
0.03418360 0.21482678 0.24805653
0.19224403 0.21425011 0.20465325
0.52707630 0.24256981 0.16546911
0.84050449 0.30237098 0.16558619
0.96859315 0.66870310 0.43636288
0.12209948 0.53651356 0.40833092
0.25204676 0.53018871 0.37003281
0.55526817 0.53896684 0.31655833
0.83864361 0.56657700 0.29160963
0.97074211 0.72449940 0.47427190
0.24383683 0.79455028 0.57697059
0.35933877 0.79647569 0.54920115
0.60910694 0.80285382 0.50142670
0.84171194 0.80888866 0.46168533
0.97514732 0.79810691 0.53606106
0.82313346 0.98686019 0.83394483
0.82853840 0.98714646 0.83278269
0.84024222 0.98779777 0.83003111
0.85939521 0.98894921 0.82448575
0.97433753 0.99264698 0.77515626
0.04937095 0.05132562 0.18925559
0.25259427 0.08350350 0.24737294
0.70087472 0.15138597 0.30937879
0.89677086 0.22179110 0.36767257
0.97222403 0.66636469 0.54536929
0.10097465 0.31876712 0.58200221
0.28171388 0.30993281 0.51514820
0.65340533 0.33152945 0.45070599
0.88303863 0.37376480 0.44264753
0.97342601 0.69094373 0.55950421
0.17880145 0.61659214 0.72316476
0.32491504 0.60782836 0.67435931
0.64199875 0.60872524 0.60058390
0.87122383 0.62083161 0.55607112
0.97576676 0.73756406 0.58767210
0.28822027 0.81329995 0.79786458
0.40952085 0.81518741 0.76971518
0.65604605 0.82074922 0.71724963
0.86347186 0.82237095 0.66648565
0.97882328 0.80261618 0.63167353
0.82394948 0.98672467 0.85261235
0.82923155 0.98708387 0.85153705
0.84067858 0.98789647 0.84898303
0.85965254 0.98907676 0.84429403
0.97625401 0.99298477 0.79509909
0.16720197 0.13498481 0.49275061
0.46796686 0.19459012 0.59863235
0.81521190 0.26065674 0.63155807
0.93519993 0.32649103 0.65832924
0.97824134 0.70769191 0.68517133
0.20765230 0.47074139 0.86840440
0.43047941 0.46074940 0.80864828
0.76800489 0.46795192 0.74331996
0.92091022 0.48533812 0.71616821
0.97902978 0.72621603 0.69454694
0.25940087 0.69994770 0.93306673
0.42532449 0.69553343 0.89588189
0.72649886 0.69500061 0.82975085
0.90184271 0.69164931 0.78240765
0.98036820 0.76164925 0.71145334
0.34905895 0.83516169 0.94699884
0.47257942 0.83702548 0.92653986
0.70406027 0.84099621 0.88235615
0.88099021 0.84097972 0.83537767
0.98266125 0.81297166 0.73658246
0.82592735 0.98677723 0.88199495
0.83109869 0.98710145 0.88081084
0.84228946 0.98783750 0.87797662
0.86072102 0.98921878 0.87368508
0.97846269 0.99324627 0.82791346
0.84835873 0.74131764 0.97464358
0.86982677 0.74592801 0.97207287
0.90468356 0.75328628 0.96872815
0.94299685 0.76237065 0.96454574
0.99059578 0.79921445 0.95077552
0.81055483 0.76320383 0.98332772
0.84122686 0.76784745 0.98027790
0.88443188 0.77599353 0.97516855
0.93132377 0.78404143 0.97034774
0.99088146 0.80729710 0.95250240
0.74071287 0.79943401 0.99791897
0.78263713 0.80259124 0.99383380
0.84708070 0.80790349 0.98635144
0.90592180 0.81501897 0.97941292
0.99130745 0.82468759 0.95596964
0.67819741 0.84371623 0.99991644
0.72326619 0.84587407 0.99987931
0.79926421 0.84962178 0.99905218
0.87710223 0.85414744 0.98994708
0.99252792 0.85257424 0.96129967
0.78512914 0.98223283 0.99964803
0.79245328 0.98264329 0.99962341
0.80869500 0.98364702 0.99956726
0.83733365 0.98505364 0.99949295
0.99119437 0.98946390 0.98790834
