public/luts/builtin/fuji_classic_chrome.cube
TITLE "Rec709800_sRGB-LA:FLog2_to_CLASSICCHROME_LA:FLog2_to_CLASSICCHROME"
LUT_3D_SIZE 33
# Rec709 (800%)/sRGB -> LA - :FLog2_to_CLASSIC-CHROME/LA - :FLog2_to_CLASSIC-CHROME, CineEI Shift 0.00, Black Level -0.01% IRE, Input 100% -> Output 100% - Created with LUTCalc v4.09 by Ben Turley February 2025
0.00000000 0.00000000 0.00000000
0.00000000 0.00000000 0.00000000
0.00000000 0.00001098 0.00000996
0.01107662 0.00000000 0.00000000
0.02409263 0.00000000 0.00000000
0.04225096 0.00000000 0.00072813
0.06167748 0.00106118 0.00112315
0.08283866 0.00124342 0.00204516
0.10759452 0.00146312 0.00240865
0.13670308 0.00236022 0.00325053
0.17194925 0.00424788 0.00436381
0.21189176 0.00612718 0.00590666
0.25593112 0.00813758 0.00742434
0.30580120 0.01098561 0.00955035
0.35323131 0.01451902 0.01173807
0.40732613 0.01896659 0.01434821
0.46092654 0.02468987 0.01705623
0.51698558 0.03169793 0.02147399
0.56595238 0.03978444 0.02628407
0.60993952 0.04842330 0.03171351
0.65067290 0.05897915 0.03742510
0.69351596 0.07339857 0.04547499
0.72960738 0.08826928 0.05328243
0.76628591 0.10567207 0.06237170
0.79933640 0.12617330 0.07416387
0.83528854 0.15278492 0.08810775
0.86354039 0.18401746 0.10434972
0.90135578 0.22278857 0.12569182
0.93093955 0.27352518 0.15542416
0.95944962 0.33581162 0.19811718
0.95902385 0.40700423 0.24934994
0.95744420 0.47615891 0.28341595
0.95262804 0.66211033 0.43248287
0.00000000 0.00000000 0.00000000
0.00000297 0.00001052 0.00000000
0.00483057 0.00094346 0.00000875
0.01421981 0.00000000 0.00000000
0.02712322 0.00125076 0.00001620
0.04535144 0.00339977 0.00000102
0.06697759 0.00443794 0.00000000
0.09267162 0.00571641 0.00093669
0.12155238 0.00739168 0.00188654
0.15510691 0.00951607 0.00279220
0.19006272 0.01225362 0.00385688
0.23096318 0.01490781 0.00559414
0.27674893 0.01835261 0.00759639
0.32651919 0.02255130 0.00989946
0.37431990 0.02780119 0.01242778
0.42626453 0.03389229 0.01487958
0.47551284 0.04080169 0.01737175
0.52627792 0.04837359 0.02102887
0.57262112 0.05673582 0.02548657
0.61073833 0.06569094 0.03052061
0.64692877 0.07599519 0.03643898
0.68911402 0.09004153 0.04433121
0.72500953 0.10406841 0.05237491
0.76133984 0.12142115 0.06210787
0.79699846 0.14349662 0.07366768
0.83182019 0.16952650 0.08744684
0.86082994 0.19989052 0.10366197
0.89888705 0.23839485 0.12494272
0.92877168 0.28782875 0.15454731
0.95923997 0.34722606 0.19782521
0.95877808 0.41707683 0.25016537
0.95729651 0.48324789 0.28525019
0.95261169 0.66404848 0.43374121
0.00001104 0.00753536 0.00000000
0.00000000 0.00829674 0.00000000
0.00667005 0.00862539 0.00000390
0.01767037 0.00968509 0.00001077
0.03257311 0.01060243 0.00000649
0.05282454 0.01199031 0.00003163
0.07500772 0.01337915 0.00000000
0.10037678 0.01505714 0.00159905
0.13103213 0.01689786 0.00175997
0.16650125 0.01942108 0.00324800
0.20366095 0.02302320 0.00464249
0.24641023 0.02757784 0.00656910
0.29309012 0.03275567 0.00844750
0.34075519 0.03787902 0.01069226
0.38788274 0.04342755 0.01293463
0.43901984 0.04996238 0.01519786
0.48447142 0.05677612 0.01733135
0.52979180 0.06480522 0.02083245
0.57110409 0.07347890 0.02511728
0.60953835 0.08294351 0.03017451
0.64525084 0.09293094 0.03610060
0.68587438 0.10669612 0.04392482
0.72158481 0.12110082 0.05196263
0.75813291 0.13929944 0.06174093
0.79392795 0.16079576 0.07335938
0.82823990 0.18546107 0.08707428
0.85844985 0.21510733 0.10312515
0.89610441 0.25371303 0.12420117
0.92632039 0.30141508 0.15398973
0.95875707 0.35818139 0.19745199
0.95854007 0.42686012 0.25099853
0.95717528 0.49019952 0.28708088
0.95259546 0.66596709 0.43499394
0.00000962 0.01637466 0.00000000
0.00241666 0.01747316 0.00000000
0.01059041 0.01785980 0.00001071
0.02225176 0.02017685 0.00000184
0.03860121 0.02205617 0.00001145
0.05768951 0.02383872 0.00002825
0.08127663 0.02553030 0.00001592
0.10790269 0.02773438 0.00000000
0.13978813 0.03018734 0.00165706
0.17584472 0.03371662 0.00333131
0.21470865 0.03770424 0.00513616
0.25836939 0.04230590 0.00670154
0.30520185 0.04754807 0.00846804
0.35091599 0.05302194 0.01064564
0.39613936 0.05897976 0.01286037
0.44289265 0.06579541 0.01480612
0.48750306 0.07312251 0.01680430
0.53213060 0.08158061 0.02030706
0.57118417 0.09015149 0.02467167
0.60762158 0.09933568 0.02985578
0.64195307 0.10963635 0.03574560
0.68266551 0.12400812 0.04368066
0.71883526 0.13943005 0.05174799
0.75513049 0.15757857 0.06147738
0.79227754 0.17802878 0.07313301
0.82719937 0.20222757 0.08686418
0.85586383 0.23119726 0.10296118
0.89376392 0.26904382 0.12374832
0.92587613 0.31431737 0.15373765
0.95820075 0.36903603 0.19702115
0.95827823 0.43655110 0.25180735
0.95706471 0.49724861 0.28896229
0.95257879 0.66793270 0.43628453
0.00000000 0.03242534 0.00002851
0.00484278 0.03360871 0.00000000
0.01466275 0.03486088 0.00002745
0.02755811 0.03697457 0.00002475
0.04496753 0.03832417 0.00000664
0.06494988 0.04010627 0.00000817
0.08866656 0.04222385 0.00003162
0.11610479 0.04545652 0.00000000
0.15015784 0.04904322 0.00169276
0.18636922 0.05240450 0.00326423
0.22626882 0.05622002 0.00493926
0.26961495 0.06090214 0.00640174
0.31466282 0.06584870 0.00825820
0.35817027 0.07099591 0.01051876
0.40237850 0.07757925 0.01262255
0.44693304 0.08486454 0.01462293
0.48921372 0.09231762 0.01674593
0.53155534 0.10030390 0.02007650
0.57007487 0.10907931 0.02421667
0.60678388 0.11891023 0.02931997
0.64093300 0.12981875 0.03520582
0.68070205 0.14529503 0.04338405
0.71613674 0.16054158 0.05156125
0.75205279 0.17782370 0.06133815
0.79072937 0.19785579 0.07297528
0.82392704 0.22151727 0.08707920
0.85357462 0.25044544 0.10296143
0.89216454 0.28695403 0.12370710
0.92387240 0.32942085 0.15386128
0.95756158 0.38169948 0.19657797
0.95796484 0.44742676 0.25248316
0.95689947 0.50591601 0.29168718
0.95255884 0.67027760 0.43783346
0.00051088 0.05415256 0.00001388
0.00841628 0.05552073 0.00000000
0.01916999 0.05682144 0.00000000
0.03339534 0.05817452 0.00000341
0.05161065 0.05974800 0.00001081
0.07262259 0.06150565 0.00002055
0.09753325 0.06382527 0.00000000
0.12703992 0.06733258 0.00073800
0.16163547 0.07140375 0.00225921
0.19780946 0.07539586 0.00336448
0.23745091 0.07934773 0.00463420
0.27966108 0.08366106 0.00601170
0.32272663 0.08840072 0.00814066
0.36409875 0.09360479 0.01024307
0.40667759 0.09981872 0.01240830
0.44951055 0.10679074 0.01458512
0.49129173 0.11442067 0.01695846
0.53290226 0.12275369 0.02029473
0.57032465 0.13219102 0.02405595
0.60617191 0.14286141 0.02913395
0.63940174 0.15408270 0.03526137
0.67896113 0.16948310 0.04316927
0.71484256 0.18431596 0.05128519
0.74999991 0.20114845 0.06110278
0.78714997 0.22051292 0.07307799
0.82008136 0.24395051 0.08727050
0.85114671 0.27226565 0.10301611
0.88889253 0.30655282 0.12322537
0.92130654 0.34658028 0.15471776
0.95612972 0.39652240 0.19622872
0.95762125 0.45979214 0.25350825
0.95669888 0.51603713 0.29500348
0.95253521 0.67304584 0.43967470
0.00346312 0.08201910 0.00003164
0.01301870 0.08289765 0.00000241
0.02466885 0.08419190 0.00000000
0.04049966 0.08568150 0.00001110
0.05924848 0.08735431 0.00000313
0.08122504 0.08929599 0.00000310
0.10695254 0.09202010 0.00003053
0.13692177 0.09526367 0.00000000
0.17203854 0.09814489 0.00107985
0.20855372 0.10151606 0.00329614
0.24766106 0.10514664 0.00433200
0.28891661 0.10935743 0.00557792
0.32992547 0.11430483 0.00766393
0.36979941 0.11969711 0.00988115
0.41115391 0.12602159 0.01223408
0.45257901 0.13367530 0.01441645
0.49370125 0.14194784 0.01685009
0.53431065 0.15062326 0.02004892
0.57115956 0.15995540 0.02383664
0.60700273 0.17050086 0.02903296
0.63941872 0.18143211 0.03497469
0.67762458 0.19626418 0.04299795
0.71179092 0.21015801 0.05118440
0.74682741 0.22665708 0.06116164
0.78540466 0.24613530 0.07311165
0.81882999 0.26909913 0.08684261
0.84817900 0.29571550 0.10258620
0.88543787 0.32725545 0.12311726
0.91910243 0.36549987 0.15621367
0.95452271 0.41308123 0.19648440
0.95744967 0.47357357 0.25419969
0.95645791 0.52739405 0.29921346
0.95250808 0.67621081 0.44179607
0.00874134 0.11369450 0.00002117
0.01909014 0.11451505 0.00002613
0.03352353 0.11578098 0.00000289
0.04828842 0.11679704 0.00000987
0.06707602 0.11857086 0.00000000
0.09164451 0.12028121 0.00000455
0.11715114 0.12319328 0.00000343
0.14698525 0.12600926 0.00003106
0.18034492 0.12920164 0.00000000
0.21633041 0.13222227 0.00020467
0.25534522 0.13595419 0.00449598
0.29641920 0.14109192 0.00581266
0.33657233 0.14617013 0.00744045
0.37615609 0.15201043 0.00938892
0.41669989 0.15872549 0.01166901
0.45658765 0.16594080 0.01433177
0.49710978 0.17388761 0.01714761
0.53670212 0.18246703 0.02038215
0.57265955 0.19120865 0.02455428
0.60720156 0.20087825 0.02948772
0.63878035 0.21086993 0.03525265
0.67702849 0.22543455 0.04321434
0.71102759 0.23931546 0.05134904
0.74482794 0.25551355 0.06126410
0.78208395 0.27372137 0.07307024
0.81542786 0.29540476 0.08641757
0.84636823 0.32026838 0.10204854
0.88410083 0.34976989 0.12479275
0.91830119 0.38512169 0.15749768
0.95292302 0.43120992 0.19855648
0.95726662 0.48830492 0.25505661
0.95615201 0.53969856 0.30388924
0.95247768 0.67974133 0.44418206
0.01543761 0.15480734 0.00000378
0.02941587 0.15526769 0.00000000
0.04325357 0.15612313 0.00003164
0.05840673 0.15709187 0.00000486
0.07763145 0.15773194 0.00000359
0.10110310 0.15949864 0.00001767
0.12871397 0.16123219 0.00003023
0.15839155 0.16401420 0.00000185
0.19087735 0.16714912 0.00000000
0.22633590 0.16990893 0.00000000
0.26536997 0.17347569 0.00432592
0.30565202 0.17764634 0.00581758
0.34436045 0.18286078 0.00720383
0.38343438 0.18857147 0.00920598
0.42320016 0.19497926 0.01166296
0.46233554 0.20180226 0.01415721
0.50219725 0.20925249 0.01727731
0.54005908 0.21696020 0.02131440
0.57522626 0.22542731 0.02589560
0.60894916 0.23512808 0.03064960
0.63967032 0.24511169 0.03609746
0.67655869 0.25845602 0.04385495
0.70899187 0.27165636 0.05206623
0.74234763 0.28736680 0.06365670
0.78063773 0.30433408 0.07502155
0.81304125 0.32305860 0.08669687
0.84412215 0.34524586 0.10209277
0.88059310 0.37389255 0.12707861
0.91617003 0.40776943 0.15957405
0.95176241 0.45050042 0.20091371
0.95706368 0.50405337 0.25618595
0.95568728 0.55317759 0.30851861
0.95244373 0.68366348 0.44685563
0.02505204 0.19941389 0.00000000
0.04190932 0.19915570 0.00000000
0.05593408 0.19985829 0.00000000
0.07156955 0.19986186 0.00000000
0.09132325 0.20020705 0.00000000
0.11387179 0.20154864 0.00000000
0.14090950 0.20258940 0.00000000
0.17180313 0.20460340 0.00000000
0.20420149 0.20700411 0.00004871
0.23969701 0.20959199 0.00106933
0.27800724 0.21300495 0.00408828
0.31655725 0.21692121 0.00560970
0.35369340 0.22147567 0.00740797
0.39200664 0.22739610 0.00965468
0.43086566 0.23384781 0.01251264
0.46932759 0.24035004 0.01551745
0.50774692 0.24735402 0.01850469
0.54426254 0.25525104 0.02309240
0.57839546 0.26344152 0.02798317
0.61081684 0.27189531 0.03291726
0.64084021 0.28106386 0.03816485
0.67726917 0.29377632 0.04612684
0.70884179 0.30583073 0.05527376
0.74059715 0.31928685 0.06630477
0.77863476 0.33433123 0.07715770
0.81052334 0.35156425 0.08891901
0.84173409 0.37257902 0.10532205
0.87697501 0.39895048 0.12982296
0.91410939 0.43160547 0.16194360
0.94864424 0.47132134 0.20393018
0.95680079 0.52049552 0.25858559
0.95519050 0.56712855 0.31349639
0.95249899 0.68784125 0.44963231
0.03875537 0.24723918 0.00089451
0.05493286 0.24678234 0.00113491
0.07045232 0.24650673 0.00126271
0.08626987 0.24653350 0.00140170
0.10505033 0.24666974 0.00160203
0.12812374 0.24700538 0.00194614
0.15568666 0.24818186 0.00225113
0.18624715 0.24966753 0.00267073
0.21878481 0.25202036 0.00343795
0.25362334 0.25484277 0.00448300
0.29176362 0.25790933 0.00603919
0.32852760 0.26186210 0.00795263
0.36459577 0.26621305 0.00962183
0.40187844 0.27079914 0.01128431
0.43971850 0.27655335 0.01435673
0.47745701 0.28238593 0.01727586
0.51435814 0.28825205 0.02105035
0.54916142 0.29434859 0.02579373
0.58276303 0.30214580 0.03108331
0.61425536 0.31032071 0.03731450
0.64312214 0.31844208 0.04382231
0.67831176 0.32879758 0.05127382
0.70902865 0.33934625 0.05881588
0.74014160 0.35156839 0.06952385
0.77597566 0.36488441 0.07992756
0.80756434 0.38135584 0.09410672
0.84050380 0.40154299 0.11102517
0.87536209 0.42655510 0.13353201
0.91135238 0.45587545 0.16495175
0.94590424 0.49253020 0.20715184
0.95622058 0.53920077 0.26374132
0.95461371 0.58185172 0.31944855
0.95259560 0.69230256 0.45259814
0.05289138 0.29750247 0.00492298
0.06913746 0.29686293 0.00497405
0.08603205 0.29648692 0.00502989
0.10060120 0.29618301 0.00496659
0.11921968 0.29599002 0.00499833
0.14391350 0.29606201 0.00518323
0.17154839 0.29654208 0.00550212
0.20116663 0.29726111 0.00592659
0.23379804 0.29914232 0.00657863
0.26952224 0.30142322 0.00754721
0.30586369 0.30403648 0.00874008
0.34115755 0.30715642 0.01113455
0.37645473 0.31061406 0.01290476
0.41258511 0.31466767 0.01466552
0.44916879 0.31890957 0.01668690
0.48547497 0.32357647 0.02100204
0.52110403 0.32895305 0.02683825
0.55458655 0.33452077 0.03374877
0.58684544 0.34039893 0.03819196
0.61717521 0.34723729 0.04353920
0.64527195 0.35470809 0.05003113
0.67984951 0.36407752 0.05724727
0.70963375 0.37313964 0.06429468
0.74063651 0.38442489 0.07398721
0.77684888 0.39751199 0.08590346
0.80645409 0.41290940 0.10018230
0.83849417 0.43154819 0.11702540
0.87298519 0.45476890 0.13960496
0.90964726 0.48092779 0.16996107
0.94291252 0.51413216 0.21058842
0.95553338 0.55792872 0.26881745
0.95396376 0.59715649 0.32630870
0.95269963 0.69704228 0.45580284
0.06932512 0.34577047 0.00895742
0.08598283 0.34504250 0.00905405
0.10267966 0.34429799 0.00917058
0.11796454 0.34394954 0.00914102
0.13761888 0.34374916 0.00918267
0.16189803 0.34366740 0.00944764
0.18884201 0.34365266 0.00980079
0.21741882 0.34421802 0.01033004
0.25009817 0.34515526 0.01130636
0.28549479 0.34633424 0.01284541
0.32005798 0.34852577 0.01447958
0.35379860 0.35089425 0.01606590
0.38824966 0.35343197 0.01856660
0.42357941 0.35685840 0.02162430
0.45928981 0.36049091 0.02490950
0.49429661 0.36412909 0.02892007
0.52809428 0.36840552 0.03563690
0.56069510 0.37364535 0.04150060
0.59182616 0.37916712 0.04599803
0.62104326 0.38492716 0.05090649
0.64831358 0.39094911 0.05679722
0.68202363 0.39993695 0.06431971
0.71111571 0.40890822 0.07252017
0.74153021 0.41912966 0.08214523
0.77517197 0.43097274 0.09274035
0.80465854 0.44543260 0.10727052
0.83770174 0.46196970 0.12406898
0.87087234 0.48211361 0.14695219
0.90851555 0.50615070 0.17602212
0.94141419 0.53727419 0.21570480
0.95486712 0.57639465 0.27420250
0.95329011 0.61250579 0.33343400
0.95281035 0.70201306 0.45922790
0.08780066 0.39298760 0.01495729
0.10363160 0.39217356 0.01512686
0.12083710 0.39146701 0.01530926
0.13854484 0.39097080 0.01543920
0.15819340 0.39038184 0.01581193
0.18077992 0.39010469 0.01624779
0.20681486 0.38996939 0.01675782
0.23592864 0.39010077 0.01734159
0.26863527 0.39060259 0.01827047
0.30199748 0.39154938 0.02015975
0.33544888 0.39272709 0.02239642
0.36760985 0.39463808 0.02456165
0.40080768 0.39680386 0.02728663
0.43541269 0.39930397 0.03147308
0.46971931 0.40227785 0.03562186
0.50324789 0.40568714 0.04025548
0.53579191 0.40939096 0.04549477
0.56758287 0.41314495 0.05055162
0.59748867 0.41833563 0.05546114
0.62566755 0.42393971 0.06073963
0.65213444 0.42961997 0.06597882
0.68443333 0.43735169 0.07314941
0.71277212 0.44559557 0.08161063
0.74316680 0.45469084 0.09105507
0.77500640 0.46461710 0.10161501
0.80320406 0.47664095 0.11496451
0.83789536 0.49176498 0.13229279
0.86949690 0.51036256 0.15524845
0.90565868 0.53219763 0.18331402
0.93753597 0.55994661 0.22209007
0.95418412 0.59459811 0.27993906
0.95285613 0.62817478 0.33979392
0.95292817 0.70722835 0.46288874
0.10947124 0.43985695 0.02414308
0.12614882 0.43907575 0.02436099
0.14303705 0.43828947 0.02465605
0.16093978 0.43757683 0.02498221
0.17950791 0.43698424 0.02546860
0.20136865 0.43660887 0.02603086
0.22666852 0.43609062 0.02705539
0.25614607 0.43522270 0.02878584
0.28718582 0.43537638 0.03046099
0.31868165 0.43604912 0.03280753
0.35017597 0.43689843 0.03533771
0.38268199 0.43807371 0.03804401
0.41479099 0.43997511 0.04093690
0.44816724 0.44208684 0.04379427
0.48044904 0.44443032 0.04720519
0.51246769 0.44722341 0.05129004
0.54416376 0.45044034 0.05586526
0.57489341 0.45388401 0.06058007
0.60366630 0.45738297 0.06593273
0.63086906 0.46185342 0.07170962
0.65668696 0.46683999 0.07700480
0.68802041 0.47354969 0.08396526
0.71513784 0.48027724 0.09117689
0.74523600 0.48832051 0.10032812
0.77608446 0.49761609 0.11136545
0.80269338 0.50849862 0.12458294
0.83604379 0.52156786 0.14071250
0.86737281 0.53857216 0.16353727
0.90363215 0.55712889 0.19109799
0.93408407 0.58170156 0.22953585
0.95368580 0.61435864 0.28830892
0.95247469 0.64377873 0.34617819
0.95307487 0.71271809 0.46667498
0.13290406 0.48339665 0.03806318
0.14947768 0.48261321 0.03831483
0.16612108 0.48188512 0.03850862
0.18322399 0.48119950 0.03872127
0.20198125 0.48056522 0.03906085
0.22335728 0.47976291 0.03992499
0.24844717 0.47887706 0.04126220
0.27648796 0.47803117 0.04275968
0.30639658 0.47745064 0.04434901
0.33541542 0.47782035 0.04585068
0.36529435 0.47847362 0.04795067
0.39670317 0.47929780 0.05026795
0.42922539 0.48045671 0.05269488
0.46148788 0.48199668 0.05503357
0.49215707 0.48408943 0.05867211
0.52245560 0.48641240 0.06274875
0.55322975 0.48903930 0.06712439
0.58250287 0.49219158 0.07215545
0.61008642 0.49546372 0.07763134
0.63635950 0.49894369 0.08340969
0.66128859 0.50324495 0.08836823
0.69147974 0.50963039 0.09511143
0.71774665 0.51584190 0.10179380
0.74682282 0.52238690 0.11024158
0.77664815 0.53046699 0.12110205
0.80460064 0.54006006 0.13488380
0.83575797 0.55076924 0.15083974
0.86553675 0.56494013 0.17216502
0.90274445 0.58145708 0.19968118
0.93339816 0.60343746 0.23838986
0.95324166 0.63298944 0.29565685
0.95239560 0.65941461 0.35387248
0.95324301 0.71845229 0.47062572
0.15858893 0.52464790 0.05041473
0.17441934 0.52397246 0.05061918
0.19029797 0.52335241 0.05083608
0.20639885 0.52256273 0.05112827
0.22526916 0.52173447 0.05154585
0.24642687 0.52101968 0.05241093
0.27049631 0.52022880 0.05389388
0.29663097 0.51946414 0.05556759
0.32444818 0.51873739 0.05718656
0.35211587 0.51865880 0.05888467
0.38071768 0.51920257 0.06099885
0.41086093 0.51995340 0.06352099
0.44269201 0.52072901 0.06619821
0.47345188 0.52193718 0.06892889
0.50313391 0.52355933 0.07198909
0.53279000 0.52538883 0.07620769
0.56223440 0.52705333 0.08015282
0.59008873 0.52937193 0.08479257
0.61652478 0.53229480 0.09002944
0.64210724 0.53552306 0.09478510
0.66607179 0.53896641 0.09955930
0.69520490 0.54388785 0.10629151
0.72099265 0.54914620 0.11314814
0.74957623 0.55477912 0.12132934
0.77795432 0.56113608 0.13214710
0.80688452 0.56918599 0.14618581
0.83702136 0.57866163 0.16206526
0.86459572 0.59019988 0.18156717
0.90087981 0.60517525 0.20912623
0.93229788 0.62497376 0.24803731
0.95286352 0.65098553 0.30283648
0.95243075 0.67475391 0.36238584
0.95345400 0.72432538 0.47483958
0.18482404 0.56273883 0.06501621
0.19968048 0.56196959 0.06531271
0.21456450 0.56124888 0.06561965
0.23013325 0.56055050 0.06594793
0.24936723 0.55976765 0.06635763
0.26997799 0.55912416 0.06716444
0.29235822 0.55841725 0.06878173
0.31658206 0.55770883 0.07030488
0.34212908 0.55702799 0.07202945
0.36937477 0.55640951 0.07393302
0.39679064 0.55672491 0.07601441
0.42613662 0.55720507 0.07869323
0.45602666 0.55779509 0.08149978
0.48573683 0.55854303 0.08431066
0.51449307 0.55973744 0.08695978
0.54383872 0.56085280 0.09014965
0.57160165 0.56222035 0.09391816
0.59800868 0.56373094 0.09787736
0.62327976 0.56581089 0.10251457
0.64819927 0.56851449 0.10666797
0.67131396 0.57140000 0.11134633
0.69932872 0.57550365 0.11831204
0.72462059 0.57959290 0.12536090
0.75215416 0.58460407 0.13406206
0.77951365 0.59032110 0.14455361
0.80694963 0.59664570 0.15832246
0.83550588 0.60488573 0.17387942
0.86419400 0.61502053 0.19300808
0.89902703 0.62775901 0.21911572
0.93039987 0.64564502 0.25800993
0.95252341 0.66864908 0.31121783
0.95251432 0.68963054 0.37142583
0.95367219 0.73034648 0.47921910
0.21077759 0.59669749 0.08173497
0.22513242 0.59603729 0.08196083
0.23975494 0.59541466 0.08219557
0.25509655 0.59480732 0.08244729
0.27324500 0.59412152 0.08276210
0.29341069 0.59350882 0.08327818
0.31411844 0.59287301 0.08452729
0.33616932 0.59223599 0.08592478
0.36020972 0.59161341 0.08748337
0.38611588 0.59103548 0.08918299
0.41363311 0.59084361 0.09083077
0.44171901 0.59123089 0.09304128
0.46957689 0.59172995 0.09558493
0.49762586 0.59235052 0.09832785
0.52659414 0.59294733 0.10114453
0.55420426 0.59376773 0.10398710
0.58040647 0.59490888 0.10774138
0.60540444 0.59622209 0.11186091
0.62995194 0.59771554 0.11587841
0.65381063 0.59973319 0.12007086
0.67603036 0.60223207 0.12461139
0.70303033 0.60580734 0.13178016
0.72768488 0.60880208 0.13895225
0.75401602 0.61256916 0.14760763
0.78061439 0.61760626 0.15791366
0.80909456 0.62298428 0.17019506
0.83446504 0.62937239 0.18572027
0.86410130 0.63844459 0.20485209
0.89821019 0.64964684 0.23008876
0.92886618 0.66527657 0.26828079
0.95234406 0.68670474 0.32158442
0.95256623 0.70420747 0.37970930
0.95389756 0.73650522 0.48376887
0.23633890 0.62808826 0.09660443
0.25053221 0.62751427 0.09682594
0.26469542 0.62698486 0.09709386
0.27919792 0.62651509 0.09750354
0.29638012 0.62598336 0.09800397
0.31595432 0.62540709 0.09860287
0.33481951 0.62484685 0.09974244
0.35541613 0.62426177 0.10116156
0.37828728 0.62368014 0.10277275
0.40308477 0.62322033 0.10418431
0.42996881 0.62282289 0.10568958
0.45662454 0.62294224 0.10769095
0.48276452 0.62333081 0.11039212
0.50994833 0.62373860 0.11322434
0.53769223 0.62412328 0.11612199
0.56420470 0.62463682 0.11920690
0.58911667 0.62543520 0.12246135
0.61303909 0.62654564 0.12676869
0.63682036 0.62782941 0.13090894
0.65967736 0.62923626 0.13536520
0.68104185 0.63104012 0.14016543
0.70731441 0.63389307 0.14665528
0.73134794 0.63633498 0.15353188
0.75653275 0.63923247 0.16141036
0.78198133 0.64319002 0.17085174
0.81136594 0.64775302 0.18273469
0.83570797 0.65323906 0.19784098
0.86400988 0.66056069 0.21714870
0.89719262 0.67053438 0.24254172
0.92981946 0.68417056 0.27911221
0.95189465 0.70319386 0.33081320
0.95274620 0.71849935 0.38819841
0.95425972 0.74296456 0.48819377
0.26304802 0.65662017 0.11290846
0.27652469 0.65617328 0.11331165
0.28979864 0.65574802 0.11371913
0.30325673 0.65532950 0.11414530
0.31893179 0.65485290 0.11466607
0.33689375 0.65432835 0.11530640
0.35525065 0.65380398 0.11641794
0.37488656 0.65328885 0.11783067
0.39674692 0.65283959 0.11910160
0.42061322 0.65241377 0.12051779
0.44592036 0.65202377 0.12209008
0.47146840 0.65174410 0.12387161
0.49650153 0.65199989 0.12653623
0.52306725 0.65219887 0.12948030
0.54893332 0.65248276 0.13265379
0.57391309 0.65283238 0.13580992
0.59793284 0.65332295 0.13910456
0.62126535 0.65414585 0.14281762
0.64388388 0.65519429 0.14703926
0.66564397 0.65634729 0.15144990
0.68611446 0.65758455 0.15594335
0.71171373 0.65944259 0.16184974
0.73494100 0.66141096 0.16775410
0.75903238 0.66382824 0.17554128
0.78397596 0.66663826 0.18452587
0.81158075 0.67034050 0.19629401
0.83516588 0.67505061 0.21067927
0.86275252 0.68111499 0.22979319
0.89553177 0.68988797 0.25553953
0.92943562 0.70197826 0.29043939
0.95146151 0.71869516 0.34005499
0.95319587 0.73254609 0.39691627
0.95464110 0.74940326 0.49267523
0.29692371 0.68987692 0.13608437
0.30906632 0.68949070 0.13644574
0.32081890 0.68912036 0.13681110
0.33260055 0.68875304 0.13719332
0.34651947 0.68833044 0.13765985
0.36289977 0.68785095 0.13820514
0.38095751 0.68735214 0.13896207
0.39926763 0.68690580 0.14004958
0.41983704 0.68644806 0.14128493
0.44194528 0.68601550 0.14261706
0.46472224 0.68560144 0.14408432
0.48888721 0.68520152 0.14575361
0.51399213 0.68495011 0.14775451
0.53824841 0.68501976 0.15058518
0.56176441 0.68515282 0.15355455
0.58478060 0.68535516 0.15666515
0.60781053 0.68546184 0.16008404
0.63020293 0.68567774 0.16365259
0.65138671 0.68635810 0.16741201
0.67175602 0.68721589 0.17159508
0.69105132 0.68812681 0.17591327
0.71531334 0.68925982 0.18226252
0.73749603 0.69066918 0.18820957
0.76085826 0.69261497 0.19504940
0.78686993 0.69486535 0.20416191
