public/luts/builtin/fuji_velvia.cube
TITLE "Rec709800_sRGB-LA:FLog2_to_Velvia_LA:FLog2_to_Velvia"
LUT_3D_SIZE 33
# Rec709 (800%)/sRGB -> LA - :FLog2_to_Velvia/LA - :FLog2_to_Velvia, CineEI Shift 0.00, Black Level -0.00% IRE, Input 100% -> Output 100% - Created with LUTCalc v4.09 by Ben Turley February 2025
0.00000000 0.00000000 0.00000000
0.00000000 0.00000000 0.00000000
0.00000000 0.00000000 0.00000000
0.00306001 0.00034290 0.00000000
0.01163879 0.00023035 0.00000630
0.02624517 0.00076218 0.00000323
0.04704766 0.00093227 0.00000754
0.07266758 0.00077456 0.00000742
0.10506033 0.00090624 0.00000000
0.14488542 0.00021187 0.00000000
0.18948000 0.00000000 0.00000746
0.24454191 0.00000601 0.00000000
0.30112873 0.00000823 0.00000198
0.36149505 0.00000236 0.00000153
0.41790602 0.00000071 0.00000842
0.48314281 0.00000361 0.00000002
0.53891264 0.00000069 0.00000000
0.59770277 0.00000032 0.00000795
0.65017841 0.00000000 0.00000784
0.70138621 0.00066123 0.00000797
0.75810617 0.00029334 0.00000525
0.80642534 0.00080097 0.00000288
0.85186975 0.00432463 0.00000000
0.89765126 0.03195128 0.00054621
0.93257996 0.05127917 0.00118721
0.97571082 0.07949349 0.00222100
1.00068000 0.11280496 0.00210230
1.00071397 0.16092679 0.00453706
1.00048699 0.21619191 0.02301900
1.00053190 0.28458385 0.06086962
1.00061573 0.36259413 0.11761825
1.00037977 0.43566050 0.12860965
1.00040122 0.60999411 0.23482104
0.00000000 0.00000000 0.00000000
0.00001084 0.00001032 0.00001102
0.00075710 0.00000092 0.00000000
0.00415303 0.00000000 0.00000015
0.01283049 0.00098829 0.00001048
0.02857576 0.00200791 0.00000066
0.05142263 0.00202998 0.00000262
0.08069873 0.00197059 0.00000649
0.11738450 0.00184875 0.00000470
0.16232490 0.00151268 0.00000997
0.21015192 0.00090383 0.00001050
0.26528239 0.00011517 0.00000755
0.32226387 0.00051824 0.00000864
0.38364149 0.00078343 0.00000756
0.44176849 0.00091778 0.00000032
0.50240490 0.00077087 0.00000256
0.55397815 0.00064668 0.00000006
0.60758137 0.00181326 0.00000013
0.65748381 0.00492025 0.00000000
0.70242006 0.00731642 0.00000003
0.75102835 0.01255533 0.00000415
0.79927318 0.02322120 0.00001134
0.84478377 0.03483855 0.00000195
0.88969930 0.05165222 0.00000000
0.92796117 0.07487270 0.00000000
0.97277880 0.10122978 0.00000000
0.99871374 0.13633138 0.00000000
1.00052756 0.18216040 0.00167549
1.00042512 0.23476940 0.01327844
1.00052577 0.30033187 0.05022881
1.00065007 0.37412278 0.11140407
1.00038731 0.44324479 0.12638060
1.00040119 0.61204099 0.23498347
0.00000000 0.00204033 0.00092226
0.00048903 0.00225409 0.00086760
0.00150820 0.00222268 0.00000000
0.00533403 0.00270829 0.00000630
0.01525697 0.00346645 0.00000302
0.03303580 0.00404700 0.00000005
0.05754622 0.00455842 0.00000152
0.08781442 0.00544024 0.00000000
0.12695002 0.00625883 0.00000000
0.17380420 0.00640585 0.00000000
0.22439372 0.00609347 0.00000000
0.28174593 0.00626447 0.00000503
0.34051543 0.00682749 0.00000040
0.40042574 0.00673086 0.00000525
0.45807766 0.00705343 0.00000652
0.51611906 0.00904906 0.00001101
0.56412730 0.01080796 0.00001135
0.61203051 0.01515241 0.00001116
0.65632750 0.01947885 0.00001104
0.70185256 0.02495381 0.00001111
0.74928339 0.03313878 0.00001125
0.79338157 0.04315434 0.00001119
0.83977211 0.05724546 0.00000328
0.88557451 0.07618416 0.00000516
0.92369735 0.09703913 0.00000639
0.97075622 0.12385071 0.00000018
0.99638716 0.16022175 0.00000000
1.00068509 0.20157083 0.00078576
1.00037801 0.25263475 0.00755110
1.00052014 0.31513553 0.04127058
1.00068076 0.38521015 0.10560900
1.00040155 0.45057771 0.12339451
1.00040115 0.61407023 0.23515083
0.00000829 0.00729930 0.00000000
0.00000000 0.00763585 0.00000000
0.00151861 0.00745873 0.00000360
0.00647300 0.00960678 0.00004674
0.01777287 0.01111114 0.00000000
0.03479222 0.01240710 0.00000552
0.06216742 0.01396361 0.00000005
0.09475408 0.01549414 0.00000796
0.13579754 0.01658429 0.00000000
0.18272823 0.01726615 0.00000721
0.23614915 0.01738646 0.00000014
0.29483349 0.01832448 0.00000000
0.35429337 0.01931970 0.00000615
0.41243945 0.02059960 0.00001122
0.46825241 0.02276788 0.00000527
0.52178397 0.02561932 0.00000249
0.56892597 0.02776199 0.00000093
0.61577620 0.03375107 0.00000111
0.65669768 0.03949134 0.00000600
0.69779744 0.04658794 0.00001077
0.74097021 0.05580446 0.00001028
0.78643816 0.06820932 0.00000913
0.83513047 0.08240108 0.00000147
0.87910447 0.09969844 0.00000371
0.91919600 0.12204121 0.00000800
0.96851086 0.15098163 0.00000051
0.99390269 0.18260411 0.00000077
1.00001687 0.22179812 0.00039333
1.00038936 0.27055551 0.00529014
1.00053588 0.32949829 0.03337896
1.00069391 0.39622107 0.09788973
1.00041976 0.45786863 0.12004389
1.00040108 0.61615205 0.23532917
0.00000759 0.01957183 0.00000000
0.00000000 0.02043451 0.00000000
0.00240563 0.02115338 0.00000434
0.00694458 0.02297351 0.00000338
0.01984363 0.02445258 0.00000286
0.03840391 0.02548849 0.00000852
0.06566993 0.02724103 0.00000462
0.10029547 0.03015429 0.00000968
0.14640581 0.03302836 0.00000670
0.19324078 0.03446405 0.00000724
0.24817915 0.03623852 0.00000066
0.30490072 0.03760171 0.00000033
0.36383307 0.03941885 0.00000835
0.42034995 0.04159293 0.00000527
0.47524869 0.04458042 0.00000000
0.52556784 0.04814605 0.00000000
0.57030630 0.05268955 0.00000000
0.61414995 0.05924771 0.00000000
0.65459135 0.06593552 0.00000000
0.69607072 0.07365251 0.00000434
0.73817427 0.08269510 0.00001073
0.78027506 0.09584068 0.00001124
0.82644546 0.11090071 0.00000793
0.87044812 0.13041619 0.00000036
0.91453182 0.15462070 0.00000498
0.96309095 0.17975513 0.00000253
0.99081289 0.20918428 0.00000045
0.99605659 0.24698431 0.00052016
1.00041628 0.29161016 0.00257520
1.00055855 0.34577077 0.02567307
1.00070516 0.40865656 0.08904068
1.00040587 0.46659196 0.11709558
1.00040098 0.61863901 0.23555116
0.00023265 0.04036287 0.00000000
0.00086024 0.04199598 0.00000000
0.00280818 0.04290211 0.00000649
0.00849243 0.04467185 0.00001136
0.02151792 0.04661312 0.00000000
0.04171110 0.04849128 0.00000000
0.07188385 0.05095373 0.00000000
0.10880435 0.05515676 0.00000676
0.15413428 0.05891584 0.00000000
0.20370397 0.06220315 0.00000000
0.25944190 0.06424998 0.00000000
0.31350615 0.06638041 0.00000000
0.37060057 0.06895776 0.00000414
0.42418639 0.07084134 0.00000779
0.47798619 0.07432206 0.00000015
0.52655338 0.07853109 0.00000000
0.57090534 0.08344503 0.00000000
0.61319661 0.08971135 0.00000000
0.65203457 0.09703281 0.00000000
0.68962873 0.10647127 0.00000000
0.72735428 0.11742489 0.00000000
0.77195747 0.13275507 0.00000328
0.82226075 0.15007391 0.00000510
0.86423170 0.16823910 0.00000060
0.90749463 0.18840501 0.00000151
0.95658520 0.21165831 0.00000569
0.98615040 0.23966730 0.00000420
0.99658601 0.27417154 0.00000000
1.00044277 0.31507438 0.00087592
1.00057850 0.36433190 0.00675578
1.00071903 0.42270734 0.08038292
1.00038183 0.47658420 0.11402296
1.00040083 0.62157920 0.23582634
0.00039413 0.07482229 0.00000298
0.00120684 0.07564360 0.00000461
0.00336372 0.07736460 0.00000731
0.00829780 0.07905982 0.00000000
0.02354129 0.08077853 0.00000530
0.04459732 0.08289564 0.00000097
0.07504777 0.08559498 0.00000069
0.11125509 0.08937137 0.00000063
0.16002494 0.09222958 0.00001075
0.21220426 0.09493420 0.00000355
0.26701890 0.09718196 0.00000000
0.32192370 0.10009372 0.00000000
0.37610801 0.10270364 0.00000799
0.42746389 0.10593409 0.00000977
0.47871706 0.11085612 0.00000933
0.52531637 0.11554313 0.00000681
0.56870367 0.12195269 0.00000326
0.61014095 0.12984806 0.00000000
0.64856758 0.13831715 0.00000000
0.68585449 0.14923582 0.00000000
0.72217897 0.16023618 0.00000000
0.76470659 0.17511252 0.00000000
0.81083462 0.18983083 0.00000000
0.85337185 0.20680642 0.00001035
0.90305403 0.22588989 0.00000798
0.95343552 0.24726380 0.00001083
0.98249011 0.27238298 0.00000559
0.99746924 0.30266164 0.00000170
1.00046771 0.33979571 0.00000000
1.00060487 0.38438452 0.00139530
1.00070647 0.43844504 0.06931070
1.00036091 0.48760616 0.11117632
1.00040062 0.62494550 0.23615870
0.00000000 0.11899167 0.00000000
0.00127264 0.11992786 0.00000000
0.00306568 0.12193076 0.00000000
0.00879717 0.12272551 0.00000025
0.02236536 0.12477408 0.00000790
0.04818344 0.12722290 0.00000257
0.07694456 0.13043646 0.00000159
0.11390928 0.13329770 0.00000744
0.16050903 0.13669028 0.00000751
0.21393215 0.13864794 0.00000040
0.26965756 0.14101406 0.00000000
0.32558010 0.14416659 0.00000365
0.37952135 0.14728877 0.00000347
0.43159854 0.15098772 0.00000121
0.48084425 0.15613396 0.00000970
0.52410423 0.16210281 0.00000917
0.56634400 0.16901653 0.00000637
0.60665452 0.17654490 0.00000239
0.64396376 0.18434764 0.00000110
0.67864924 0.19413119 0.00000000
0.71368874 0.20425556 0.00000102
0.76009263 0.21833824 0.00000157
0.80716447 0.23215277 0.00000000
0.84618083 0.24783604 0.00000000
0.89329521 0.26471909 0.00000299
0.94274441 0.28389223 0.00001129
0.97672084 0.30614106 0.00000757
0.99292267 0.33293452 0.00001027
1.00048642 0.36438893 0.00001002
1.00062784 0.40530265 0.00013501
1.00069296 0.45486377 0.05796516
1.00034885 0.49966388 0.10818382
1.00040032 0.62870141 0.23655226
0.00000000 0.17804699 0.00000000
0.00096795 0.17799557 0.00000000
0.00338253 0.17844586 0.00000482
0.00884279 0.17914071 0.00000800
0.02203239 0.17993383 0.00000000
0.04448284 0.18254565 0.00000720
0.08048341 0.18481088 0.00000693
0.11590257 0.18751067 0.00000000
0.16325806 0.19017397 0.00000000
0.21559456 0.19143365 0.00000277
0.27104298 0.19381763 0.00000016
0.32843104 0.19610933 0.00000022
0.38013241 0.19943325 0.00000159
0.43207388 0.20336852 0.00000089
0.47979887 0.20808543 0.00001131
0.52283635 0.21330646 0.00000252
0.56475002 0.21940011 0.00000612
0.60348798 0.22585234 0.00000915
0.63980900 0.23315763 0.00000949
0.67366148 0.24217816 0.00000521
0.70725238 0.25150823 0.00000200
0.75347905 0.26395654 0.00000319
0.79669207 0.27590459 0.00000270
0.83604010 0.29002405 0.00000000
0.88843230 0.30463376 0.00000589
0.93479031 0.32076761 0.00001134
0.97003367 0.33991179 0.00000996
0.99347109 0.36322025 0.00001117
1.00046609 0.39163024 0.00000364
1.00063325 0.42705979 0.00000000
1.00067646 0.47164522 0.04705137
1.00036612 0.51307401 0.10435949
1.00039993 0.63287134 0.23701836
0.00000000 0.24399211 0.00001135
0.00143274 0.24272350 0.00000715
0.00379532 0.24297060 0.00000555
0.00899860 0.24235863 0.00000746
0.02229452 0.24237655 0.00000418
0.04262902 0.24421970 0.00000784
0.07687007 0.24542204 0.00000000
0.11949532 0.24755143 0.00000000
0.16678212 0.24803112 0.00000000
0.21949139 0.24864521 0.00000733
0.27532660 0.25005156 0.00000536
0.33022051 0.25182807 0.00000620
0.38178379 0.25460907 0.00000490
0.43332325 0.25811815 0.00000020
0.47925126 0.26243039 0.00001069
0.52175145 0.26678083 0.00000711
0.56167284 0.27193166 0.00000380
0.59897048 0.27784321 0.00000639
0.63436438 0.28419148 0.00000794
0.66814885 0.29100002 0.00000871
0.70098771 0.29875134 0.00000622
0.74935887 0.30932754 0.00000000
0.79113863 0.31930561 0.00000000
0.82688325 0.33079269 0.00000000
0.88218562 0.34326734 0.00000712
0.92721959 0.35752801 0.00001135
0.96702440 0.37377725 0.00001132
0.99441501 0.39348398 0.00000460
1.00045859 0.41884020 0.00000000
1.00064254 0.45014876 0.00000795
1.00065104 0.48837344 0.03920876
1.00038518 0.52688493 0.10061401
1.00040251 0.63725886 0.23744512
0.00000000 0.31261135 0.00001025
0.00152075 0.31150818 0.00000270
0.00445450 0.31085998 0.00000043
0.00952838 0.31056178 0.00000489
0.02181674 0.31007704 0.00000785
0.04281327 0.30949153 0.00000000
0.07368122 0.31091321 0.00000000
0.11683845 0.31089547 0.00000000
0.16938889 0.31090403 0.00000000
0.21893801 0.31161260 0.00000795
0.27714928 0.31119193 0.00000352
0.33073143 0.31241310 0.00000887
0.38197148 0.31367460 0.00000819
0.43301651 0.31454548 0.00000521
0.47807266 0.31746219 0.00001093
0.52032497 0.32056167 0.00000934
0.55884506 0.32380096 0.00000454
0.59470668 0.32744300 0.00000337
0.62980803 0.33296194 0.00000023
0.66286278 0.33905234 0.00000000
0.69490134 0.34540869 0.00000000
0.74187289 0.35348922 0.00000000
0.78294841 0.36200858 0.00000000
0.81827329 0.37217175 0.00000258
0.87281263 0.38181783 0.00000669
0.91757904 0.39359915 0.00001061
0.96145016 0.40779411 0.00000967
0.99255361 0.42467893 0.00000000
1.00042740 0.44572484 0.00000000
1.00063919 0.47266024 0.00000203
1.00063340 0.50702891 0.03540210
1.00040253 0.54127903 0.09869373
1.00040645 0.64193851 0.23789940
0.00005829 0.37895952 0.00000595
0.00163066 0.37797030 0.00000002
0.00493428 0.37727813 0.00000495
0.01014494 0.37600149 0.00000000
0.02185522 0.37459807 0.00000000
0.04159385 0.37339488 0.00000000
0.07204439 0.37230494 0.00000000
0.11176078 0.37060469 0.00000000
0.16765762 0.37001268 0.00000000
0.22315915 0.36926727 0.00000696
0.27807504 0.36866452 0.00000789
0.33171852 0.36867833 0.00000248
0.38318325 0.36819906 0.00000000
0.43171733 0.36870080 0.00000760
0.47621251 0.36955489 0.00001134
0.51860143 0.37111816 0.00000937
0.55575858 0.37409885 0.00000972
0.59051536 0.37740250 0.00001025
0.62504319 0.38097618 0.00001067
0.65744727 0.38568880 0.00000798
0.68859539 0.39116729 0.00000760
0.73546840 0.39761408 0.00000564
0.77371528 0.40393494 0.00000346
0.81202654 0.41189637 0.00000500
0.87002669 0.41983279 0.00000878
0.91166429 0.42956105 0.00001008
0.95867252 0.44100509 0.00000828
0.99207318 0.45581694 0.00000000
1.00086062 0.47249287 0.00000000
1.00062481 0.49466695 0.00000679
1.00061030 0.52598712 0.02577930
1.00041808 0.55619912 0.09848074
1.00041058 0.64695344 0.23842986
0.00053745 0.44320358 0.00000780
0.00206393 0.44203036 0.00000792
0.00541593 0.44071065 0.00000557
0.01067445 0.43955197 0.00000000
0.02123790 0.43843619 0.00000000
0.04051263 0.43614910 0.00000000
0.07618648 0.43300161 0.00022220
0.11419099 0.43158490 0.00000000
0.16636429 0.42927453 0.00000000
0.22521641 0.42559705 0.00000000
0.27886876 0.42435447 0.00000003
0.33119847 0.42289416 0.00000990
0.38210735 0.42101123 0.00000436
0.42972995 0.42049236 0.00000125
0.47391754 0.42064737 0.00001136
0.51522633 0.42096734 0.00000325
0.55291578 0.42193236 0.00000000
0.58745223 0.42449859 0.00000078
0.62124453 0.42731131 0.00000551
0.65310559 0.43041974 0.00001022
0.68404217 0.43392190 0.00001130
0.72994209 0.43921223 0.00001073
0.76811694 0.44451647 0.00000888
0.80692595 0.45036175 0.00000473
0.85819532 0.45653917 0.00000299
0.90342086 0.46467959 0.00000461
0.95508558 0.47343048 0.00000328
0.99157801 0.48415585 0.00000000
0.99975318 0.49830562 0.00000000
1.00068473 0.51777664 0.00000000
1.00060295 0.54434030 0.01366466
1.00043290 0.57134037 0.09843031
1.00041486 0.65228254 0.23904176
0.00087993 0.49837263 0.00000000
0.00242770 0.49711623 0.00000523
0.00562724 0.49599296 0.00000785
0.01150608 0.49483165 0.00000437
0.02337043 0.49209622 0.00000801
0.04330623 0.48931122 0.00000000
0.07716760 0.48645867 0.00000000
0.11951579 0.48348313 0.00000000
0.16818747 0.47989458 0.00000000
0.22331558 0.47679577 0.00000744
0.28281480 0.47371368 0.00000260
0.33302679 0.47179570 0.00000627
0.38132029 0.47015681 0.00001066
0.42831439 0.46880451 0.00000550
0.47244295 0.46828991 0.00000744
0.51217635 0.46857704 0.00000026
0.54864166 0.46918661 0.00000747
0.58442489 0.46896011 0.00000150
0.61749594 0.47076106 0.00000179
0.64859216 0.47314174 0.00000916
0.67901096 0.47534155 0.00001135
0.72099171 0.47807406 0.00001133
0.76002240 0.48214529 0.00001106
0.80383747 0.48648208 0.00000815
0.85113801 0.49087839 0.00000049
0.89446148 0.49682774 0.00000000
0.95041827 0.50368779 0.00000000
0.98963024 0.51261341 0.00000000
0.99957438 0.52390543 0.00000000
1.00074453 0.54032465 0.00000023
1.00059455 0.56231847 0.00659882
1.00045311 0.58718834 0.09490298
1.00041927 0.65795813 0.23974693
0.00059055 0.54713852 0.00000791
0.00166712 0.54605246 0.00000766
0.00488957 0.54445700 0.00000797
0.01313014 0.54288798 0.00000727
0.02423723 0.54069532 0.00000775
0.04229895 0.53840960 0.00000196
0.07425955 0.53523971 0.00000000
0.12366194 0.53083313 0.00000494
0.17431665 0.52749539 0.00000456
0.22645354 0.52458416 0.00000525
0.28202564 0.52076077 0.00000805
0.33553428 0.51737282 0.00000965
0.38136799 0.51568377 0.00001127
0.42732308 0.51385389 0.00000576
0.47053394 0.51221617 0.00000166
0.50933991 0.51145798 0.00000793
0.54554083 0.51118901 0.00000602
0.58082478 0.51060150 0.00000327
0.61429319 0.51003568 0.00000272
0.64524461 0.51106425 0.00001086
0.67554248 0.51246858 0.00001135
0.71648065 0.51441221 0.00001136
0.75345084 0.51673355 0.00001136
0.80103416 0.51976782 0.00001051
0.84636019 0.52345146 0.00000390
0.88612527 0.52810083 0.00000000
0.94297879 0.53290212 0.00000000
0.98449966 0.54033185 0.00000186
0.99725663 0.54828225 0.00000000
1.00077805 0.56146826 0.00000000
1.00059195 0.58224200 0.00968057
1.00048129 0.60322717 0.08905316
1.00040597 0.66398770 0.24040844
0.00060698 0.58969954 0.00000698
0.00199247 0.58817391 0.00000772
0.00515228 0.58672294 0.00000797
0.01299256 0.58531760 0.00000798
0.02514334 0.58343954 0.00000731
0.04394134 0.58014368 0.00000482
0.07556524 0.57631631 0.00000093
0.12088882 0.57232019 0.00000067
0.18224777 0.56843849 0.00000690
0.23063348 0.56499444 0.00000000
0.28267458 0.56138307 0.00000031
0.33451213 0.55787065 0.00000120
0.38278748 0.55492724 0.00000206
0.42747346 0.55258452 0.00000233
0.46870850 0.55102772 0.00000779
0.50666146 0.54974649 0.00000000
0.54390051 0.54841632 0.00000217
0.57805783 0.54779534 0.00000566
0.61067952 0.54728643 0.00000036
0.64175270 0.54683781 0.00000965
0.67157607 0.54713565 0.00001110
0.71096026 0.54877430 0.00001066
0.74730130 0.55060824 0.00000993
0.79141978 0.55130968 0.00001062
0.83548439 0.55358712 0.00000935
0.88209616 0.55709987 0.00000631
0.93780780 0.56043429 0.00000623
0.98157654 0.56605536 0.00000743
0.99259023 0.57231057 0.00000482
1.00077190 0.58271114 0.00000000
1.00056891 0.60145912 0.01068205
1.00051183 0.61961259 0.08905508
1.00038269 0.67033936 0.24108538
0.00057131 0.62778932 0.00000797
0.00170126 0.62647410 0.00000783
0.00403959 0.62523369 0.00000689
0.01146948 0.62343267 0.00000753
0.02855707 0.62114072 0.00000793
0.04782055 0.61810524 0.00000797
0.07758456 0.61471724 0.00000622
0.11962463 0.61115314 0.00000292
0.17952932 0.60668742 0.00000000
0.23494182 0.60280493 0.00000177
0.28385179 0.59951866 0.00000674
0.33267240 0.59627590 0.00000736
0.38107196 0.59261072 0.00000000
0.42576889 0.58982050 0.00000000
0.46557338 0.58787559 0.00000000
0.50360309 0.58600977 0.00000000
0.54164473 0.58343487 0.00000000
0.57569827 0.58189217 0.00000795
0.60742401 0.58131129 0.00000082
0.63799387 0.58081440 0.00000382
0.66700997 0.58043118 0.00001088
0.70520933 0.58066373 0.00000715
0.74354893 0.58178041 0.00000674
0.78919323 0.58180182 0.00001070
0.82759736 0.58233275 0.00001112
0.87890433 0.58443708 0.00001063
0.93498873 0.58704567 0.00001053
0.97605439 0.59056016 0.00001110
0.99290298 0.59569514 0.00001085
1.00072080 0.60444831 0.00000000
1.00056601 0.62009014 0.00602680
1.00054825 0.63581566 0.08950919
1.00036792 0.67694589 0.24177299
0.00039656 0.66293700 0.00000000
0.00168838 0.66116630 0.00000000
0.00464697 0.65947668 0.00000000
0.01229545 0.65780651 0.00000000
0.03143010 0.65588920 0.00000000
0.05259437 0.65324736 0.00000000
0.08060349 0.65014825 0.00000000
0.11945585 0.64618866 0.00000365
0.17457217 0.64202695 0.00000795
0.23960427 0.63777307 0.00000410
0.28675594 0.63471551 0.00000633
0.33329697 0.63131407 0.00000000
0.37913797 0.62785343 0.00000000
0.42456982 0.62434538 0.00000000
0.46391931 0.62188768 0.00000000
0.50243931 0.61944515 0.00000000
0.53900988 0.61694017 0.00000000
0.57281070 0.61461334 0.00000657
0.60447660 0.61316964 0.00000430
0.63467486 0.61240317 0.00000007
0.66308064 0.61182880 0.00000647
0.70008265 0.61129643 0.00001007
0.74059265 0.61066263 0.00000226
0.78465371 0.61023421 0.00000783
0.82212444 0.61013227 0.00001085
0.86966734 0.60998516 0.00000906
0.92497465 0.61161411 0.00000696
0.96889274 0.61441378 0.00000901
0.99408665 0.61799511 0.00000800
1.00065079 0.62571192 0.00000000
1.00056690 0.63833747 0.00475714
1.00059021 0.65170000 0.08895067
1.00035301 0.68383220 0.24255730
0.00085673 0.69558779 0.00000000
0.00248216 0.69390585 0.00000000
0.00612614 0.69230210 0.00000000
0.01532062 0.69071974 0.00000000
0.03502948 0.68890905 0.00000000
0.05859410 0.68589404 0.00000000
0.08480023 0.68231482 0.00000000
0.12208393 0.67853261 0.00000000
0.17380189 0.67455992 0.00000000
0.23459465 0.67049984 0.00000630
0.29105301 0.66614248 0.00000778
0.33501892 0.66268020 0.00000000
0.37828698 0.65928515 0.00000000
0.42142861 0.65592219 0.00000000
0.46368783 0.65215451 0.00000000
0.50048961 0.64979326 0.00000000
0.53554351 0.64736535 0.00000000
0.56805261 0.64500970 0.00000781
0.60028222 0.64253260 0.00000251
0.63084965 0.64076187 0.00000196
0.65850722 0.63996027 0.00001044
0.69423403 0.63914885 0.00000074
0.73348094 0.63761003 0.00000000
0.77447028 0.63632409 0.00000000
0.81350534 0.63596818 0.00000592
0.86657643 0.63532419 0.00001057
0.91454730 0.63502093 0.00000069
0.96200111 0.63701210 0.00000314
0.99205040 0.63938833 0.00001130
1.00059217 0.64589119 0.00000000
1.00057076 0.65711526 0.00645710
1.00060345 0.66777682 0.08430124
1.00033802 0.69106389 0.24344548
0.00685838 0.73065194 0.00003926
0.01606192 0.72912628 0.00001740
0.02836017 0.72738817 0.00000000
0.03710127 0.72477576 0.00000000
0.05015307 0.72174909 0.00000000
0.06904465 0.71835225 0.00000000
0.09512538 0.71495938 0.00000000
0.13263535 0.71127073 0.00000000
0.18206272 0.70731966 0.00000000
0.23418926 0.70232145 0.00000800
0.29093691 0.69706547 0.00000271
0.33689388 0.69301308 0.00000589
0.37780186 0.68957364 0.00000684
0.41960917 0.68588370 0.00000000
0.46077716 0.68185040 0.00000000
0.49869116 0.67812361 0.00000000
0.53219782 0.67594027 0.00000129
0.56390113 0.67346934 0.00000683
0.59564354 0.67079233 0.00000012
0.62650463 0.66824936 0.00000657
0.65464460 0.66652821 0.00001069
0.69039143 0.66536649 0.00000000
0.72968636 0.66351645 0.00000000
0.76825056 0.66172623 0.00000000
0.80543857 0.66064060 0.00000000
0.86419636 0.65947234 0.00001135
0.91139841 0.65857046 0.00000179
0.95563858 0.65867200 0.00000011
0.99063192 0.66038249 0.00001078
1.00059207 0.66515476 0.00000000
1.00058318 0.67515157 0.00926585
1.00062361 0.68417069 0.08156747
1.00033817 0.69891743 0.24427008
0.02325846 0.76011023 0.00016161
0.02978832 0.75802051 0.00002657
0.03801286 0.75596511 0.00000000
0.04812846 0.75387039 0.00000000
0.06255107 0.75138466 0.00000000
0.08058333 0.74848280 0.00000000
0.10701185 0.74543399 0.00000000
0.14384087 0.74199238 0.00000000
0.18598270 0.73753931 0.00000679
0.23424160 0.73281335 0.00000605
0.28756260 0.72788179 0.00000031
0.34002312 0.72300998 0.00000246
0.37928742 0.71948109 0.00000058
0.42011675 0.71541242 0.00000380
0.45940046 0.71135904 0.00000716
0.49599721 0.70731594 0.00000672
0.53018377 0.70384090 0.00000465
0.56134975 0.70126728 0.00000494
0.59198488 0.69841922 0.00000000
0.62188697 0.69569682 0.00000679
0.65016501 0.69315838 0.00001098
0.68783756 0.69051794 0.00000000
0.72576813 0.68854449 0.00000000
0.76354859 0.68655119 0.00000000
0.79975578 0.68444497 0.00000000
0.85504744 0.68237730 0.00000944
0.90384668 0.68103122 0.00000776
0.95499942 0.67976977 0.00000267
0.99074167 0.68054109 0.00001104
1.00084823 0.68401182 0.00015766
1.00059513 0.69316937 0.01331419
1.00066329 0.70133437 0.08308963
1.00034020 0.70694986 0.24517037
0.03329658 0.79524498 0.00000000
0.04139575 0.79375519 0.00000000
0.05082651 0.79229414 0.00000000
0.06191258 0.79081196 0.00000000
0.07563128 0.78906386 0.00000000
0.09423240 0.78554663 0.00000000
0.12015410 0.78085141 0.00000000
0.15287673 0.77795600 0.00000594
0.19189166 0.77481138 0.00000741
0.23640867 0.77151716 0.00000247
0.28558987 0.76806632 0.00000032
0.33497984 0.76305800 0.00000435
0.38017819 0.75768113 0.00000369
0.41806339 0.75449272 0.00000001
0.45485945 0.75125786 0.00000233
0.48943002 0.74797074 0.00000680
0.52434440 0.74233309 0.00000618
0.55664650 0.73672310 0.00000166
0.58566582 0.73426872 0.00000488
0.61425559 0.73157844 0.00001136
0.64158326 0.72893541 0.00000154
0.67761389 0.72466110 0.00000563
0.71359449 0.72170028 0.00000428
0.75252064 0.71957848 0.00000000
0.79553748 0.71666616 0.00000000
0.84065048 0.71292069 0.00000000
