public/luts/builtin/fuji_classic_neg.cube
TITLE "Rec709800_sRGB-LA:FLog2_to_CLASSICNeg._LA:FLog2_to_CLASSICNeg."
LUT_3D_SIZE 33
# Rec709 (800%)/sRGB -> LA - :FLog2_to_CLASSIC-Neg./LA - :FLog2_to_CLASSIC-Neg., CineEI Shift 0.00, Black Level -0.01% IRE, Input 100% -> Output 100% - Created with LUTCalc v4.09 by Ben Turley February 2025
0.00000000 0.00000000 0.00000000
0.00000000 0.00000000 0.00000000
0.00000000 0.00004520 0.00000152
0.01980651 0.00128091 0.00004706
0.03691811 0.00232325 0.00004297
0.05532723 0.00311909 0.00001079
0.07176423 0.00411233 0.00000000
0.08700451 0.00502393 0.00000000
0.10628991 0.00656751 0.00003664
0.12648442 0.00853680 0.00002429
0.15066371 0.01138910 0.00000694
0.17881779 0.01380229 0.00000965
0.21042365 0.01675650 0.00000003
0.24945662 0.02206271 0.00004753
0.29360686 0.02791788 0.00004327
0.34950685 0.03388880 0.00000322
0.40988881 0.04161448 0.00000541
0.47767850 0.05037189 0.00000000
0.53914178 0.06030231 0.00000000
0.59706881 0.07019120 0.00000000
0.64822681 0.07979297 0.00000000
0.70165460 0.09250792 0.00000000
0.74216567 0.10427631 0.00000000
0.77902435 0.11686361 0.00000000
0.81323458 0.13063427 0.00000000
0.84431035 0.14658444 0.00000000
0.86911294 0.16449697 0.00004820
0.89498857 0.18598421 0.00320404
0.91815081 0.21199711 0.01844439
0.93900327 0.24818973 0.05029926
0.94395898 0.30027715 0.09564566
0.94890410 0.37512500 0.13816298
0.96266414 0.62871509 0.33772972
0.00000000 0.00000000 0.00000000
0.00000004 0.00000842 0.00000000
0.00771522 0.00121951 0.00000848
0.02356035 0.00330884 0.00000000
0.03680690 0.00516957 0.00000800
0.05576666 0.00695115 0.00000018
0.07441343 0.00886192 0.00000907
0.09357099 0.01134492 0.00001076
0.11258490 0.01458184 0.00000803
0.13490333 0.01836864 0.00000986
0.16010776 0.02247857 0.00000507
0.18976594 0.02718055 0.00003302
0.22372614 0.03236924 0.00000162
0.26535924 0.03738163 0.00000000
0.31223068 0.04434719 0.00000575
0.36702635 0.05267044 0.00001082
0.42520423 0.06145167 0.00000000
0.48612000 0.07029528 0.00000000
0.54535412 0.07938337 0.00000000
0.59618303 0.08875954 0.00000000
0.64342353 0.09757790 0.00000000
0.69676407 0.10921615 0.00000000
0.73849831 0.11950095 0.00000000
0.77661723 0.13137927 0.00000000
0.81128170 0.14538809 0.00000000
0.84235197 0.16000264 0.00000000
0.86776367 0.17709738 0.00000000
0.89417221 0.19757753 0.00659347
0.91758934 0.22285985 0.02135237
0.93876984 0.25921043 0.05338766
0.94443263 0.31119266 0.09925509
0.94924485 0.38344632 0.14178168
0.96283306 0.63151784 0.33976231
0.00000000 0.01124496 0.00102206
0.00000000 0.01282486 0.00000000
0.00747726 0.01447057 0.00000000
0.02464902 0.01568388 0.00000000
0.03978316 0.01769661 0.00000000
0.06082559 0.01960703 0.00000183
0.07793908 0.02291246 0.00000706
0.09695116 0.02709798 0.00001036
0.11727869 0.03079482 0.00001084
0.14090136 0.03390730 0.00000181
0.16738010 0.03820735 0.00000207
0.19789900 0.04375328 0.00000401
0.23343761 0.05016899 0.00000256
0.27578478 0.05675680 0.00000639
0.32354229 0.06384602 0.00000206
0.37838953 0.07153810 0.00000000
0.43340478 0.07942401 0.00000000
0.48826821 0.08809412 0.00000000
0.54168873 0.09677574 0.00000000
0.59297146 0.10544108 0.00000000
0.64016445 0.11338036 0.00000000
0.69320830 0.12359381 0.00000000
0.73547323 0.13395897 0.00000000
0.77431095 0.14584787 0.00000000
0.80944663 0.15867161 0.00001093
0.84066822 0.17276127 0.00000000
0.86666423 0.18941410 0.00153022
0.89339726 0.20865119 0.00864243
0.91713288 0.23362305 0.02450735
0.93844418 0.27012456 0.05628912
0.94490021 0.32201833 0.10282563
0.94957971 0.39183336 0.14557079
0.96300450 0.63429114 0.34179218
0.00000746 0.02920425 0.00411286
0.00224914 0.03075085 0.00388795
0.01287945 0.03158180 0.00390566
0.02851422 0.03382577 0.00225623
0.04359380 0.03606935 0.00084044
0.06285375 0.03866864 0.00000000
0.08148111 0.04143707 0.00000000
0.10122091 0.04502689 0.00004729
0.12180774 0.04882562 0.00000055
0.14600915 0.05330130 0.00000749
0.17316605 0.05788639 0.00000541
0.20433190 0.06271950 0.00000000
0.24081144 0.06832533 0.00000000
0.28287546 0.07435029 0.00000777
0.32921713 0.08123857 0.00001059
0.37936901 0.08885601 0.00000957
0.43337193 0.09647565 0.00000579
0.48777882 0.10459313 0.00000931
0.53904821 0.11226600 0.00001088
0.58903950 0.11986508 0.00000994
0.63638372 0.12765222 0.00000000
0.68995928 0.13839280 0.00000162
0.73288585 0.14829788 0.00000000
0.77231168 0.15894617 0.00000660
0.80792431 0.17111400 0.00000380
0.83957433 0.18477262 0.00000000
0.86583290 0.20074980 0.00305753
0.89276453 0.21987004 0.01079022
0.91677282 0.24504842 0.02740039
0.93815370 0.28123259 0.05935160
0.94541753 0.33310298 0.10662842
0.94991713 0.40057695 0.14957955
0.96318424 0.63713042 0.34389063
0.00000000 0.05109112 0.00997283
0.00446423 0.05225736 0.00973868
0.01786818 0.05376992 0.00844757
0.03234898 0.05601884 0.00687071
0.05068569 0.05863134 0.00583267
0.06848911 0.06106318 0.00440130
0.08563136 0.06366470 0.00257328
0.10507635 0.06706727 0.00162113
0.12670451 0.07092984 0.00107326
0.15124902 0.07451088 0.00000000
0.17872557 0.07826635 0.00000000
0.20938136 0.08259229 0.00000000
0.24509623 0.08788202 0.00000000
0.28610053 0.09338517 0.00004783
0.33152372 0.09979618 0.00003771
0.37951739 0.10662736 0.00004224
0.43102317 0.11348274 0.00004322
0.48357461 0.12046083 0.00000685
0.53454129 0.12817943 0.00000292
0.58518920 0.13619291 0.00000885
0.63266766 0.14402382 0.00001036
0.68632248 0.15431784 0.00000240
0.73030877 0.16336557 0.00001010
0.77044203 0.17372380 0.00000864
0.80644559 0.18549530 0.00000823
0.83833138 0.19870079 0.00000000
0.86505381 0.21402750 0.00485559
0.89219238 0.23296368 0.01330386
0.91618144 0.25853359 0.03104288
0.93795069 0.29461638 0.06300358
0.94597399 0.34611113 0.11084843
0.95034242 0.41126755 0.15429150
0.96340367 0.64051392 0.34641965
0.00176858 0.07546500 0.01699144
0.00862470 0.07676428 0.01652930
0.02082773 0.07799890 0.01531021
0.03469530 0.07957393 0.01295637
0.05324925 0.08183358 0.01209352
0.07172633 0.08400442 0.01101569
0.09016981 0.08619825 0.00895257
0.10907171 0.08935061 0.00736339
0.13070709 0.09309703 0.00619327
0.15590820 0.09646717 0.00537906
0.18332712 0.09980772 0.00424699
0.21343339 0.10315330 0.00320857
0.24798483 0.10762311 0.00116740
0.28726865 0.11254767 0.00000000
0.33119473 0.11834420 0.00000000
0.37766355 0.12484888 0.00000000
0.42849441 0.13190773 0.00000000
0.48050152 0.13902001 0.00000000
0.53080041 0.14657612 0.00001057
0.58136934 0.15415556 0.00001573
0.62851324 0.16176620 0.00000651
0.68238607 0.17192791 0.00000617
0.72693425 0.18088242 0.00001090
0.76778740 0.19069885 0.00000429
0.80464722 0.20185372 0.00000000
0.83699743 0.21467707 0.00000000
0.86428611 0.22973655 0.00708425
0.89097982 0.24878262 0.01750413
0.91554382 0.27452685 0.03544773
0.93737008 0.31052729 0.06747076
0.94660782 0.36132807 0.11580786
0.95083714 0.42391755 0.15990203
0.96366909 0.64450138 0.34944229
0.00419771 0.10065378 0.02581174
0.01086783 0.10140424 0.02461190
0.02377649 0.10271047 0.02171927
0.03660625 0.10425853 0.02030260
0.05696205 0.10527970 0.01874953
0.07506789 0.10707078 0.01751636
0.09402001 0.10927704 0.01654698
0.11272482 0.11184487 0.01497475
0.13456468 0.11410956 0.01375668
0.15942585 0.11695218 0.01220859
0.18663504 0.12035634 0.01035880
0.21693872 0.12419314 0.00860343
0.25044460 0.12861632 0.00603405
0.28830164 0.13341477 0.00389894
0.33171947 0.13913197 0.00151221
0.37700994 0.14571680 0.00046971
0.42707983 0.15225217 0.00011383
0.47817405 0.15882106 0.00006197
0.52798730 0.16589083 0.00000000
0.57887027 0.17334041 0.00000000
0.62534127 0.18076059 0.00001085
0.67869715 0.19084145 0.00000254
0.72448056 0.19944017 0.00004438
0.76585041 0.20930729 0.00000000
0.80294594 0.22033312 0.00004702
0.83552758 0.23269291 0.00485507
0.86316777 0.24807626 0.01098244
0.88979390 0.26715118 0.02277799
0.91496595 0.29297110 0.04248113
0.93674709 0.32871758 0.07280077
0.94748554 0.37811620 0.12089852
0.95137439 0.43830665 0.16646680
0.96397993 0.64904838 0.35294913
0.00660902 0.12592759 0.03275292
0.01478255 0.12642106 0.03119715
0.02711060 0.12777227 0.02926301
0.04087194 0.12862894 0.02742346
0.05956749 0.12960729 0.02599992
0.07961144 0.13107157 0.02531511
0.09740091 0.13344531 0.02459057
0.11617918 0.13555288 0.02274361
0.13731794 0.13804291 0.02130079
0.16184115 0.14085582 0.01913089
0.18890920 0.14427106 0.01733481
0.21874981 0.14818249 0.01523570
0.25221907 0.15211441 0.01332538
0.29018157 0.15678801 0.01024976
0.33275355 0.16227238 0.00665603
0.37733088 0.16812052 0.00431536
0.42783669 0.17398156 0.00276844
0.47818085 0.18038950 0.00233107
0.52729037 0.18703810 0.00207704
0.57667917 0.19382409 0.00130696
0.62213134 0.20089643 0.00031494
0.67602652 0.21092116 0.00000000
0.72197251 0.21953777 0.00000000
0.76391224 0.22963464 0.00185111
0.80147514 0.24087857 0.00447550
0.83424311 0.25351883 0.00890724
0.86241730 0.26885733 0.01631654
0.88955819 0.28829836 0.03024044
0.91423434 0.31433890 0.04982185
0.93618875 0.34899690 0.08015733
0.94839250 0.39693249 0.12686613
0.95197681 0.45407591 0.17372491
0.96433434 0.65410141 0.35692797
0.01065607 0.15548136 0.04166979
0.01860709 0.15540603 0.04021540
0.03214302 0.15621151 0.03793645
0.04675582 0.15713469 0.03621539
0.06359275 0.15793250 0.03405941
0.08213616 0.15934833 0.03374592
0.10182003 0.16068660 0.03246489
0.11955756 0.16251765 0.03095842
0.14108246 0.16469922 0.02939410
0.16523629 0.16714091 0.02705519
0.19200799 0.17029912 0.02556370
0.22246487 0.17357627 0.02342367
0.25539658 0.17748149 0.02133685
0.29294058 0.18196852 0.01845716
0.33421100 0.18698389 0.01528938
0.37831436 0.19268151 0.01119447
0.42881605 0.19825110 0.00827062
0.47920798 0.20402928 0.00593602
0.52847836 0.21041325 0.00464289
0.57714139 0.21732583 0.00384799
0.62197846 0.22448922 0.00348066
0.67519917 0.23376897 0.00342609
0.72064782 0.24229794 0.00442241
0.76297540 0.25313148 0.00672067
0.80024978 0.26430993 0.00995847
0.83311102 0.27683612 0.01458691
0.86179421 0.29235498 0.02291115
0.88900499 0.31286212 0.03663770
0.91385448 0.33818842 0.05856826
0.93623665 0.37151916 0.08829579
0.94932496 0.41806115 0.13385134
0.95271590 0.47151356 0.18123093
0.96473520 0.65968525 0.36143494
0.01698693 0.18667126 0.05611231
0.02702949 0.18629275 0.05452836
0.03788430 0.18703703 0.05254604
0.05338331 0.18721209 0.04980541
0.07090297 0.18780889 0.04719907
0.08795463 0.18898434 0.04571232
0.10528990 0.18991940 0.04217285
0.12362281 0.19145766 0.03998089
0.14556367 0.19323904 0.03696475
0.17000264 0.19517341 0.03445711
0.19656527 0.19797425 0.03276409
0.22641541 0.20122896 0.03117818
0.26026806 0.20485969 0.03014190
0.29773266 0.20941185 0.02753434
0.33829508 0.21444130 0.02501095
0.38208893 0.21968182 0.02210054
0.43106684 0.22527560 0.01783735
0.48037673 0.23128053 0.01455753
0.53019275 0.23733793 0.01216266
0.57965024 0.24349739 0.01054643
0.62402077 0.25055492 0.00964926
0.67722878 0.26017093 0.01019095
0.72184723 0.26891392 0.01172210
0.76271527 0.27912840 0.01351645
0.79964111 0.29032630 0.01750392
0.83270885 0.30354851 0.02302783
0.86195334 0.31961904 0.03182918
0.88854836 0.33954176 0.04674672
0.91356680 0.36359688 0.06795059
0.93601819 0.39607777 0.09719205
0.95029016 0.44063996 0.14208220
0.95350857 0.49005639 0.18962106
0.96508730 0.66592370 0.36570869
0.02464290 0.22068801 0.07079447
0.03421490 0.22032772 0.06893495
0.04756806 0.22030228 0.06629817
0.06153655 0.22046974 0.06383152
0.07738428 0.22084443 0.06120875
0.09473870 0.22136539 0.05827445
0.11094182 0.22237788 0.05544578
0.12946397 0.22352809 0.05297098
0.15134432 0.22521068 0.05070984
0.17488663 0.22730070 0.04815784
0.20221381 0.22969150 0.04554384
0.23208234 0.23300137 0.04379365
0.26555806 0.23637489 0.04082520
0.30382692 0.23964410 0.03707861
0.34451888 0.24443078 0.03477832
0.38832626 0.24979857 0.03196926
0.43600539 0.25540209 0.02909017
0.48332155 0.26125527 0.02587736
0.53302320 0.26766506 0.02401971
0.58176807 0.27449718 0.02328519
0.62661351 0.28154020 0.02274551
0.67945883 0.29028835 0.02248727
0.72262103 0.29904484 0.02269789
0.76247436 0.30954763 0.02434821
0.79970717 0.32027143 0.02771895
0.83326959 0.33363884 0.03335866
0.86248788 0.34908646 0.04329928
0.88868082 0.36785156 0.05834434
0.91337974 0.39125684 0.07742468
0.93579004 0.42281191 0.10700937
0.95140231 0.46447516 0.15116681
0.95441982 0.50979609 0.19901536
0.96543407 0.67266989 0.37012288
0.03274000 0.25799820 0.08682756
0.04465848 0.25766203 0.08410168
0.05783516 0.25751359 0.08165020
0.06973636 0.25770971 0.07935556
0.08404832 0.25802610 0.07686719
0.10131109 0.25848845 0.07424036
0.11783447 0.25916098 0.07147259
0.13628484 0.25995902 0.06873855
0.15781087 0.26145167 0.06698075
0.18150142 0.26332926 0.06432466
0.20825909 0.26555347 0.06137046
0.23865098 0.26835118 0.05952790
0.27243045 0.27129287 0.05565896
0.30985564 0.27457399 0.05164255
0.35079959 0.27821048 0.04811125
0.39622013 0.28323339 0.04506577
0.44324344 0.28946711 0.04204404
0.49002804 0.29590596 0.03956232
0.53884861 0.30206140 0.03731716
0.58605408 0.30877148 0.03576664
0.62961253 0.31589178 0.03476191
0.68147080 0.32421889 0.03442403
0.72356336 0.33228172 0.03443237
0.76310102 0.34219639 0.03511067
0.80029618 0.35286620 0.04035634
0.83376345 0.36565783 0.04742532
0.86259049 0.38052547 0.05700910
0.88827048 0.39913278 0.07047370
0.91339540 0.42146888 0.08945325
0.93559381 0.45041937 0.11759470
0.95259567 0.48875489 0.16053696
0.95543583 0.53068816 0.20939756
0.96580399 0.67980059 0.37494004
0.03960865 0.29864845 0.10493785
0.05351152 0.29836048 0.10246989
0.06780385 0.29820171 0.10021614
0.07911542 0.29835674 0.09811589
0.09271136 0.29863687 0.09580982
0.10841347 0.29896660 0.09328544
0.12609032 0.29940350 0.09068671
0.14427054 0.30010381 0.08786840
0.16517942 0.30115906 0.08486468
0.18914357 0.30249037 0.08170646
0.21574795 0.30464294 0.07892830
0.24600256 0.30724619 0.07613722
0.28064688 0.31019289 0.07351498
0.31849490 0.31356515 0.07051359
0.35941355 0.31746954 0.06708044
0.40421451 0.32182352 0.06390317
0.45190579 0.32671284 0.06086980
0.49833661 0.33291349 0.05770925
0.54586668 0.33901826 0.05492958
0.59157026 0.34537725 0.05242710
0.63388169 0.35194765 0.05070044
0.68464570 0.35992959 0.05004429
0.72599860 0.36799624 0.05023888
0.76502991 0.37714399 0.05146486
0.80186744 0.38723576 0.05574146
0.83466130 0.39992290 0.06177465
0.86299577 0.41444181 0.07093522
0.88809978 0.43218999 0.08408288
0.91350021 0.45236304 0.10276495
0.93670662 0.47888507 0.12823317
0.95375694 0.51354174 0.17082844
0.95649268 0.55198898 0.22072176
0.96619106 0.68723679 0.38014521
0.05115123 0.34260680 0.12516986
0.06452887 0.34238539 0.12269279
0.07767888 0.34223401 0.12048542
0.08997820 0.34224813 0.11843066
0.10206360 0.34215106 0.11605862
0.11642264 0.34233570 0.11360471
0.13424853 0.34267927 0.11107407
0.15414801 0.34320798 0.10835663
0.17507369 0.34403017 0.10566503
0.19857979 0.34518978 0.10230564
0.22575584 0.34662622 0.09906853
0.25551879 0.34911733 0.09557222
0.28948721 0.35184160 0.09233169
0.32782115 0.35485942 0.08934367
0.36917709 0.35864559 0.08562670
0.41324988 0.36280499 0.08195539
0.45922470 0.36722430 0.07860786
0.50717658 0.37200554 0.07566552
0.55342018 0.37796403 0.07263497
0.59758796 0.38435094 0.06985366
0.63909652 0.39042361 0.06814101
0.68901626 0.39813183 0.06744936
0.72897878 0.40613558 0.06710767
0.76723987 0.41495422 0.06827907
0.80358649 0.42449107 0.07174055
0.83590812 0.43606163 0.07658133
0.86392197 0.44923363 0.08649495
0.88834253 0.46564520 0.09885588
0.91325476 0.48399990 0.11551160
0.93670796 0.50794281 0.14160081
0.95497363 0.53879944 0.18189784
0.95762934 0.57401613 0.23164328
0.96659191 0.69497106 0.38577630
0.06284225 0.38833447 0.14628865
0.07501581 0.38806567 0.14369606
0.08798284 0.38765981 0.14153465
0.10106292 0.38732516 0.13941966
0.11235605 0.38718931 0.13664032
0.12628861 0.38727464 0.13367355
0.14396066 0.38728062 0.13066416
0.16423750 0.38703960 0.12770802
0.18512733 0.38760651 0.12471682
0.20837640 0.38859388 0.12145161
0.23564603 0.39000461 0.11828968
0.26677845 0.39180981 0.11522738
0.30026638 0.39446138 0.11180439
0.33838576 0.39763845 0.10813926
0.37958075 0.40120313 0.10449208
0.42348412 0.40521293 0.10073719
0.46856625 0.40965977 0.09719433
0.51525495 0.41443683 0.09424711
0.56132742 0.41946999 0.09126407
0.60461272 0.42541190 0.08819178
0.64545526 0.43092536 0.08674085
0.69349899 0.43808466 0.08567633
0.73259313 0.44534973 0.08494737
0.77018434 0.45328135 0.08633890
0.80533496 0.46215977 0.08911642
0.83706858 0.47277664 0.09288891
0.86468779 0.48407465 0.10114954
0.88864723 0.49930233 0.11305525
0.91328218 0.51549433 0.12994201
0.93680089 0.53697797 0.15588832
0.95612008 0.56644415 0.19396044
0.95872466 0.59625968 0.24325473
0.96704070 0.70293668 0.39185737
0.07444565 0.43589114 0.16775792
0.08650946 0.43542890 0.16543514
0.09864554 0.43502657 0.16325499
0.11117980 0.43466913 0.16115236
0.12332764 0.43444875 0.15847428
0.13742714 0.43413557 0.15561366
0.15433144 0.43378816 0.15257060
0.17390539 0.43353109 0.14946061
0.19625853 0.43355478 0.14629280
0.21957964 0.43452525 0.14292791
0.24647269 0.43588542 0.13917603
0.27759674 0.43745272 0.13556598
0.31223249 0.43952578 0.13170481
0.34988201 0.44230873 0.12726194
0.39005493 0.44564537 0.12306901
0.43377061 0.44924102 0.11927477
0.47942666 0.45321449 0.11591579
0.52453609 0.45764262 0.11277359
0.56882292 0.46228339 0.10974482
0.61184383 0.46709667 0.10688253
0.65243655 0.47186905 0.10523548
0.69849500 0.47868578 0.10355719
0.73606457 0.48542608 0.10229349
0.77304295 0.49200863 0.10374310
0.80740933 0.50000239 0.10627508
0.83850719 0.50948064 0.11010787
0.86551590 0.51925302 0.11722829
0.88912106 0.53261541 0.12861972
0.91387733 0.54693704 0.14646641
0.93767594 0.56678054 0.16922868
0.95658354 0.59321990 0.20624970
0.95964811 0.61895523 0.25572982
0.96750549 0.71107819 0.39841642
0.08756293 0.48243264 0.18852946
0.09896195 0.48202875 0.18618281
0.11035702 0.48167460 0.18398858
0.12160369 0.48117675 0.18201316
0.13531578 0.48070085 0.17971836
0.14898565 0.48040215 0.17686413
0.16528978 0.48006562 0.17370062
0.18422407 0.47980074 0.17043192
0.20671902 0.47977058 0.16764846
0.23109977 0.48033816 0.16445783
0.25767689 0.48149307 0.16066804
0.28822657 0.48290681 0.15681115
0.32367039 0.48474451 0.15292377
0.36119720 0.48709570 0.14857889
0.40054081 0.48992414 0.14399569
0.44404140 0.49311338 0.13968827
0.48987215 0.49632902 0.13589791
0.53452412 0.50007220 0.13219272
0.57710457 0.50432022 0.12860497
0.61944964 0.50853193 0.12597429
0.65897551 0.51276366 0.12386477
0.70427154 0.51871281 0.12158703
0.74062942 0.52470574 0.12048916
0.77663026 0.53046359 0.12245503
0.80992648 0.53731422 0.12454516
0.84028162 0.54546120 0.12874038
0.86649243 0.55417128 0.13672583
0.89003271 0.56569225 0.14575794
0.91451578 0.57934307 0.16083367
0.93841930 0.59690400 0.18288749
0.95702398 0.61883813 0.21858572
0.96054213 0.64137378 0.26897551
0.96796536 0.71921989 0.40541956
0.10110033 0.52762805 0.20975102
0.11118058 0.52706519 0.20758842
0.12132617 0.52654981 0.20554986
0.13283789 0.52606285 0.20355870
0.14744343 0.52553364 0.20130206
0.16107803 0.52522079 0.19842685
0.17690655 0.52488704 0.19519008
0.19545857 0.52474130 0.19244878
0.21753703 0.52468274 0.18963353
0.24336552 0.52473522 0.18684704
0.26994434 0.52563885 0.18309836
0.30074474 0.52706143 0.17881582
0.33542175 0.52869625 0.17464658
0.37325402 0.53050871 0.17056695
0.41259012 0.53287633 0.16582530
0.45634984 0.53550395 0.16156106
0.50056845 0.53842090 0.15738580
0.54479214 0.54150101 0.15350467
0.58698161 0.54501925 0.14985458
0.62826138 0.54862208 0.14774496
0.66597224 0.55238580 0.14553322
0.70970830 0.55770440 0.14245722
0.74556697 0.56267722 0.14132506
0.77987338 0.56809050 0.14273077
0.81198663 0.57441810 0.14459843
0.84185604 0.58135228 0.14780191
0.86732293 0.58944982 0.15414904
0.89093449 0.59933655 0.16243423
0.91524988 0.61063024 0.17573371
0.93889973 0.62550202 0.19812718
0.95779461 0.64410130 0.23193792
0.96152020 0.66298341 0.28286276
0.96840942 0.72735534 0.41278378
0.11330170 0.57015381 0.23281559
0.12299351 0.56966971 0.23059190
0.13358443 0.56922335 0.22848018
0.14500232 0.56879859 0.22640271
0.15903251 0.56833318 0.22403007
0.17386190 0.56796574 0.22130594
0.18929850 0.56776425 0.21841526
0.20761444 0.56761285 0.21539770
0.22940953 0.56753078 0.21227581
0.25482544 0.56753951 0.20914323
0.28369015 0.56805712 0.20565941
0.31413705 0.56932067 0.20106808
0.34778818 0.57076560 0.19637406
0.38444107 0.57237904 0.19182134
0.42638394 0.57449608 0.18740622
0.46837439 0.57681546 0.18286831
0.51069974 0.57946486 0.17821937
0.55301198 0.58231141 0.17377408
0.59591116 0.58534426 0.17067032
0.63648413 0.58864819 0.16823746
0.67226599 0.59214826 0.16582962
0.71399612 0.59701823 0.16238791
0.74888485 0.60076755 0.16151095
0.78225567 0.60513835 0.16194594
0.81341837 0.61055413 0.16343847
0.84316785 0.61603135 0.16677087
0.86841955 0.62243485 0.17179964
0.89202234 0.63071761 0.18023642
0.91602609 0.64011216 0.19304241
0.93940452 0.65270296 0.21398935
0.95892538 0.67032483 0.24611890
0.96260044 0.68443427 0.29637816
0.96884527 0.73548347 0.42049267
0.12698112 0.61063622 0.25436458
0.13721547 0.61021649 0.25213314
0.14757413 0.60984215 0.25006556
0.15802856 0.60953610 0.24821186
0.17097719 0.60920148 0.24608993
0.18654353 0.60885625 0.24364088
0.20180105 0.60864830 0.24063888
0.21984934 0.60848752 0.23753387
0.24126887 0.60837888 0.23429397
0.26669845 0.60847925 0.23103574
0.29628535 0.60869216 0.22777318
0.32714672 0.60953270 0.22355904
0.35971130 0.61075755 0.21850590
0.39642548 0.61231878 0.21353648
0.43805370 0.61430658 0.20870989
0.48024936 0.61641810 0.20406522
0.52087547 0.61854746 0.19929909
0.56196802 0.62099974 0.19474741
0.60419049 0.62362149 0.19197472
0.64402670 0.62639248 0.18939611
0.67928228 0.62932773 0.18688225
0.71913990 0.63314744 0.18398553
0.75270858 0.63598521 0.18313124
0.78498018 0.63938327 0.18247961
0.81527358 0.64371478 0.18291533
0.84470645 0.64813567 0.18668969
0.86936979 0.65351739 0.19166273
0.89315507 0.66027186 0.19925547
0.91628964 0.66908270 0.21117113
0.93978806 0.67964377 0.22870424
0.95861041 0.69403178 0.26078850
0.96386203 0.70505173 0.31022622
0.96925554 0.74372096 0.42776977
0.14131800 0.64698172 0.27751444
0.15077600 0.64667410 0.27549907
0.16039314 0.64638781 0.27356610
0.17057970 0.64611284 0.27164689
0.18311794 0.64580909 0.26943893
0.19884221 0.64549161 0.26699404
0.21499829 0.64526341 0.26403153
0.23293361 0.64512934 0.26080905
0.25446363 0.64513836 0.25744211
0.27963557 0.64520941 0.25401113
0.30864254 0.64535491 0.25055583
0.34099521 0.64565522 0.24698416
0.37311385 0.64677296 0.24182273
0.41062619 0.64836793 0.23641498
0.45060200 0.65007509 0.23121642
0.49127194 0.65187189 0.22621291
0.53188696 0.65374136 0.22130650
0.57300636 0.65568810 0.21778891
0.61325281 0.65788441 0.21461646
0.65122491 0.66020175 0.21164649
0.68567529 0.66259607 0.20892820
0.72494219 0.66539733 0.20659052
0.75682770 0.66793622 0.20523318
0.78772244 0.67111157 0.20372891
0.81730504 0.67463845 0.20291319
0.84560040 0.67834883 0.20601643
0.86959937 0.68329936 0.21035827
0.89350697 0.68885196 0.21709949
0.91650036 0.69586956 0.22804207
0.94015007 0.70422261 0.24474252
0.95831772 0.71561155 0.27620835
0.96518362 0.72439542 0.32377104
0.96966720 0.75182836 0.43509753
0.15921483 0.68897941 0.30868041
0.16835630 0.68872932 0.30664907
0.17763125 0.68849431 0.30468889
0.18748134 0.68826626 0.30273123
0.19984377 0.68801072 0.30046041
0.21501909 0.68792851 0.29788528
0.23268536 0.68796597 0.29492758
0.25047495 0.68791783 0.29153657
0.27166403 0.68790351 0.28793572
0.29610609 0.68795265 0.28424917
0.32407153 0.68805835 0.28048912
0.35572629 0.68865976 0.27635008
0.39007939 0.68970366 0.27177142
0.42610914 0.69101844 0.26575867
0.46340594 0.69242595 0.25991772
0.50156013 0.69393306 0.25425298
0.54269881 0.69581867 0.24947074
0.58347192 0.69778438 0.24530100
0.62112019 0.69955370 0.24164825
0.65667486 0.70153780 0.23797305
0.68925820 0.70353163 0.23473779
0.72982631 0.70562378 0.23292999
0.76164818 0.70766785 0.23136897
0.79098653 0.71004630 0.22972638
0.81989765 0.71233262 0.22971058
