public/luts/builtin/fuji_eterna.cube
TITLE "Rec709800_sRGB-LA:FLog2_to_ETERNA_LA:FLog2_to_ETERNA"
LUT_3D_SIZE 9
# Rec709 (800%)/sRGB -> LA - :FLog2_to_ETERNA/LA - :FLog2_to_ETERNA, CineEI Shift 0.00, Black Level 0.56% IRE, Input 100% -> Output 100% - Created with LUTCalc v4.09 by Ben Turley February 2025
0.00582973 0.00582973 0.00582973
0.08300926 0.00669541 0.01518405
0.17085382 0.00720702 0.02888880
0.27721881 0.02916871 0.04066775
0.42472013 0.07256090 0.05557622
0.57174149 0.11368912 0.07039842
0.71239106 0.17037353 0.07991629
0.88315121 0.26857473 0.08857085
0.93454522 0.60729684 0.20175637
0.01265662 0.10377196 0.00000000
0.11205299 0.11173054 0.00145479
0.20230004 0.12280368 0.01318176
0.31364937 0.13843974 0.02751868
0.44271229 0.16054606 0.04248478
0.56356616 0.18616769 0.05595863
0.70439890 0.22945229 0.06893566
0.87608019 0.31411321 0.07906502
0.93491413 0.61600135 0.21030419
0.07516073 0.22724631 0.00000000
0.14767198 0.22780776 0.00000000
0.23043622 0.23182794 0.00173666
0.33214172 0.24118964 0.01248334
0.45132785 0.25593573 0.02726730
0.56432429 0.27583477 0.04068948
0.70062311 0.31100685 0.05466024
0.86644397 0.38649007 0.06826370
0.93554362 0.63021921 0.22543192
0.15210757 0.36391114 0.04545227
0.20311721 0.36177387 0.04324174
0.27370544 0.36220195 0.03221347
0.36777741 0.36715069 0.02623924
0.47621356 0.37686392 0.02949821
0.57732129 0.39400823 0.02610028
0.70298301 0.42285133 0.03885991
0.85788842 0.48144842 0.05673628
0.93612522 0.64999336 0.24165214
0.22892554 0.51924400 0.09365942
0.27094159 0.51646398 0.09217001
0.33414782 0.51372018 0.09023101
0.42159780 0.51402242 0.08923939
0.51570462 0.51796173 0.08462162
0.60530024 0.52661428 0.07988543
0.71083789 0.54326982 0.07525640
0.85087269 0.57888962 0.07463228
0.93700344 0.67382584 0.26221049
0.30989829 0.64897665 0.14394034
0.34497091 0.64619061 0.14390908
0.40158270 0.64314815 0.14419702
0.47542548 0.64034815 0.14463696
0.55495568 0.63985008 0.14497009
0.63205117 0.64085527 0.14504972
0.72279882 0.64766560 0.13942266
0.84832733 0.66611987 0.12750245
0.93826245 0.70056846 0.28263768
0.41699637 0.77349938 0.22254600
0.44392992 0.77179109 0.22268132
0.48601850 0.76843355 0.22281215
0.53994576 0.76528897 0.22270140
0.60164075 0.76233076 0.22195479
0.66348812 0.76025822 0.22067492
0.74133699 0.75866539 0.21915203
0.84924555 0.76115003 0.21704701
0.94055988 0.74164071 0.31637376
0.55149230 0.88638447 0.33941371
0.56645770 0.88537758 0.33936257
0.59172780 0.88362581 0.33936827
0.62510535 0.88141005 0.33900688
0.66342798 0.87896349 0.33838049
0.70477847 0.87601712 0.33782019
0.76506149 0.87213995 0.33504376
0.84685523 0.86689272 0.32909120
0.94555133 0.80212480 0.37367715
0.79112193 1.00036039 0.64234016
0.79247525 1.00040742 0.64221905
0.79481779 1.00048736 0.64200794
0.79838255 1.00060450 0.64168345
0.80314179 1.00074954 0.64124537
0.80900628 1.00090407 0.64070101
0.81857641 1.00099539 0.63987204
0.83859292 1.00088537 0.63764133
0.96725093 1.00048459 0.59037647
0.00784789 0.00997959 0.07468365
0.09653616 0.00946619 0.07961066
0.19462452 0.01268961 0.09427714
0.31360074 0.03711108 0.10647734
0.46791238 0.07685803 0.10378875
0.59832228 0.11742989 0.10144611
0.73223468 0.17504907 0.10263640
0.89233071 0.27392423 0.09751652
0.93649208 0.60834325 0.25011799
0.01569345 0.12056607 0.11745431
0.12383957 0.12383957 0.12383957
0.22414841 0.13058812 0.12098175
0.33947732 0.14517106 0.12001341
0.46814180 0.16491150 0.11866711
0.58730417 0.19094218 0.11416849
0.72390574 0.23508942 0.10572239
0.88640750 0.31971196 0.09664404
0.93681455 0.61686698 0.25514108
0.07015448 0.24325661 0.14462437
0.15648853 0.24088517 0.14472425
0.24602875 0.24237237 0.14176852
0.35333928 0.24849037 0.14048228
0.47374452 0.26230583 0.14037010
0.58629639 0.28176223 0.13734357
0.71940832 0.31706938 0.12536636
0.87580117 0.39168996 0.10463589
0.93736968 0.63079440 0.26394182
0.15253024 0.37936235 0.16855135
0.20860887 0.37643923 0.16699149
0.28519521 0.37377317 0.16543092
0.38421739 0.37631263 0.16439890
0.49503194 0.38550425 0.16433805
0.59780083 0.39979384 0.16302375
0.71971704 0.42775904 0.15607939
0.86687536 0.48341757 0.13415544
0.93808155 0.64987709 0.27588998
0.23094933 0.52860516 0.19639851
0.27517550 0.52520408 0.19480016
0.34118789 0.52191331 0.19355676
0.43177440 0.52063888 0.19211495
0.52674986 0.52372773 0.19225585
0.61700253 0.52994638 0.19106318
0.72274329 0.54458099 0.18859171
0.85999239 0.57855145 0.17669559
0.93892558 0.67350736 0.29287339
0.31052958 0.65192234 0.23309147
0.34719163 0.64896837 0.23185083
0.40513972 0.64601727 0.23093979
0.48082583 0.64290529 0.23085477
0.56106054 0.64089862 0.23031723
0.63915455 0.64117355 0.22929058
0.72939830 0.64731798 0.22703891
0.85500039 0.66429844 0.21753617
0.94011431 0.70022149 0.31213042
0.41646444 0.77185359 0.29319211
0.44384984 0.77009266 0.29268125
0.48697679 0.76707776 0.29203744
0.54179642 0.76416496 0.29105995
0.60484410 0.76123453 0.28917846
0.66691018 0.75874976 0.28636311
0.74478279 0.75724518 0.28309026
0.85327093 0.75945607 0.27733138
0.94228720 0.74076940 0.34211658
0.55055489 0.88434251 0.38916505
0.56599399 0.88340362 0.38902652
0.59122064 0.88163175 0.38855841
0.62548697 0.87931625 0.38775735
0.66459362 0.87668865 0.38625343
0.70592074 0.87362964 0.38432399
0.76612708 0.86972433 0.37987574
0.84826995 0.86433688 0.37033147
0.94697368 0.80135545 0.39531534
0.79095795 1.00014938 0.64711397
0.79231226 1.00020011 0.64699211
0.79465652 1.00028708 0.64677964
0.79822362 1.00041651 0.64645295
0.80298541 1.00058109 0.64601166
0.80885203 1.00076475 0.64546293
0.81840349 1.00100204 0.64455920
0.83844226 1.00093502 0.64228679
0.96766204 1.00035836 0.59584028
0.01225443 0.02364894 0.15004402
0.11088434 0.02567823 0.16144265
0.21796765 0.03263997 0.18711039
0.35290182 0.06016334 0.21602221
0.51213186 0.09462952 0.23825811
0.63477853 0.13365423 0.24762252
0.76551063 0.18705445 0.25116227
0.90868711 0.28208056 0.23154012
0.93881686 0.61055283 0.30521857
0.02082109 0.14199488 0.21517611
0.13228960 0.14450158 0.22575861
0.24308698 0.15043294 0.23344355
0.36835394 0.16210513 0.24122673
0.50144426 0.17996197 0.24939918
0.62017331 0.20526112 0.25590955
0.75494175 0.24704006 0.25798196
0.90254500 0.32758692 0.24158891
0.93901582 0.61875624 0.30945686
0.05450876 0.26581341 0.26325725
0.15926683 0.26304363 0.26271557
0.26217787 0.26217787 0.26217787
0.37635545 0.26713620 0.26101418
0.50020128 0.27951836 0.26437156
0.61408964 0.29692416 0.26707518
0.74493965 0.32957600 0.26745510
0.89110209 0.39857759 0.25452517
0.93936154 0.63216193 0.31685722
0.14505814 0.40591326 0.29244719
0.21187047 0.40113964 0.28871131
0.29532799 0.39681462 0.28587014
0.40354579 0.39572531 0.28505989
0.51451478 0.40233657 0.28390612
0.61822119 0.41414876 0.28540357
0.73786467 0.43914022 0.28085722
0.87931832 0.48838467 0.27169602
0.94011032 0.65099027 0.32697946
0.22928984 0.54462030 0.31908148
0.27708102 0.54057704 0.31609808
0.34809977 0.53649078 0.31279614
0.44254077 0.53407825 0.30933047
0.53990446 0.53502333 0.30847159
0.63017909 0.53971504 0.30537611
0.73755443 0.55061214 0.30061840
0.87029369 0.58092131 0.29201467
0.94144247 0.67383320 0.34082821
0.30908701 0.65872252 0.34800593
0.34794073 0.65512585 0.34593338
0.40894293 0.65121216 0.34311261
0.48649506 0.64797040 0.33990303
0.56835683 0.64581881 0.33780055
0.64720253 0.64567083 0.33430142
0.74011605 0.65027723 0.32939502
0.86360139 0.66437808 0.31848906
0.94299514 0.69967682 0.35715678
0.41411503 0.77218662 0.39245365
0.44258968 0.77025633 0.39156376
0.48667220 0.76728771 0.38995522
0.54407783 0.76435734 0.38674917
0.60822090 0.76121627 0.38373053
0.67091552 0.75819262 0.37925732
0.75060940 0.75640544 0.37313411
0.85816183 0.75769869 0.36262553
0.94498314 0.73962247 0.38358733
0.54721491 0.88058754 0.45694255
0.56302725 0.87972784 0.45690353
0.58902730 0.87809800 0.45657801
0.62449117 0.87600159 0.45554929
0.66508550 0.87353050 0.45326541
0.70700107 0.87024425 0.45069635
0.76688714 0.86638905 0.44571133
0.85085779 0.86014540 0.43391808
0.94888159 0.79969588 0.42943616
0.79068645 0.99976532 0.65505743
0.79204199 0.99982001 0.65493398
0.79438900 0.99991488 0.65471868
0.79795986 1.00005897 0.65438746
0.80272573 1.00024827 0.65393972
0.80859569 1.00047083 0.65338239
0.81815665 1.00078996 0.65246289
0.83817556 1.00100529 0.65010000
0.96837130 1.00012773 0.60499590
0.01769613 0.04309716 0.21074875
0.12884654 0.04773378 0.23393518
0.24607140 0.06328589 0.27370144
0.39808346 0.08488972 0.31982239
0.55228141 0.12081275 0.35371528
0.66895636 0.15567980 0.36948497
0.79349289 0.20640047 0.38176458
0.92420115 0.29594921 0.37401356
0.94261616 0.61437390 0.37461937
0.02693126 0.16786407 0.32557560
0.13911617 0.16959144 0.34306321
0.26352663 0.17496902 0.35323314
0.40072291 0.18456885 0.36276255
0.53503616 0.20187811 0.37290426
0.65279343 0.22603086 0.38251259
0.78211563 0.26510461 0.38910735
0.91675092 0.34248868 0.37929524
0.94272491 0.62209878 0.37808621
0.05705480 0.29752511 0.40016399
0.16209775 0.29120854 0.39666322
0.27449797 0.28899861 0.39295373
0.40020151 0.29233483 0.39351538
0.53006491 0.30315601 0.39553071
0.64221025 0.31932683 0.39906374
0.76853413 0.34976729 0.39816276
0.90478748 0.41234802 0.38773032
0.94296497 0.63488771 0.38427419
0.13500387 0.43658882 0.43271369
0.21227411 0.43115494 0.43038033
0.30594062 0.42496361 0.42496926
0.42168843 0.42168843 0.42168843
0.53623347 0.42680466 0.41881627
0.64003020 0.43602312 0.41723250
0.75676896 0.45496882 0.41106151
0.89076639 0.49865883 0.39920648
0.94387936 0.65287064 0.39291801
0.22443279 0.56505004 0.45829352
0.27599211 0.56023977 0.45459571
0.35253937 0.55414712 0.44904681
0.45255142 0.55100772 0.44412363
0.55315179 0.54952802 0.44148847
0.64444242 0.55282940 0.43460829
0.74967969 0.56195077 0.42811785
0.88013036 0.58666583 0.41375865
0.94507593 0.67503351 0.40435792
0.30308833 0.66896150 0.47587586
0.34569868 0.66529420 0.47424673
0.40977642 0.66062784 0.47124971
0.49171410 0.65575830 0.46768609
0.57669015 0.65322992 0.46371305
0.65586106 0.65260787 0.45782402
0.75087267 0.65522200 0.44950950
0.87124882 0.66605725 0.43343253
0.94641905 0.69986704 0.41787943
0.40769146 0.77274235 0.49863743
0.43799872 0.77081503 0.49804218
0.48514036 0.76792597 0.49722839
0.54431094 0.76487467 0.49452701
0.61021503 0.76184614 0.49092634
0.67494554 0.75742490 0.48720674
0.75697618 0.75560726 0.48031027
0.86386320 0.75663668 0.46528652
0.94807441 0.73848555 0.43980063
0.54150168 0.87586492 0.53352071
0.55780087 0.87508304 0.53349173
0.58448081 0.87371552 0.53339142
0.62067849 0.87185837 0.53245297
0.66227128 0.86955755 0.53049463
0.70595369 0.86642584 0.52790517
0.76723410 0.86275763 0.52295231
0.85219485 0.85627857 0.51000980
0.95136137 0.79785837 0.47668883
0.79010616 0.99943830 0.66719832
0.79145944 0.99949564 0.66707711
0.79380640 0.99959596 0.66686575
0.79737625 0.99975046 0.66654071
0.80213876 0.99995767 0.66610155
0.80800067 1.00020851 0.66555524
0.81755637 1.00058797 0.66465480
0.83753086 1.00092893 0.66253450
0.96943833 0.99975973 0.61833427
0.02714886 0.06606453 0.27747538
0.15360852 0.07391517 0.31907399
0.27746572 0.09121655 0.37543986
0.44318701 0.11744214 0.44432155
0.59048735 0.14997341 0.48287628
0.70279017 0.18061028 0.50211030
0.82128986 0.23096331 0.51704195
0.93538464 0.31440199 0.50920570
0.94718971 0.62056220 0.45041896
0.03449061 0.19855803 0.45798059
0.14839185 0.19997266 0.47790919
0.28664690 0.20327851 0.48814188
0.43234529 0.21305997 0.49834552
0.57010587 0.22949961 0.50944652
0.68299763 0.25214662 0.51805585
0.80603949 0.28875474 0.52429822
0.92769767 0.35968948 0.51369877
0.94727331 0.62797703 0.45317639
0.05599333 0.33214345 0.53267312
0.16175202 0.32650128 0.52985389
0.28904171 0.32307447 0.52943565
0.42519895 0.32329087 0.53059417
0.55721395 0.33087439 0.53342828
0.66707711 0.34463925 0.53530393
0.78948682 0.37241701 0.53309271
0.91598628 0.42840643 0.51916800
0.94740867 0.64014055 0.45797423
0.11413810 0.46902498 0.55753458
0.21196427 0.46310615 0.55854317
0.31323669 0.45605119 0.55504085
0.43570759 0.45200622 0.55305275
0.55505649 0.45356532 0.55107204
0.65850803 0.45971311 0.54787519
0.77214306 0.47560274 0.54144749
0.90177172 0.51106514 0.52691287
0.94818697 0.65699548 0.46475152
0.20839552 0.58683211 0.57430445
0.26974250 0.58187985 0.57312108
0.35510032 0.57576863 0.57007668
0.45970613 0.57015786 0.56578856
0.56503992 0.56503992 0.56503992
0.65777680 0.56817773 0.56053462
0.76161017 0.57485070 0.55319751
0.88968351 0.59462734 0.53616608
0.94894104 0.67800209 0.47353800
0.29224271 0.67942297 0.58435011
0.33821453 0.67600936 0.58307332
0.40539181 0.67177851 0.58171016
0.49278947 0.66697208 0.57938260
0.58233611 0.66290332 0.57609746
0.66302440 0.66087086 0.57156432
0.75925928 0.66191081 0.56441543
0.87903241 0.67038846 0.54661260
0.94968932 0.70172867 0.48373289
0.39720088 0.77562871 0.59329711
0.42863939 0.77355405 0.59341525
0.47786505 0.77081895 0.59304778
0.54115374 0.76755474 0.59167902
0.61113497 0.76367975 0.59020978
0.67745305 0.75935562 0.58579860
0.75987096 0.75678128 0.57942542
0.86872240 0.75692663 0.56523445
0.95099941 0.73894650 0.50058523
0.53167887 0.87096196 0.60690225
0.54869305 0.87024364 0.60712377
0.57679235 0.86905563 0.60751185
0.61391201 0.86722500 0.60663748
0.65735551 0.86475300 0.60526160
0.70261741 0.86184340 0.60340738
0.76587141 0.85834510 0.59895421
0.85165869 0.85211223 0.58646024
0.95410990 0.79652150 0.52844883
0.78931645 0.99880587 0.68271068
0.79062171 0.99888878 0.68260897
0.79289499 0.99903753 0.68243161
0.79635475 0.99927431 0.68215887
0.80097097 0.99960281 0.68179039
0.80674896 0.99994282 0.68128191
0.81635856 1.00035807 0.68034785
0.83651339 1.00075685 0.67814218
0.97082364 0.99926656 0.63499383
0.06616470 0.08959369 0.37371487
0.18242397 0.10319216 0.42921354
0.31296469 0.12320163 0.50126675
0.48871835 0.15319280 0.57894680
0.62503035 0.18028379 0.60923459
0.73357326 0.21151585 0.62686613
0.84385196 0.25651802 0.63902090
0.94456475 0.33731876 0.62847591
0.95153211 0.62834379 0.52244235
0.04275265 0.23604345 0.58731592
0.16472519 0.23569237 0.60170151
0.30837784 0.23835998 0.61341544
0.46299255 0.24627621 0.62453987
0.60076607 0.26085414 0.63427594
0.71029074 0.28162051 0.64146996
0.82509241 0.31544949 0.64515800
0.93625509 0.38190897 0.63128753
0.95175574 0.63498199 0.52452144
0.06193035 0.37206299 0.64294926
0.16087250 0.36449795 0.64320793
0.30172887 0.35922670 0.64682079
0.44587197 0.35924101 0.64936399
0.58049617 0.36494226 0.65221481
0.68870360 0.37592192 0.65322510
0.80432354 0.39869610 0.64903345
0.92519387 0.44843588 0.63420790
0.95199461 0.64622865 0.52819003
0.10426692 0.50092431 0.65962804
0.20192461 0.49425732 0.66241474
0.31568592 0.48786223 0.66264295
0.44596855 0.48231093 0.66271712
0.56859300 0.48227623 0.66213569
0.67281067 0.48547922 0.65856781
0.78545445 0.49666441 0.65349536
0.91124249 0.52580407 0.63688868
0.95223760 0.66238031 0.53329380
0.19271295 0.60796929 0.66854353
0.26068742 0.60314806 0.66892975
0.35027269 0.59685775 0.66870346
0.46298230 0.59131633 0.66793086
0.57175344 0.58706223 0.66705520
0.66637442 0.58538121 0.66335896
0.77149094 0.58926838 0.65624183
0.89640754 0.60506094 0.64060750
0.95265646 0.68265886 0.54026801
0.27458070 0.69018997 0.67040589
0.32660770 0.68701336 0.67088983
0.39710814 0.68269869 0.67119140
0.49025736 0.67799228 0.67088071
0.58448919 0.67349838 0.66998038
0.66891052 0.66891052 0.66891052
0.76430255 0.66979476 0.65955115
0.88349101 0.67574314 0.64510542
0.95321487 0.70545062 0.54793758
0.38057199 0.77821539 0.67233939
0.41509016 0.77619169 0.67307500
0.46708357 0.77356995 0.67339145
0.53564564 0.76998630 0.67418171
0.60761891 0.76695789 0.67332310
0.67726538 0.76263256 0.67068180
0.76186040 0.75911112 0.66556068
0.87046989 0.75785649 0.65208135
0.95414401 0.73995183 0.55921706
0.51797184 0.86663053 0.66995601
0.53577810 0.86574066 0.67073968
0.56481620 0.86427010 0.67205313
0.60408229 0.86243823 0.67167676
0.65045629 0.86036498 0.67102584
0.69785740 0.85806996 0.67002601
0.76200486 0.85425600 0.66530653
0.85112639 0.84780673 0.65482920
0.95737205 0.79555457 0.58020582
0.78879284 0.99805574 0.70004326
0.79009700 0.99810664 0.69993773
0.79237200 0.99820546 0.69975361
0.79583718 0.99838034 0.69947015
0.80045918 0.99865450 0.69908657
0.80614355 0.99904214 0.69860840
0.81542321 0.99973627 0.69782765
0.83537030 1.00049039 0.69581866
0.97191440 0.99885509 0.65453804
0.11868367 0.13814465 0.54641171
0.22878941 0.15503935 0.60428156
0.37243225 0.17680885 0.68084323
0.53545657 0.20447700 0.73555548
0.66433637 0.22938192 0.75530783
0.76434990 0.25655939 0.76686579
0.86609553 0.29924154 0.77242185
0.95267431 0.37139676 0.75713624
0.95528232 0.64215775 0.60960048
0.06789581 0.29140951 0.72996041
0.17975407 0.29071638 0.73969042
0.33780546 0.29183597 0.75208023
0.49684076 0.29625557 0.76248793
0.63336385 0.30921871 0.77244348
0.73791091 0.32683531 0.77617327
0.84435294 0.35565481 0.77455442
0.94503670 0.41465773 0.75820562
0.95562852 0.64796846 0.61105895
0.07190386 0.42334089 0.75901133
0.15849624 0.41694515 0.76183349
0.31149372 0.41171953 0.77087184
0.46752129 0.40870269 0.77698379
0.60255828 0.41161633 0.77919659
0.70864413 0.41943768 0.77858631
0.82156033 0.43722820 0.77530761
0.93432938 0.47542595 0.75822679
0.95617457 0.65753523 0.61350915
0.09065682 0.53931229 0.76605993
0.17389492 0.53361050 0.76969960
0.31087904 0.52656914 0.77483480
0.45255508 0.52058857 0.77843979
0.58202933 0.51791205 0.77915591
0.68731220 0.51886573 0.77735923
0.79654599 0.52598609 0.77204878
0.91986486 0.54635297 0.75718394
0.95655093 0.67199082 0.61670637
0.14561781 0.63160651 0.76524645
0.22533899 0.62696814 0.76835098
0.33557554 0.62173201 0.77161121
0.45800394 0.61661086 0.77397542
0.57524657 0.61173320 0.77641099
0.67285789 0.60961362 0.77393963
0.77861154 0.61008271 0.76988089
0.90384151 0.61914605 0.75427499
0.95677943 0.69028027 0.62156890
0.25251549 0.70354616 0.76389933
0.30007131 0.70068010 0.76580297
0.38022486 0.69642883 0.76939647
0.48075748 0.69202697 0.77135576
0.58039479 0.68792665 0.77225761
0.66901967 0.68432834 0.77126682
0.76928910 0.68138095 0.76591037
0.88812361 0.68437013 0.75139974
0.95762148 0.71065208 0.62665684
0.34978742 0.78013809 0.75728654
0.38971510 0.77867258 0.75860593
0.44515477 0.77660788 0.75986771
0.51952430 0.77320076 0.76202521
0.59725639 0.76984256 0.76269093
0.67163861 0.76503309 0.76178309
0.76007913 0.76007913 0.76007913
0.87041130 0.75816232 0.74748683
0.95936389 0.74302234 0.63439306
0.49323425 0.86075439 0.74174024
0.51249323 0.86004255 0.74274921
0.54386791 0.85887704 0.74442103
0.58708423 0.85722763 0.74588535
0.63659140 0.85490626 0.74603071
0.68656266 0.85252637 0.74552657
0.75307672 0.84927747 0.74349922
0.84575833 0.84291752 0.73373158
0.96101565 0.79512515 0.64702081
0.78636015 0.99786199 0.72713842
0.78765840 0.99785434 0.72705514
0.78992002 0.99784365 0.72690982
0.79339536 0.99783517 0.72668611
0.79802964 0.99784314 0.72638338
0.80374106 0.99791857 0.72595450
0.81309775 0.99832253 0.72517217
0.83354470 0.99918587 0.72334004
0.97407701 0.99798315 0.68535092
0.19837763 0.25464367 0.82695765
0.30912917 0.27215002 0.86215721
0.44732618 0.28519345 0.88400972
0.58807084 0.29830331 0.89871939
0.70119492 0.31799854 0.90952115
0.78991803 0.34134258 0.91368372
0.88210505 0.37471484 0.91295331
0.95914050 0.43035332 0.89392601
0.96165335 0.66178563 0.70989332
0.10954684 0.38484686 0.87468652
0.22536393 0.38213756 0.88379844
0.37981969 0.38060520 0.89696678
0.53435898 0.38528147 0.90841729
0.66065468 0.39395811 0.91338643
0.76258407 0.40622870 0.91421588
0.85971624 0.42731374 0.91194630
0.95364658 0.46727433 0.89362704
0.96187462 0.66786972 0.71144981
0.09028750 0.49471268 0.88196723
0.16311429 0.49017636 0.88595589
0.32141120 0.48568195 0.89811502
0.48330659 0.48220472 0.90715209
0.62056649 0.48299539 0.90979218
0.72574718 0.48606572 0.91028154
0.83302933 0.49706958 0.90768425
0.94293879 0.51907062 0.89153584
0.96216785 0.67741421 0.71383100
0.09522858 0.58796820 0.88012215
0.14966113 0.58386541 0.88127947
0.30117721 0.57794279 0.89146571
0.45198584 0.57239280 0.89897294
0.58675153 0.56923179 0.90336592
0.69481890 0.56814302 0.90342663
0.80412515 0.56951759 0.89975561
0.92670618 0.57927715 0.88701956
0.96243582 0.69021580 0.71696114
0.11982149 0.66095139 0.87024869
0.17338816 0.65790307 0.87289686
0.29612988 0.65294129 0.87996760
0.43610272 0.64738979 0.88619179
0.56326567 0.64297988 0.89165577
0.66840851 0.64137753 0.89422532
0.78086970 0.63967300 0.89147446
0.90528513 0.64067982 0.87934174
0.96294019 0.70636129 0.72179415
0.18614497 0.71689838 0.86238578
0.24580560 0.71498556 0.86642399
0.33427778 0.71175684 0.87095615
0.44898278 0.70776615 0.87753192
0.55883432 0.70457952 0.88083828
0.65589238 0.70129708 0.88219330
0.76314257 0.69720891 0.88020376
0.88442335 0.69428467 0.86951204
0.96368545 0.72496988 0.72599309
0.29431744 0.77834715 0.84962213
0.33261048 0.77720201 0.85186902
0.39167452 0.77514250 0.85467567
0.47885311 0.77215254 0.85965629
0.56341677 0.76920917 0.86238463
0.64688283 0.76603180 0.86437885
0.74312152 0.76266737 0.86337313
0.86087881 0.75814408 0.85507416
0.96494508 0.75186309 0.73195483
0.44122462 0.84979519 0.82613626
0.46330536 0.84917325 0.82734094
0.49925769 0.84815936 0.82940794
0.54528606 0.84668375 0.83122994
0.60086519 0.84485095 0.83333668
0.65754429 0.84272706 0.83455887
0.73150299 0.83980956 0.83441707
0.83256459 0.83256459 0.83256459
0.96724520 0.79667859 0.73728555
0.78015200 0.99805363 0.77049615
0.78158032 0.99806547 0.77054279
0.78404542 0.99807790 0.77062480
0.78779641 0.99807888 0.77075269
0.79284719 0.99805197 0.77092902
0.79903889 0.99798856 0.77115441
0.80847639 0.99789310 0.77064075
0.82987340 0.99784788 0.76940547
0.97662651 0.99789900 0.73781388
0.53121700 0.58507314 0.98518881
0.55079092 0.58711175 0.98833355
0.58143195 0.59057402 0.99309181
0.62304020 0.59537258 0.99770754
0.66940071 0.60028294 0.99783879
0.71555416 0.60602360 0.99932556
0.77863161 0.61383626 1.00068471
0.86559519 0.62764233 1.00034530
0.97883750 0.69088514 0.99787736
0.50417023 0.59672094 0.97911426
0.52405956 0.59873436 0.98104461
0.55576033 0.60211773 0.98557039
0.60039002 0.60687595 0.99250395
0.64922919 0.61202078 0.99802891
0.69646294 0.61768368 0.99914281
0.76493179 0.62510154 1.00044079
0.85286529 0.63696664 1.00026703
0.97899191 0.69473280 0.99772939
0.46442478 0.61545255 0.97231196
0.48567257 0.61721249 0.97477887
0.52084399 0.62018776 0.97808610
0.56959173 0.62458846 0.98213071
0.62197727 0.62967675 0.99188978
0.67267008 0.63480377 0.99807676
0.74066808 0.64108261 0.99919762
0.83562785 0.65117730 1.00078068
0.97925132 0.70116685 0.99737636
0.42002917 0.64092191 0.96107845
0.44317208 0.64200295 0.96372940
0.48140292 0.64386022 0.96813160
0.53412262 0.64668639 0.97446893
0.58967323 0.65035620 0.98013037
0.64547797 0.65481540 0.98942481
0.71308415 0.66069595 0.99807361
0.81482765 0.66997247 0.99979063
0.97958395 0.71052207 0.99676636
0.37747615 0.66825517 0.95092816
0.40260104 0.66889623 0.95353143
0.44609290 0.67004409 0.95794182
0.49555526 0.67191006 0.96423565
0.55490603 0.67444238 0.97216836
0.61469866 0.67810284 0.97866290
0.68648857 0.68442766 0.98742508
0.79194898 0.69232322 0.99788426
0.97960187 0.72345817 0.99626765
0.35828373 0.69734449 0.94246195
0.38078459 0.69756841 0.94536009
0.41565650 0.69806308 0.94991192
0.46783464 0.69884938 0.95623223
0.52840980 0.70075163 0.96379586
0.58648851 0.70332759 0.97150972
0.66384304 0.70777234 0.98060990
0.77113974 0.71585317 0.99798235
0.97977817 0.73883801 0.99571399
0.33575920 0.73673998 0.93334533
0.35612972 0.73662398 0.93566227
0.39319562 0.73646082 0.93984281
0.45190351 0.73641920 0.94695606
0.50258435 0.73757975 0.95335613
0.55939688 0.73915330 0.96056633
0.63870592 0.74155532 0.97177173
0.74838650 0.74774866 0.98561514
0.98056465 0.76089059 0.99662470
0.36874453 0.79151384 0.92633844
0.38367672 0.79128157 0.92853598
0.41010833 0.79089066 0.93202806
0.45054228 0.79043334 0.93662648
0.49793410 0.79033696 0.94286728
0.54521101 0.79072583 0.94962172
0.61694644 0.79159495 0.95987427
0.72169263 0.79379665 0.97578159
0.98233070 0.79713213 0.99808014
0.67985504 0.97987036 0.94118309
0.68200935 0.97991076 0.94156834
0.68576463 0.97998201 0.94225010
0.69153958 0.98009362 0.94331992
0.69935194 0.98024872 0.94479632
0.70913184 0.98044937 0.94665880
0.72551674 0.98029184 0.94943046
0.76133211 0.98053402 0.95404105
0.97691087 0.97691087 0.97691087
