public/luts/builtin/fuji_eterna.cube
TITLE "Rec709800_sRGB-LA:FLog2_to_ETERNA_LA:FLog2_to_ETERNA"
LUT_3D_SIZE 5
# Rec709 (800%)/sRGB -> LA - :FLog2_to_ETERNA/LA - :FLog2_to_ETERNA, CineEI Shift 0.00, Black Level 0.56% IRE, Input 100% -> Output 100% - Created with LUTCalc v4.09 by Ben Turley February 2025
0.00582973 0.00582973 0.00582973
0.17085382 0.00720702 0.02888880
0.42472013 0.07256090 0.05557622
0.71239106 0.17037353 0.07991629
0.93454522 0.60729684 0.20175637
0.07516073 0.22724631 0.00000000
0.23043622 0.23182794 0.00173666
0.45132785 0.25593573 0.02726730
0.70062311 0.31100685 0.05466024
0.93554362 0.63021921 0.22543192
0.22892554 0.51924400 0.09365942
0.33414782 0.51372018 0.09023101
0.51570462 0.51796173 0.08462162
0.71083789 0.54326982 0.07525640
0.93700344 0.67382584 0.26221049
0.41699637 0.77349938 0.22254600
0.48601850 0.76843355 0.22281215
0.60164075 0.76233076 0.22195479
0.74133699 0.75866539 0.21915203
0.94055988 0.74164071 0.31637376
0.79112193 1.00036039 0.64234016
0.79481779 1.00048736 0.64200794
0.80314179 1.00074954 0.64124537
0.81857641 1.00099539 0.63987204
0.96725093 1.00048459 0.59037647
0.01225443 0.02364894 0.15004402
0.21796765 0.03263997 0.18711039
0.51213186 0.09462952 0.23825811
0.76551063 0.18705445 0.25116227
0.93881686 0.61055283 0.30521857
0.05450876 0.26581341 0.26325725
0.26217787 0.26217787 0.26217787
0.50020128 0.27951836 0.26437156
0.74493965 0.32957600 0.26745510
0.93936154 0.63216193 0.31685722
0.22928984 0.54462030 0.31908148
0.34809977 0.53649078 0.31279614
0.53990446 0.53502333 0.30847159
0.73755443 0.55061214 0.30061840
0.94144247 0.67383320 0.34082821
0.41411503 0.77218662 0.39245365
0.48667220 0.76728771 0.38995522
0.60822090 0.76121627 0.38373053
0.75060940 0.75640544 0.37313411
0.94498314 0.73962247 0.38358733
0.79068645 0.99976532 0.65505743
0.79438900 0.99991488 0.65471868
0.80272573 1.00024827 0.65393972
0.81815665 1.00078996 0.65246289
0.96837130 1.00012773 0.60499590
0.02714886 0.06606453 0.27747538
0.27746572 0.09121655 0.37543986
0.59048735 0.14997341 0.48287628
0.82128986 0.23096331 0.51704195
0.94718971 0.62056220 0.45041896
0.05599333 0.33214345 0.53267312
0.28904171 0.32307447 0.52943565
0.55721395 0.33087439 0.53342828
0.78948682 0.37241701 0.53309271
0.94740867 0.64014055 0.45797423
0.20839552 0.58683211 0.57430445
0.35510032 0.57576863 0.57007668
0.56503992 0.56503992 0.56503992
0.76161017 0.57485070 0.55319751
0.94894104 0.67800209 0.47353800
0.39720088 0.77562871 0.59329711
0.47786505 0.77081895 0.59304778
0.61113497 0.76367975 0.59020978
0.75987096 0.75678128 0.57942542
0.95099941 0.73894650 0.50058523
0.78931645 0.99880587 0.68271068
0.79289499 0.99903753 0.68243161
0.80097097 0.99960281 0.68179039
0.81635856 1.00035807 0.68034785
0.97082364 0.99926656 0.63499383
0.11868367 0.13814465 0.54641171
0.37243225 0.17680885 0.68084323
0.66433637 0.22938192 0.75530783
0.86609553 0.29924154 0.77242185
0.95528232 0.64215775 0.60960048
0.07190386 0.42334089 0.75901133
0.31149372 0.41171953 0.77087184
0.60255828 0.41161633 0.77919659
0.82156033 0.43722820 0.77530761
0.95617457 0.65753523 0.61350915
0.14561781 0.63160651 0.76524645
0.33557554 0.62173201 0.77161121
0.57524657 0.61173320 0.77641099
0.77861154 0.61008271 0.76988089
0.95677943 0.69028027 0.62156890
0.34978742 0.78013809 0.75728654
0.44515477 0.77660788 0.75986771
0.59725639 0.76984256 0.76269093
0.76007913 0.76007913 0.76007913
0.95936389 0.74302234 0.63439306
0.78636015 0.99786199 0.72713842
0.78992002 0.99784365 0.72690982
0.79802964 0.99784314 0.72638338
0.81309775 0.99832253 0.72517217
0.97407701 0.99798315 0.68535092
0.53121700 0.58507314 0.98518881
0.58143195 0.59057402 0.99309181
0.66940071 0.60028294 0.99783879
0.77863161 0.61383626 1.00068471
0.97883750 0.69088514 0.99787736
0.46442478 0.61545255 0.97231196
0.52084399 0.62018776 0.97808610
0.62197727 0.62967675 0.99188978
0.74066808 0.64108261 0.99919762
0.97925132 0.70116685 0.99737636
0.37747615 0.66825517 0.95092816
0.44609290 0.67004409 0.95794182
0.55490603 0.67444238 0.97216836
0.68648857 0.68442766 0.98742508
0.97960187 0.72345817 0.99626765
0.33575920 0.73673998 0.93334533
0.39319562 0.73646082 0.93984281
0.50258435 0.73757975 0.95335613
0.63870592 0.74155532 0.97177173
0.98056465 0.76089059 0.99662470
0.67985504 0.97987036 0.94118309
0.68576463 0.97998201 0.94225010
0.69935194 0.98024872 0.94479632
0.72551674 0.98029184 0.94943046
0.97691087 0.97691087 0.97691087
