public/luts/builtin/fuji_astia.cube
TITLE "Rec709800_sRGB-LA:FLog2_to_ASTIA_LA:FLog2_to_ASTIA"
LUT_3D_SIZE 9
# Rec709 (800%)/sRGB -> LA - :FLog2_to_ASTIA/LA - :FLog2_to_ASTIA, CineEI Shift 0.00, Black Level -0.02% IRE, Input 100% -> Output 100% - Created with LUTCalc v4.09 by Ben Turley February 2025
0.00000000 0.00000000 0.00000000
0.04135694 0.00159538 0.00000746
0.13296495 0.00328738 0.00000000
0.29838891 0.00659087 0.00000000
0.49768983 0.01265753 0.00001107
0.67451257 0.01926336 0.00000000
0.83025376 0.03503738 0.02745572
0.98839667 0.09484416 0.11838618
1.00069272 0.56865120 0.32320912
0.00000000 0.05770583 0.00005785
0.06447826 0.06256463 0.00000650
0.17866108 0.06662331 0.00000168
0.35243042 0.07275985 0.00000000
0.52426369 0.08254632 0.00000020
0.66769414 0.09360524 0.00000000
0.81777094 0.11849920 0.00892477
0.97877779 0.17851887 0.08122212
1.00063367 0.58060108 0.32397599
0.02988917 0.20641985 0.00006143
0.09436173 0.20435710 0.00000205
0.21722580 0.20507745 0.00000194
0.37694007 0.20916775 0.00000793
0.53189088 0.21721451 0.00001017
0.66036722 0.23189520 0.00001083
0.80380023 0.25753453 0.00001092
0.96869053 0.30515798 0.04299421
1.00053104 0.59998485 0.32546172
0.07420515 0.41433527 0.00000000
0.14913504 0.40777487 0.00000924
0.26813811 0.40284207 0.00000000
0.40851456 0.39969965 0.00000736
0.54651707 0.40086063 0.00000863
0.65933449 0.40877590 0.00001101
0.79273061 0.42136112 0.00000963
0.95317162 0.44504947 0.01553181
1.00045157 0.62498198 0.32907439
0.16070161 0.59510136 0.00003737
0.23347042 0.59015383 0.00001107
0.33426123 0.58291020 0.00000583
0.45236323 0.57648512 0.00000016
0.56787200 0.57182913 0.00000441
0.66645916 0.57013239 0.00000833
0.78401893 0.57039008 0.00001003
0.93347326 0.57422589 0.01006083
1.00025393 0.65526997 0.33455571
0.26567922 0.71981854 0.00005791
0.32039814 0.71510119 0.00000094
0.39843272 0.70896524 0.00000985
0.49526273 0.70213554 0.00001038
0.59187433 0.69644004 0.00000000
0.67555110 0.69097473 0.00006049
0.77817727 0.68441990 0.00000000
0.91988077 0.67745653 0.02862341
1.00033849 0.68754271 0.34191121
0.38706594 0.83627402 0.01499545
0.42321588 0.83373840 0.01391146
0.48047517 0.82797943 0.00971575
0.54940607 0.82268212 0.00000000
0.62153395 0.81620108 0.00010776
0.69090947 0.80940596 0.00851341
0.78435706 0.80125301 0.02405442
0.90677900 0.78903742 0.05893675
1.00058115 0.73546354 0.35372759
0.53938798 0.95350245 0.11680175
0.55852114 0.95169706 0.11557714
0.58905106 0.94854160 0.11471274
0.62846587 0.94332604 0.11220807
0.67377403 0.93812685 0.11268289
0.72332514 0.93243414 0.11637979
0.79357868 0.92304600 0.12897872
0.89356805 0.90651101 0.16491217
1.00025218 0.80677399 0.37949701
0.78200690 1.00090175 0.53449101
0.78367328 1.00088927 0.53425901
0.78651468 1.00086703 0.53385389
0.79074532 1.00083167 0.53322940
0.79625539 1.00078162 0.53238282
0.80284042 1.00071572 0.53132503
0.81312859 1.00063785 0.52994121
0.83726932 1.00054879 0.52790668
0.98832722 1.00117232 0.50049998
0.00000000 0.00188170 0.04106059
0.04814705 0.00001070 0.03841554
0.16054662 0.00099431 0.04077645
0.34582274 0.00317350 0.04408726
0.54983205 0.00451164 0.04769715
0.70435900 0.01363181 0.06418927
0.84934760 0.03139017 0.11351109
0.99764025 0.08434339 0.23134680
1.00063459 0.56878264 0.35958978
0.00091750 0.06682242 0.07128362
0.06720213 0.06720213 0.06720213
0.20022574 0.06953988 0.05157565
0.38198883 0.07253582 0.03972204
0.55049245 0.07958680 0.03739118
0.69000215 0.08929090 0.04693662
0.83418717 0.11469119 0.08973712
0.98452591 0.17048946 0.20113581
1.00066858 0.58026451 0.35998094
0.01795059 0.22802646 0.07030900
0.09065407 0.22167457 0.05592966
0.22712001 0.21668632 0.03538203
0.39234875 0.21495445 0.02385228
0.54969511 0.22125230 0.02004977
0.67624063 0.23308319 0.02827259
0.81683238 0.25518040 0.05607723
0.97468748 0.29967943 0.16232290
1.00072532 0.59891636 0.36082451
0.06061517 0.42635580 0.05148638
0.14029577 0.41940099 0.03498553
0.27079033 0.41052067 0.02249352
0.41604879 0.40542345 0.01776748
0.55677431 0.40500560 0.01657482
0.67073217 0.40817443 0.02329014
0.80090519 0.41811060 0.04311184
0.95870735 0.43794527 0.12415611
1.00059515 0.62336200 0.36349418
0.14742069 0.59497480 0.05008642
0.22421936 0.58916794 0.04061267
0.33216010 0.58140605 0.03188635
0.45456161 0.57388273 0.02301518
0.57231266 0.56901724 0.02060371
0.67186613 0.56613777 0.02528964
0.78912046 0.56440959 0.04190522
0.93748274 0.56753759 0.10947051
1.00038507 0.65354436 0.36735898
0.25379285 0.71212083 0.06740308
0.31231704 0.70806862 0.06009989
0.39313918 0.70239899 0.04891415
0.49324470 0.69566746 0.04139137
0.59238426 0.68911303 0.03871758
0.67759924 0.68303281 0.04204212
0.78098190 0.67717094 0.05790992
0.92271822 0.67106623 0.11663445
1.00044400 0.68582906 0.37257659
0.37798339 0.82675259 0.11254443
0.41516879 0.82425350 0.10500629
0.47499122 0.81945940 0.09860060
0.54639767 0.81474342 0.08703992
0.62138125 0.80901863 0.08229118
0.69123091 0.80330252 0.08264035
0.78464707 0.79492658 0.10019913
0.90839459 0.78275559 0.14226412
1.00074081 0.73279115 0.38137719
0.53450106 0.94628020 0.20864803
0.55450987 0.94443965 0.20622546
0.58522559 0.94134025 0.20278827
0.62569867 0.93737814 0.19847334
0.67157960 0.93259186 0.19544411
0.72108083 0.92587727 0.19581051
0.79214960 0.91738047 0.20060352
0.89217304 0.90060288 0.22512784
1.00033260 0.80485747 0.40183539
0.78141570 1.00090711 0.54131790
0.78309376 1.00089470 0.54108582
0.78595386 1.00087259 0.54068057
0.79020910 1.00083741 0.54005595
0.79574416 1.00078760 0.53920922
0.80236457 1.00072198 0.53815122
0.81259215 1.00060487 0.53639433
0.83678360 1.00050109 0.53420182
0.98836525 1.00117034 0.50611581
0.00000015 0.00548199 0.10971194
0.05479716 0.00351195 0.11262387
0.18910048 0.00000000 0.13443081
0.39479584 0.00241717 0.16792999
0.59721682 0.00000000 0.20134843
0.74297496 0.01054907 0.24096966
0.87155568 0.03023707 0.29732656
0.99835408 0.08166579 0.38606332
1.00063303 0.56922876 0.41385402
0.00000000 0.07915308 0.21670905
0.06440196 0.07866825 0.21644664
0.21720123 0.07888532 0.20958794
0.41262746 0.07729069 0.20501956
0.58375147 0.08271727 0.20992930
0.71626793 0.09331666 0.23271442
0.85241338 0.11612958 0.27679794
0.99424929 0.16881306 0.35679451
1.00057117 0.58031100 0.41348004
0.00633440 0.25289359 0.28695766
0.07516422 0.24374079 0.26218126
0.23563883 0.23563883 0.23563883
0.40998913 0.23038897 0.20917169
0.57018104 0.23280475 0.20341358
0.69444922 0.24117458 0.21327299
0.83064788 0.25978320 0.24670027
0.97932399 0.29726981 0.31761679
1.00046323 0.59834421 0.41302497
0.03849557 0.44282882 0.28973750
0.12296019 0.43383345 0.26512652
0.26627662 0.42338569 0.23492895
0.42539162 0.41436010 0.21080021
0.56756646 0.41181814 0.19701543
0.68111873 0.41164570 0.20015543
0.80936099 0.41830469 0.22167990
0.96491832 0.43358072 0.28161142
1.00025036 0.62273021 0.41388461
0.12357183 0.59722436 0.28269403
0.20575694 0.59154027 0.26301625
0.32394354 0.58396439 0.23842716
0.45325372 0.57545473 0.21483575
0.57556092 0.56772297 0.20153477
0.67632134 0.56327051 0.19799024
0.79423604 0.56002390 0.20784642
0.94392518 0.56201836 0.25538198
1.00025936 0.65194003 0.41569845
0.23235708 0.70588454 0.28158721
0.29598986 0.70210120 0.26707871
0.38286140 0.69663475 0.24834013
0.48797780 0.68941663 0.22669421
0.59082644 0.68262079 0.21082437
0.67879110 0.67512102 0.20584544
0.78337627 0.66916785 0.21197599
0.92669872 0.66426811 0.24773063
1.00027633 0.68335665 0.41848681
0.36303032 0.81851344 0.29128543
0.40248498 0.81572933 0.28277296
0.46430610 0.81102230 0.26992196
0.53969510 0.80757607 0.25343549
0.61728346 0.80209466 0.24254691
0.68930842 0.79533084 0.23485624
0.78463533 0.78668083 0.23601962
0.90988954 0.77443665 0.26367851
1.00024540 0.73008000 0.42348085
0.52409888 0.93690752 0.32863445
0.54521620 0.93534581 0.32506934
0.57766663 0.93264060 0.32001217
0.62012814 0.92820190 0.31354199
0.66779637 0.92241090 0.30763649
0.71757481 0.91697592 0.30381538
0.79005636 0.90786225 0.30301926
0.88965204 0.89400545 0.31439467
1.00036244 0.80109510 0.43640303
0.78041329 1.00091608 0.55268848
0.78211009 1.00090379 0.55245532
0.78500250 1.00088188 0.55204808
0.78930049 1.00084701 0.55142009
0.79487946 1.00079760 0.55056821
0.80155685 1.00073247 0.54950276
0.81183968 1.00061610 0.54773177
0.83592563 1.00043661 0.54469177
0.98843032 1.00116697 0.51568175
0.00109228 0.00816077 0.20285349
0.06525559 0.00586764 0.22624832
0.22343039 0.00292420 0.28034247
0.44609767 0.00000000 0.34909414
0.63904380 0.00134481 0.40417730
0.77506725 0.01340905 0.43865364
0.89035415 0.03391385 0.48172865
0.99908327 0.08787683 0.54101053
1.00008686 0.57150734 0.48063221
0.00103166 0.09916364 0.42102101
0.06131220 0.09429725 0.43132714
0.23682951 0.09200926 0.42659939
0.44454419 0.08866861 0.41869571
0.61174023 0.09397826 0.41900122
0.74090968 0.10409551 0.43398285
0.86792247 0.12585296 0.46180135
0.99814498 0.17668908 0.51036831
1.00003428 0.58200793 0.47997706
0.00003133 0.28663909 0.52368946
0.05787527 0.27239463 0.49684468
0.23299216 0.26215626 0.46091101
0.42487050 0.25433344 0.43107565
0.59014965 0.25378434 0.41424813
0.71076949 0.25807462 0.41426050
0.84395859 0.27110504 0.43025064
0.98252175 0.30137897 0.47379894
0.99993027 0.59933366 0.47884292
0.02442029 0.46297274 0.52471053
0.09751517 0.45370139 0.49935677
0.25672752 0.44103501 0.46410735
0.42892358 0.42892358 0.42892358
0.57667817 0.42476657 0.40607708
0.69121404 0.42198920 0.39888745
0.81679797 0.42343854 0.40261400
0.96926242 0.43414061 0.43733965
0.99992227 0.62280016 0.47760285
0.09017117 0.60306554 0.50765137
0.17574502 0.59711393 0.48543603
0.30836450 0.58872940 0.45494097
0.44823562 0.57911598 0.42409914
0.57742760 0.57005396 0.40294927
0.67947323 0.56478083 0.38764986
0.79784631 0.55968344 0.38516442
0.94949776 0.55817485 0.40822841
1.00025945 0.65097924 0.47639747
0.19658544 0.70371482 0.48886399
0.27004160 0.69956965 0.47331592
0.36562038 0.69361678 0.44998452
0.47870406 0.68610938 0.42298079
0.58787095 0.67881537 0.40095407
0.67873358 0.67180772 0.38664842
0.78544398 0.66541788 0.37986205
0.93000229 0.65808235 0.39548503
1.00030069 0.68124359 0.47605091
0.33879732 0.81079310 0.47158681
0.38193861 0.80792145 0.46152066
0.44949502 0.80370688 0.44554654
0.52890341 0.79992914 0.42668193
0.61194203 0.79431263 0.40891854
0.68750934 0.78676639 0.39736387
0.78392366 0.77836945 0.38769428
0.91153400 0.76684345 0.39666770
1.00022136 0.72681248 0.47742578
0.50646160 0.92622073 0.45998520
0.52921781 0.92436294 0.45601739
0.56434838 0.92141015 0.44938433
0.60894254 0.91763392 0.44031598
0.65858973 0.91275828 0.43060475
0.71121285 0.90597399 0.42284385
0.78579287 0.89797315 0.41547550
0.88631252 0.88349412 0.41418646
1.00034591 0.79770851 0.48129830
0.77797617 1.00099876 0.56899482
0.77968860 1.00098837 0.56876036
0.78264087 1.00096982 0.56835068
0.78702599 1.00094022 0.56771853
0.79269156 1.00089814 0.56686019
0.79945707 1.00084244 0.56578528
0.80985784 1.00074242 0.56399494
0.83398247 1.00061728 0.56058213
0.98852754 1.00116195 0.52973548
0.00389507 0.00967146 0.32928974
0.08366070 0.00848802 0.38143665
0.26235507 0.00591058 0.46000838
0.49610276 0.00202580 0.54923850
0.67379290 0.00680088 0.59447197
0.79584303 0.02224860 0.61798506
0.90547009 0.04515570 0.64437916
1.00022554 0.10306367 0.67475036
1.00041388 0.57587147 0.54568576
0.00062195 0.12487933 0.63020073
0.05189522 0.12058753 0.64360509
0.25205682 0.11380473 0.63162652
0.46906492 0.11065754 0.61650283
0.63617670 0.11420409 0.60789847
0.76189729 0.12369213 0.61080598
0.88016567 0.14538194 0.62395423
0.99797192 0.19213565 0.64612945
1.00030196 0.58562624 0.54427663
0.00000000 0.32118733 0.72969044
0.04596491 0.30825776 0.70094807
0.22731188 0.29485319 0.65950013
0.43558994 0.28433034 0.62394974
0.60438561 0.28013390 0.60242782
0.72397037 0.28081967 0.59440983
0.85453070 0.28946247 0.59390800
0.98597250 0.31213171 0.61161000
1.00016538 0.60187330 0.54222004
0.01586269 0.48459650 0.71680046
0.07336818 0.47566870 0.69151477
0.24197596 0.46358583 0.65304670
0.42569832 0.45092523 0.61786094
0.58213125 0.44106549 0.59069082
0.69849181 0.43650966 0.57294042
0.82367806 0.43481389 0.56550499
0.97564313 0.44081771 0.57583013
1.00046204 0.62410717 0.53994453
0.05832256 0.61233686 0.69048905
0.13684030 0.60618407 0.66774907
0.28585113 0.59730127 0.63600317
0.43817092 0.58732882 0.60351340
0.57533896 0.57533896 0.57533896
0.68118682 0.57044791 0.55698335
0.80106782 0.56402084 0.54490525
0.95439317 0.56015068 0.54744348
1.00064568 0.65084679 0.53799432
0.14546699 0.70482827 0.65959331
0.23470039 0.70067865 0.64346816
0.34023198 0.69470231 0.62027084
0.46469871 0.68711250 0.59339820
0.58159947 0.67890546 0.56832438
0.67742080 0.67180896 0.54815390
0.78685742 0.66453350 0.53256294
0.93220846 0.65683813 0.52872836
1.00071761 0.67989463 0.53604324
0.30667998 0.80851200 0.62403838
0.35418667 0.80532515 0.61386001
0.42634720 0.80140732 0.59779606
0.51454084 0.79650715 0.57815081
0.60411892 0.79059038 0.55822440
0.68334120 0.78330191 0.54113058
0.78277338 0.77421235 0.52662395
0.91107540 0.76332526 0.51848061
1.00096467 0.72412987 0.53417852
0.48347599 0.91614424 0.57952678
0.50735130 0.91470326 0.57413973
0.54632215 0.91211076 0.56505555
0.59407960 0.90738575 0.55593495
0.64710448 0.90170153 0.54551879
0.70215689 0.89692332 0.53573469
0.77881819 0.88896562 0.52329287
0.88126300 0.87647283 0.51085564
1.00062572 0.79411323 0.53105214
0.77538645 1.00100773 0.59004893
0.77696014 1.00101347 0.58972966
0.77967553 1.00102340 0.58917105
0.78377686 1.00103848 0.58830722
0.78908412 1.00105849 0.58713052
0.79570518 1.00105068 0.58584138
0.80651617 1.00097075 0.58404240
0.83101651 1.00086836 0.58059307
0.98865406 1.00115543 0.54731561
0.01583366 0.01311603 0.49573116
0.10845125 0.01420062 0.56183746
0.30432423 0.01353106 0.65327293
0.54120788 0.01284315 0.74196181
0.69655434 0.02443560 0.76030223
0.81108440 0.03790110 0.77012439
0.91867392 0.06252164 0.77847299
1.00107376 0.12470029 0.78407118
1.00032077 0.58388401 0.60553417
0.00000000 0.16513806 0.83390798
0.04897537 0.15670638 0.83120842
0.26049318 0.14687173 0.81098020
0.48702149 0.14153132 0.78307643
0.65234748 0.14384575 0.76279323
0.77639194 0.15161887 0.75535125
0.89037664 0.17179909 0.75421781
0.99850376 0.21268654 0.75792103
1.00017206 0.59267176 0.60399151
0.00000000 0.35565358 0.87815215
0.03014525 0.34330493 0.85846412
0.21776075 0.32956026 0.81861834
0.43939149 0.31715608 0.77973274
0.61268449 0.31010181 0.74916302
0.73353354 0.30793176 0.73198239
0.86081593 0.31110434 0.72064745
0.99085228 0.33007124 0.72028245
0.99992246 0.60763900 0.60146137
0.00826218 0.50832007 0.86031038
0.04616639 0.49796553 0.83958004
0.21699453 0.48629358 0.80407520
0.41696353 0.47360967 0.76219304
0.58194000 0.46243256 0.72905490
0.70218772 0.45439643 0.70725467
0.82840317 0.45005421 0.69294322
0.97870433 0.45255681 0.68669337
1.00029570 0.62792297 0.59900255
0.03377061 0.62405817 0.82948372
0.09774501 0.61827086 0.80780295
0.24967175 0.60933755 0.77826248
0.42152269 0.59868863 0.74206475
0.57036111 0.58819190 0.71071864
0.68164986 0.57946953 0.68907964
0.80364605 0.57228693 0.66943216
0.95774023 0.56570603 0.65862859
1.00037550 0.65276146 0.59637691
0.10615796 0.71022848 0.79639329
0.19001340 0.70591195 0.77789086
0.30569742 0.69957149 0.75446700
0.44524079 0.69181095 0.72314178
0.57102490 0.68351518 0.69532735
0.67374812 0.67374812 0.67374812
0.78719029 0.66706877 0.65425406
0.93260235 0.65752786 0.63779967
1.00042327 0.68029435 0.59324462
0.26005142 0.80723716 0.75480720
0.31880609 0.80420293 0.73997429
0.39621555 0.80079759 0.72331311
0.49641564 0.79498828 0.69964826
0.59258755 0.78909763 0.67866297
0.67572659 0.78182201 0.66004376
0.77857395 0.77184207 0.64079050
0.90894838 0.76057129 0.62217932
1.00090806 0.72200049 0.58813133
0.45550844 0.90491116 0.67994262
0.48165096 0.90315535 0.67487472
0.52443999 0.90060473 0.66634433
0.57650138 0.89777936 0.65540878
0.63260589 0.89410142 0.64271264
0.68993104 0.88867063 0.63055691
0.76967010 0.88042285 0.61715326
0.87566527 0.86692293 0.59828851
1.00059469 0.79025836 0.58043490
0.77363260 1.00089293 0.61409255
0.77522679 1.00089957 0.61378052
0.77797107 1.00091110 0.61323425
0.78212661 1.00092869 0.61238860
0.78752624 1.00095217 0.61123485
0.79391960 1.00098090 0.60978057
0.80389353 1.00102732 0.60735083
0.82754040 1.00109340 0.60306994
0.98852274 1.00109719 0.56850580
0.03373503 0.03290506 0.77544079
0.14367652 0.03787230 0.82572863
0.36044130 0.04043380 0.88672808
0.57234904 0.04989046 0.91528734
0.71824965 0.06208196 0.90895891
0.82277232 0.07937794 0.90594219
0.93049127 0.11044814 0.90155248
1.00098438 0.16657581 0.89575953
1.00042924 0.59830407 0.67528384
0.00006143 0.22648520 0.97683390
0.04390868 0.21776121 0.97529991
0.26875732 0.20789678 0.96003479
0.50058623 0.19922558 0.92660037
0.66629549 0.19967550 0.90423013
0.78469817 0.20204512 0.89319527
0.89844276 0.21669588 0.88064295
0.99852011 0.25125506 0.87342567
1.00046428 0.60598207 0.67381984
0.00000000 0.40019998 0.98718793
0.02772401 0.38832231 0.97988497
0.19117589 0.37549491 0.96125986
0.43801904 0.36272511 0.92068836
0.61554196 0.35303692 0.89235202
0.74022100 0.34691509 0.87332769
0.86769594 0.34684350 0.85772220
0.99289291 0.35848736 0.84532338
1.00051108 0.61851737 0.67138779
0.00187619 0.53943207 0.98216860
0.03281707 0.53063685 0.97416509
0.16548857 0.51829790 0.94556166
0.39846931 0.50445232 0.90497842
0.57734296 0.49236843 0.87522525
0.70290403 0.48309543 0.85337086
0.83186736 0.47537371 0.83026846
0.98108986 0.47267613 0.81369066
1.00050854 0.63621801 0.66781127
0.02381932 0.64107538 0.96687991
0.06022226 0.63484286 0.95318176
0.18683885 0.62641128 0.92460941
0.39156083 0.61659819 0.89041221
0.55705297 0.60584573 0.85847431
0.67701499 0.59673638 0.83306438
0.80224085 0.58758449 0.81158370
0.96195891 0.57816078 0.78744599
1.00062167 0.65867252 0.66412766
0.05324927 0.71973847 0.94006803
0.10837130 0.71560955 0.92432916
0.25299231 0.70918659 0.89905802
0.41197542 0.70126754 0.86967138
0.55436522 0.69260698 0.84285545
0.66586534 0.68377546 0.81843450
0.78707739 0.67394618 0.79571466
0.93389293 0.66222519 0.76493134
1.00052546 0.68324982 0.65995405
0.17142168 0.80494783 0.89037229
0.25335050 0.80229344 0.87789442
0.34347560 0.79957896 0.86152363
0.45806719 0.79352721 0.83850497
0.56688065 0.78814626 0.81580309
0.66075260 0.78064553 0.79234713
0.76766484 0.76766484 0.76766484
0.90103098 0.75634533 0.74118862
0.99995394 0.72188811 0.65367256
0.40354588 0.89451453 0.80235385
0.43280862 0.89308625 0.79724540
0.48067043 0.89048807 0.78813068
0.54220588 0.88691213 0.77298120
0.60600235 0.88222475 0.76086733
0.66903162 0.87822470 0.74397174
0.75096236 0.87075568 0.72480248
0.86245709 0.85598225 0.70049409
1.00053474 0.78602071 0.64507873
0.76790806 1.00082047 0.65060864
0.76954192 1.00083203 0.65027727
0.77233739 1.00085201 0.64969722
0.77652852 1.00088229 0.64879950
0.78205375 1.00092228 0.64757517
0.78871943 1.00096124 0.64609759
0.79916732 1.00101134 0.64370273
0.82313393 1.00111155 0.63905807
0.98922460 1.00100212 0.60149342
0.06256684 0.14215180 0.99893537
0.19016537 0.15107486 1.00111492
0.40301902 0.15473062 1.00108481
0.59637968 0.15992931 1.00087917
0.73136569 0.16907641 1.00066211
0.83125171 0.18576077 1.00070280
0.93645613 0.20623487 1.00054931
1.00114652 0.25028831 0.99822572
1.00071450 0.61864572 0.76421038
0.00000000 0.32638800 1.00093875
0.05553475 0.31823053 1.00066503
0.27956167 0.30730960 1.00087089
0.50980078 0.30028339 1.00080076
0.67306902 0.29534396 1.00045888
0.79492360 0.29517939 1.00040636
0.90638657 0.30027175 0.99858256
0.99807056 0.31936505 0.99486358
1.00070615 0.62614604 0.76339888
0.00000000 0.46926126 1.00104820
0.01960951 0.46069147 1.00102023
0.15130475 0.44890052 1.00064533
0.42019170 0.43475678 1.00054234
0.61183697 0.42426919 0.99996594
0.74391092 0.41531887 0.99828567
0.87338697 0.41021781 0.99570922
0.99444506 0.40972686 0.98774394
1.00066266 0.63778929 0.76213273
0.00000000 0.58287915 1.00105595
0.01588103 0.57689079 1.00101754
0.10757152 0.56747726 1.00065567
0.35822850 0.55464855 1.00032049
0.55952081 0.54333390 0.99835344
0.69595179 0.53333903 0.99816840
0.82946270 0.52165568 0.98687527
0.97975849 0.50918942 0.96814858
1.00044231 0.65240974 0.76063980
0.00402151 0.66421569 1.00100134
0.02566818 0.65975914 1.00104142
0.10761928 0.65217948 1.00106207
0.31216807 0.64248357 0.99879992
0.51880402 0.63417304 0.99780088
0.65968971 0.62433232 0.99105018
0.79778132 0.61272232 0.97676442
0.95441475 0.59716129 0.94005690
1.00027512 0.67182071 0.75875764
0.02124101 0.72900425 1.00107056
0.04236576 0.72598985 1.00102253
0.11917585 0.72050601 0.99899888
0.32965089 0.71370779 0.99789266
0.50635396 0.70531738 0.99515884
0.63632934 0.69617952 0.97960120
0.77128034 0.68476203 0.95694931
0.91949175 0.66708622 0.91625974
1.00037671 0.69377877 0.75491070
0.06665190 0.79622961 0.99933019
0.10720844 0.79478903 0.99808448
0.20180378 0.79184834 0.99767120
0.37258381 0.78698745 0.99099025
0.50302036 0.78080394 0.97362807
0.61792644 0.77328465 0.95276717
0.73902237 0.76315341 0.92229695
0.88177016 0.74797446 0.88335581
1.00077674 0.72560977 0.74831536
0.28282376 0.87614087 0.95712214
0.32691495 0.87487342 0.94907552
0.39214285 0.87273582 0.93695251
0.46480323 0.86915431 0.92283854
0.54592059 0.86461848 0.90624395
0.62221674 0.86083053 0.88978466
0.71339515 0.85284208 0.86824211
0.83829019 0.83829019 0.83829019
1.00074022 0.78167468 0.73793433
0.75583893 1.00090731 0.71201399
0.75773283 1.00091016 0.71184446
0.76093385 1.00091513 0.71154784
0.76564849 1.00092279 0.71108914
0.77169745 1.00093319 0.71046432
0.77886540 1.00094620 0.70967848
0.78999448 1.00102295 0.70712454
0.81478262 1.00114917 0.70175667
0.99244146 1.00099628 0.66117006
0.45057770 0.54624457 1.00104268
0.48072371 0.54767357 1.00103547
0.52479778 0.55012672 1.00099303
0.58227334 0.55326270 1.00094812
0.64148624 0.55541589 1.00094496
0.69698160 0.55751081 1.00100623
0.77795315 0.55929266 1.00083971
0.88070730 0.56045359 1.00090942
1.00091626 0.61557877 1.00093950
0.40802901 0.56243039 1.00114039
0.43804489 0.56366639 1.00112000
0.48522892 0.56582449 1.00108281
0.54955115 0.56883146 1.00102894
0.61439072 0.57135828 1.00097537
0.67402093 0.57367695 1.00093677
0.76020653 0.57505561 1.00089343
0.86415456 0.57514056 1.00083409
1.00080726 0.62070408 1.00085874
0.33774492 0.58613169 1.00109977
0.37011954 0.58694069 1.00107688
0.42509769 0.58834699 1.00103581
0.50287103 0.59041176 1.00097352
0.57686112 0.59307548 1.00089723
0.64324586 0.59521758 1.00084822
0.72550493 0.59656420 1.00065519
0.84279567 0.59613599 1.00097108
1.00060073 0.62922249 1.00070836
0.25311750 0.61641358 1.00092769
0.29145487 0.61658481 1.00088580
0.35688452 0.61693374 1.00079030
0.44655888 0.61765057 1.00059037
0.52862334 0.61896877 1.00056355
0.60580500 0.62132209 1.00070683
0.68779548 0.62369962 1.00080128
0.81321272 0.62296178 1.00082581
1.00028423 0.64158908 1.00040475
0.16685877 0.65050550 1.00096308
0.21194258 0.65030648 1.00090151
0.29993118 0.65004306 1.00078054
0.37873705 0.64975481 1.00065679
0.47601146 0.64964837 1.00050777
0.56031264 0.65060087 1.00059116
0.65399700 0.65266741 1.00086948
0.78342967 0.65266680 1.00050894
1.00026145 0.65795586 1.00033190
0.13564369 0.68568105 1.00108865
0.16653025 0.68499804 1.00107340
0.22403176 0.68380057 1.00104905
0.32266453 0.68211941 1.00101191
0.42966785 0.68100840 1.00092500
0.51633633 0.68058633 1.00051873
0.62419894 0.68062179 0.99988764
0.75719491 0.68187356 1.00076859
1.00064237 0.67609171 1.00064200
0.10347937 0.72886280 1.00105413
0.12799782 0.72821102 1.00103099
0.18452913 0.72707989 1.00099931
0.30112296 0.72535657 1.00100766
0.37891889 0.72370907 1.00088858
0.46987037 0.72199120 1.00074134
0.58568060 0.72014357 1.00082438
0.72281936 0.71962471 1.00049571
1.00085484 0.70380810 1.00035396
0.12117487 0.79182735 1.00110824
0.14286524 0.79104406 1.00110359
0.18918814 0.78969606 1.00109560
0.27247437 0.78777907 1.00105417
0.36484599 0.78576509 1.00095992
0.43755756 0.78325652 1.00100583
0.54763068 0.77948103 1.00110924
0.68174652 0.77742612 1.00091497
1.00099917 0.75256167 1.00031848
0.59121156 0.99790983 1.00088297
0.59425146 0.99791461 1.00087349
0.59953744 0.99792356 1.00085667
0.60763146 0.99793875 1.00083006
0.61847137 0.99796168 1.00079262
0.63182257 0.99799332 1.00074361
0.65179656 0.99816426 1.00069877
0.69437471 0.99814656 1.00015973
0.97801801 0.97801801 0.97801801
