public/luts/builtin/fuji_eterna.cube
TITLE "Rec709800_sRGB-LA:FLog2_to_ETERNA_LA:FLog2_to_ETERNA"
LUT_3D_SIZE 33
# Rec709 (800%)/sRGB -> LA - :FLog2_to_ETERNA/LA - :FLog2_to_ETERNA, CineEI Shift 0.00, Black Level 0.56% IRE, Input 100% -> Output 100% - Created with LUTCalc v4.09 by Ben Turley February 2025
0.00582973 0.00582973 0.00582973
0.00578005 0.00586647 0.00585737
0.01753158 0.00494635 0.00569538
0.05687558 0.00662388 0.01089052
0.08300926 0.00669541 0.01518405
0.10647891 0.00716097 0.01896222
0.12824978 0.00778681 0.02193721
0.14892423 0.00782039 0.02430649
0.17085382 0.00720702 0.02888880
0.19350520 0.00945592 0.03201220
0.21910777 0.01668361 0.03405892
0.24717434 0.02253174 0.03740630
0.27721881 0.02916871 0.04066775
0.31003913 0.03844225 0.04428998
0.34473299 0.04858314 0.04749856
0.38460732 0.06185399 0.05165159
0.42472013 0.07256090 0.05557622
0.46660538 0.08113720 0.06058994
0.50360088 0.09170202 0.06455219
0.53852474 0.10223349 0.06791293
0.57174149 0.11368912 0.07039842
0.60935352 0.12693852 0.07285430
0.64294867 0.14006145 0.07501023
0.67741739 0.15505766 0.07744068
0.71239106 0.17037353 0.07991629
0.75691078 0.18883156 0.08220161
0.79170840 0.21006394 0.08451005
0.84044718 0.23636462 0.08676907
0.88315121 0.26857473 0.08857085
0.93007010 0.31097561 0.08894179
0.93472034 0.36737511 0.08151411
0.93240880 0.43134981 0.07435702
0.93454522 0.60729684 0.20175637
0.00583944 0.00586263 0.00581021
0.00586570 0.00587178 0.00544121
0.03183607 0.00926847 0.00585803
0.06293236 0.01230638 0.01057979
0.08542304 0.01410432 0.01306639
0.11006330 0.01967630 0.01722328
0.13362824 0.02334719 0.02008965
0.15814692 0.02752187 0.02246923
0.18119646 0.03479729 0.02512733
0.20573264 0.04217708 0.02770993
0.23122648 0.04980771 0.03027336
0.25966657 0.05744154 0.03335091
0.29005312 0.06761006 0.03633445
0.32370358 0.07420246 0.04031022
0.35938878 0.08119346 0.04406344
0.39729208 0.08921112 0.04855825
0.43471501 0.09784335 0.05261340
0.47211682 0.10683653 0.05692036
0.50762079 0.11554156 0.06103417
0.53824496 0.12437519 0.06391569
0.56846113 0.13361253 0.06668398
0.60560827 0.14600727 0.06966443
0.63948723 0.15804068 0.07204135
0.67385649 0.17074384 0.07443420
0.70993703 0.18543798 0.07686304
0.75333778 0.20283600 0.07910592
0.78945174 0.22318824 0.08158777
0.83779964 0.24835202 0.08410834
0.88125278 0.27972059 0.08618055
0.92860531 0.32108494 0.08683599
0.93435737 0.37707187 0.08037239
0.93212790 0.43846505 0.07385682
0.93463182 0.60936203 0.20373535
0.00535170 0.03883864 0.00000000
0.00587138 0.04164450 0.00000000
0.04100680 0.04443759 0.00419953
0.07145919 0.04647756 0.00488796
0.09381539 0.04921368 0.00878392
0.11912025 0.05298433 0.01294528
0.14130057 0.05756289 0.01523604
0.16505503 0.06411452 0.01797316
0.18941021 0.07061537 0.02066652
0.21425561 0.07500786 0.02357959
0.24047013 0.08030459 0.02656129
0.26936016 0.08649504 0.02983842
0.30018165 0.09292754 0.03349261
0.33365253 0.09894585 0.03771407
0.36905787 0.10548658 0.04172652
0.40636445 0.11240971 0.04618534
0.44090053 0.11921313 0.04977073
0.47412027 0.12697829 0.05341312
0.50596975 0.13521801 0.05676471
0.53694099 0.14377934 0.06008695
0.56688466 0.15241753 0.06328998
0.60310031 0.16311638 0.06662537
0.63713099 0.17331331 0.06941734
0.67163171 0.18551111 0.07208451
0.70721786 0.19959097 0.07427523
0.74990163 0.21613103 0.07653585
0.78751912 0.23565472 0.07910608
0.83496951 0.25989022 0.08163732
0.87953439 0.29056261 0.08394599
0.92677860 0.33100071 0.08480556
0.93400679 0.38662805 0.07930255
0.93184975 0.44541698 0.07336212
0.93471812 0.61140699 0.20572501
0.00555501 0.07334066 0.00000000
0.02429251 0.07512896 0.00000000
0.05534168 0.07708261 0.00116111
0.07863919 0.08162506 0.00246042
0.10162525 0.08439519 0.00447427
0.12384771 0.08701191 0.00543272
0.14809840 0.08925253 0.00708306
0.17182213 0.09252604 0.01409709
0.19620496 0.09603608 0.01777933
0.22129888 0.10041103 0.02068356
0.24789665 0.10490435 0.02367163
0.27754032 0.10976716 0.02712912
0.30861595 0.11489338 0.03098693
0.34117153 0.12019009 0.03491830
0.37473409 0.12621868 0.03871637
0.40841934 0.13257744 0.04247433
0.44215396 0.13907688 0.04612742
0.47508202 0.14663293 0.04964075
0.50548124 0.15407153 0.05310203
0.53531293 0.16153665 0.05649235
0.56452062 0.16875276 0.05959490
0.60075405 0.17824621 0.06342345
0.63531314 0.18827772 0.06672452
0.66949714 0.19991603 0.06936450
0.70572137 0.21349980 0.07179472
0.74875377 0.22944653 0.07422243
0.78571094 0.24795426 0.07680378
0.83293562 0.27161497 0.07936058
0.87780344 0.30132693 0.08166649
0.92481689 0.34118178 0.08278765
0.93362147 0.39627246 0.07826926
0.93156499 0.45241270 0.07285810
0.93480712 0.61350222 0.20779459
0.01265662 0.10377196 0.00000000
0.03776668 0.10536756 0.00000000
0.06941250 0.10697532 0.00000000
0.08980273 0.10937261 0.00000000
0.11205299 0.11173054 0.00145479
0.13347987 0.11349178 0.00410459
0.15546819 0.11565029 0.00747653
0.17785190 0.11902806 0.01008393
0.20230004 0.12280368 0.01318176
0.22780252 0.12591553 0.01674497
0.25468924 0.12957949 0.02027000
0.28345875 0.13387848 0.02366875
0.31364937 0.13843974 0.02751868
0.34569923 0.14310334 0.03140664
0.37832830 0.14864733 0.03518210
0.41060781 0.15457775 0.03891933
0.44271229 0.16054606 0.04248478
0.47426851 0.16645671 0.04598753
0.50433428 0.17260217 0.04941824
0.53453092 0.17919902 0.05276089
0.56356616 0.18616769 0.05595863
0.59909489 0.19563399 0.05990564
0.63342954 0.20517179 0.06297571
0.66738704 0.21643449 0.06589424
0.70439890 0.22945229 0.06893566
0.74614073 0.24452091 0.07164363
0.78438155 0.26249308 0.07448496
0.83197181 0.28558344 0.07701872
0.87608019 0.31411321 0.07906502
0.92276319 0.35335862 0.08062660
0.93310502 0.40736424 0.07712696
0.93122930 0.46077289 0.07224426
0.93491413 0.61600135 0.21030419
0.02368176 0.13272674 0.00022687
0.05514329 0.13450942 0.00044376
0.07901341 0.13553276 0.00068057
0.09984568 0.13694118 0.00000000
0.12052039 0.13881545 0.00000000
0.14123675 0.14065430 0.00007980
0.16371009 0.14268299 0.00292963
0.18562077 0.14592763 0.00586625
0.20962680 0.14952231 0.00475532
0.23519291 0.15264666 0.01313850
0.26162135 0.15587845 0.01663521
0.28919001 0.15924905 0.02009292
0.31771185 0.16322794 0.02412542
0.34845305 0.16713547 0.02772682
0.37983798 0.17170843 0.03167175
0.41161688 0.17662696 0.03538288
0.44364650 0.18180200 0.03896865
0.47477440 0.18707516 0.04241296
0.50414668 0.19309618 0.04579448
0.53384458 0.19956095 0.04903776
0.56209430 0.20627876 0.05213924
0.59745148 0.21548120 0.05613719
0.63219018 0.22488244 0.05945978
0.66605801 0.23517493 0.06270575
0.70240420 0.24716582 0.06581434
0.74321573 0.26182103 0.06883476
0.78307253 0.27926164 0.07201240
0.82901479 0.30109582 0.07436265
0.87429842 0.32914790 0.07640019
0.91956551 0.36751754 0.07828738
0.93250454 0.42023854 0.07590169
0.93083424 0.47048210 0.07151997
0.93504164 0.61895004 0.21332276
0.03999070 0.16415543 0.00003150
0.06923517 0.16519109 0.00000000
0.08977707 0.16622992 0.00000000
0.10963390 0.16734054 0.00000000
0.12950929 0.16760580 0.00000000
0.15000438 0.16888903 0.00000000
0.17096020 0.17055522 0.00000000
0.19244302 0.17297960 0.00249490
0.21663110 0.17535472 0.00558322
0.24156239 0.17792232 0.00948153
0.26751562 0.18066710 0.01260782
0.29450785 0.18378261 0.01602436
0.32219860 0.18731145 0.02020813
0.35165253 0.19114982 0.02406084
0.38224501 0.19561817 0.02782853
0.41346921 0.20030707 0.03136932
0.44504090 0.20518491 0.03507116
0.47542324 0.21024422 0.03878797
0.50447362 0.21572830 0.04225926
0.53431905 0.22195927 0.04555235
0.56214753 0.22824742 0.04851111
0.59679842 0.23669936 0.05217854
0.63106505 0.24524048 0.05559894
0.66480761 0.25521926 0.05914017
0.70179697 0.26696353 0.06265542
0.74249062 0.28087984 0.06635145
0.78107014 0.29751892 0.06909168
0.82589483 0.31842815 0.07160645
0.87231508 0.34644171 0.07379340
0.91626144 0.38354718 0.07596674
0.93206907 0.43450658 0.07479395
0.93037145 0.48137742 0.07102290
0.93518907 0.62231752 0.21684631
0.05877355 0.19476209 0.00000000
0.08161458 0.19520161 0.00000000
0.10182560 0.19617963 0.00000000
0.11920502 0.19645436 0.00000000
0.13789008 0.19660252 0.00000000
0.15898095 0.19734183 0.00000000
0.17814517 0.19896370 0.00000000
0.19974368 0.20048768 0.00000000
0.22299687 0.20273879 0.00251042
0.24695413 0.20495991 0.00449111
0.27246099 0.20766937 0.00945420
0.29912832 0.21068392 0.01260768
0.32671202 0.21339323 0.01644123
0.35587324 0.21683329 0.02027110
0.38592789 0.22106512 0.02389940
0.41623351 0.22552691 0.02762689
0.44748401 0.23007136 0.03143385
0.47745713 0.23473047 0.03499193
0.50603544 0.23946989 0.03840638
0.53538646 0.24505114 0.04163764
0.56255854 0.25083232 0.04469740
0.59755872 0.25908602 0.04839107
0.63152453 0.26739196 0.05175635
0.66445024 0.27690455 0.05536856
0.70062670 0.28795521 0.05883397
0.74049353 0.30136488 0.06239581
0.78055511 0.31751585 0.06577597
0.82541057 0.33843765 0.06870459
0.86851290 0.36524186 0.07126702
0.91278612 0.40132798 0.07366169
0.93159362 0.44974726 0.07362936
0.92988822 0.49331530 0.07062006
0.93535569 0.62606670 0.22086519
0.07516073 0.22724631 0.00000000
0.09692856 0.22710861 0.00000000
0.11412774 0.22723878 0.00000000
0.13016067 0.22752687 0.00000000
0.14767198 0.22780776 0.00000000
0.16693276 0.22838022 0.00000000
0.18670509 0.22913800 0.00016641
0.20767314 0.23030454 0.00106025
0.23043622 0.23182794 0.00173666
0.25384709 0.23354811 0.00252929
0.27896628 0.23608370 0.00585856
0.30490533 0.23850763 0.00935022
0.33214172 0.24118964 0.01248334
0.36105742 0.24413330 0.01632104
0.39089890 0.24762416 0.01994567
0.42076755 0.25176776 0.02336937
0.45132785 0.25593573 0.02726730
0.48035094 0.26028722 0.03102560
0.50883342 0.26496157 0.03453921
0.53765754 0.27036119 0.03772504
0.56432429 0.27583477 0.04068948
0.59884090 0.28325724 0.04444878
0.63165163 0.29094998 0.04780036
0.66397665 0.30027468 0.05116670
0.70062311 0.31100685 0.05466024
0.73939179 0.32369015 0.05832757
0.77964777 0.33953077 0.06185501
0.82252649 0.36050399 0.06493667
0.86644397 0.38649007 0.06826370
0.91005353 0.42063167 0.07155880
0.93107544 0.46587026 0.07239078
0.92948700 0.50647482 0.07027012
0.93554362 0.63021921 0.22543192
0.09389810 0.25961517 0.00171431
0.11438684 0.25887969 0.00192708
0.12950811 0.25894529 0.00231958
0.14403280 0.25852691 0.00254335
0.16080515 0.25840117 0.00283998
0.17777819 0.25886633 0.00318409
0.19668737 0.25950982 0.00358528
0.21756768 0.26052050 0.00423598
0.23919995 0.26182512 0.00405918
0.26247790 0.26333058 0.00381102
0.28682585 0.26530078 0.00497978
0.31211553 0.26756054 0.00585031
0.33884312 0.27015584 0.01007332
0.36720706 0.27301783 0.01276585
0.39647941 0.27615853 0.01651504
0.42607486 0.27951385 0.01987138
0.45554774 0.28322118 0.02312720
0.48379282 0.28743128 0.02671341
0.51211419 0.29187049 0.03018686
0.54014037 0.29656802 0.03353188
0.56636259 0.30169913 0.03656523
0.60105436 0.30907507 0.04025033
0.63291826 0.31642319 0.04366617
0.66406478 0.32502404 0.04727182
0.70060270 0.33553174 0.05049955
0.73841803 0.34825043 0.05379629
0.77855921 0.36404320 0.05723692
0.81970940 0.38401032 0.06073206
0.86454246 0.40887112 0.06476842
0.90641503 0.44160344 0.06970231
0.93050324 0.48259969 0.07102446
0.92905738 0.52026732 0.06991325
0.93568802 0.63473313 0.22926924
0.11442715 0.29281129 0.00570294
0.13115432 0.29204221 0.00583398
0.14553421 0.29148915 0.00586262
0.15915828 0.29108573 0.00593160
0.17369821 0.29086262 0.00449429
0.19024294 0.29094734 0.01268282
0.20860362 0.29159145 0.01107579
0.22842675 0.29222669 0.00588869
0.24957072 0.29326845 0.00551797
0.27217175 0.29470735 0.00496714
0.29600387 0.29634574 0.00444318
0.32083426 0.29845068 0.00469639
0.34708618 0.30066211 0.00537278
0.37493303 0.30288620 0.00581014
0.40371161 0.30568356 0.01328136
0.43264091 0.30885022 0.01669453
0.46086944 0.31222351 0.01979897
0.48796553 0.31576432 0.02265579
0.51630444 0.32020213 0.02612405
0.54369875 0.32510901 0.02961507
0.56940789 0.33022558 0.03296382
0.60348160 0.33706140 0.03637885
0.63431978 0.34418694 0.03931595
0.66469942 0.35279966 0.04268245
0.70043732 0.36256436 0.04590328
0.73782470 0.37516483 0.04918071
0.77899980 0.39053433 0.05262302
0.81886060 0.40924876 0.05650309
0.86112163 0.43278451 0.06207088
0.90278887 0.46286646 0.06765139
0.92996006 0.50096627 0.06975646
0.92889038 0.53467014 0.07115862
0.93582170 0.63956508 0.23301902
0.13325074 0.32703250 0.03247017
0.14825475 0.32627720 0.03093697
0.16218445 0.32568019 0.02948707
0.17368400 0.32540967 0.02861843
0.18745062 0.32523038 0.02770701
0.20382573 0.32514290 0.02658829
0.22145745 0.32526836 0.02465307
0.23995449 0.32545970 0.01580698
0.26081162 0.32618796 0.00582635
0.28281981 0.32738222 0.00570008
0.30604972 0.32890856 0.00581921
0.33067222 0.33068426 0.00497037
0.35653413 0.33251833 0.00557275
0.38376447 0.33464683 0.00592006
0.41174789 0.33701743 0.01180629
0.44052480 0.33992019 0.01691882
0.46805074 0.34345730 0.02285332
0.49474834 0.34726670 0.02808315
0.52171369 0.35168532 0.02561339
0.54784562 0.35646335 0.02622995
0.57292547 0.36150993 0.02949966
0.60668718 0.36796267 0.03264916
0.63621622 0.37435240 0.03532805
0.66646030 0.38238176 0.03929445
0.70262489 0.39238536 0.04143538
0.73839296 0.40413543 0.04499421
0.77750811 0.41821317 0.04869640
0.81620120 0.43606400 0.05283574
0.85916889 0.45723907 0.05904336
0.89937281 0.48431640 0.06536212
0.92944613 0.51979634 0.06855645
0.92897788 0.54954950 0.07379766
0.93596760 0.64466548 0.23714478
0.15210757 0.36391114 0.04545227
0.16558603 0.36307609 0.04468867
0.17811902 0.36228004 0.04433225
0.18958902 0.36198564 0.04384916
0.20311721 0.36177387 0.04324174
0.21863149 0.36168654 0.04176070
0.23574584 0.36173757 0.03985503
0.25376237 0.36186396 0.03759977
0.27370544 0.36220195 0.03221347
0.29495546 0.36272981 0.03098669
0.31770875 0.36411761 0.02851721
0.34201283 0.36555289 0.02685960
0.36777741 0.36715069 0.02623924
0.39477741 0.36909832 0.02685935
0.42206126 0.37144159 0.02642287
0.44937030 0.37409196 0.02561147
0.47621356 0.37686392 0.02949821
0.50245761 0.38064330 0.03100313
0.52848250 0.38488477 0.02851271
0.55325278 0.38934985 0.02620420
0.57732129 0.39400823 0.02610028
0.61065130 0.40029832 0.03163033
0.63964682 0.40659864 0.03751707
0.66933708 0.41390909 0.04145751
0.70298301 0.42285133 0.03885991
0.73791235 0.43390522 0.04190868
0.77709178 0.44676639 0.04550198
0.81397079 0.46226689 0.05263084
0.85788842 0.48144842 0.05673628
0.89842604 0.50678666 0.06356266
0.92891632 0.53847868 0.06717915
0.92910612 0.56467902 0.07690217
0.93612522 0.64999336 0.24165214
0.17022955 0.40251190 0.06169777
0.18233559 0.40170741 0.06126587
0.19472588 0.40099941 0.06091197
0.20657327 0.40055328 0.06049467
0.21937764 0.40002598 0.05980841
0.23389916 0.39989388 0.05812998
0.25044411 0.39990930 0.05621670
0.26863803 0.39994560 0.05421243
0.28821409 0.39998567 0.05287322
0.30889965 0.40046378 0.04909521
0.33115935 0.40111663 0.04584574
0.35496535 0.40226712 0.04392784
0.38020518 0.40366552 0.04233818
0.40657072 0.40542648 0.04116034
0.43320734 0.40750772 0.03956100
0.45935883 0.41005158 0.03873867
0.48487268 0.41278024 0.03878097
0.51059819 0.41567115 0.03643130
0.53571908 0.41959633 0.03642185
0.55981194 0.42385863 0.03682787
0.58393857 0.42814714 0.03642553
0.61521462 0.43392315 0.03696502
0.64314889 0.43968069 0.04310865
0.67277613 0.44627862 0.04571939
0.70483581 0.45381969 0.04200369
0.73786839 0.46310546 0.03895989
0.77796268 0.47450903 0.04507967
0.81275266 0.48878219 0.05503177
0.85510096 0.50633725 0.05756926
0.89539979 0.52929469 0.06142689
0.92837341 0.55699620 0.06568637
0.92915675 0.58081807 0.08037735
0.93629567 0.65556646 0.24659740
0.18958076 0.44318843 0.07291998
0.20147750 0.44247335 0.07251900
0.21249175 0.44171816 0.07193336
0.22366694 0.44103952 0.07137486
0.23575535 0.44058298 0.07078161
0.24982306 0.44041548 0.06961548
0.26592362 0.44008722 0.06830088
0.28388013 0.43932562 0.06727636
0.30301009 0.43922342 0.06615358
0.32329583 0.43948726 0.06383256
0.34541316 0.43978778 0.06289416
0.36928055 0.44034702 0.06204812
0.39396242 0.44149058 0.06019358
0.41948350 0.44280910 0.05814010
0.44515239 0.44430899 0.05590522
0.47011426 0.44634491 0.05475015
0.49494546 0.44877528 0.05422892
0.52006047 0.45129097 0.05329588
0.54390957 0.45399749 0.05207535
0.56712222 0.45743955 0.05181088
0.59129221 0.46116053 0.05021530
0.62135282 0.46618559 0.04795050
0.64739680 0.47126832 0.04900009
0.67654230 0.47726618 0.04879487
0.70722235 0.48429104 0.04737440
0.73845983 0.49245106 0.04967518
0.77611025 0.50246269 0.05016846
0.81060714 0.51566181 0.06069295
0.85299628 0.53078258 0.05974849
0.89259956 0.55091267 0.06171759
0.92779357 0.57733070 0.06531293
0.92912025 0.59714743 0.08347612
0.93650776 0.66143249 0.25186041
0.20917032 0.48173940 0.08152645
0.21976876 0.48099220 0.08087391
0.23018309 0.48030294 0.08032365
0.24084428 0.47965223 0.07981197
0.25292297 0.47912646 0.07928608
0.26663453 0.47837312 0.07876520
0.28212085 0.47760250 0.07797574
0.29940656 0.47686724 0.07723469
0.31850511 0.47631636 0.07653871
0.33846348 0.47637222 0.07631642
0.36019678 0.47656832 0.07574841
0.38349926 0.47691129 0.07529458
0.40779630 0.47751755 0.07473455
0.43277697 0.47840697 0.07410240
0.45713947 0.47978321 0.07270208
0.48103019 0.48136660 0.07132190
0.50549413 0.48327199 0.07044280
0.52945604 0.48561811 0.06988372
0.55231536 0.48813938 0.06930174
0.57493467 0.49087692 0.06824506
0.59823700 0.49403580 0.06625745
0.62696141 0.49887309 0.06415265
0.65177028 0.50362927 0.06279608
0.67900732 0.50852885 0.06214524
0.70842471 0.51455381 0.06290007
0.74039350 0.52181626 0.06394587
0.77582086 0.53018296 0.06137207
0.80875665 0.54132341 0.06605011
0.85234137 0.55465299 0.06676869
0.89251044 0.57280678 0.06851589
0.92694789 0.59689347 0.06646282
0.92934534 0.61379500 0.09023735
0.93675066 0.66756386 0.25744248
0.22892554 0.51924400 0.09365942
0.23894627 0.51862739 0.09307713
0.24899178 0.51806185 0.09253896
0.25910538 0.51729295 0.09232616
0.27094159 0.51646398 0.09217001
0.28411721 0.51576539 0.09181082
0.29902853 0.51512676 0.09093007
0.31574341 0.51451778 0.09005573
0.33414782 0.51372018 0.09023101
0.35411987 0.51344318 0.09037791
0.37533024 0.51366011 0.08995537
0.39794712 0.51401730 0.08934085
0.42159780 0.51402242 0.08923939
0.44561405 0.51455770 0.08873897
0.46893669 0.51557162 0.08772769
0.49211114 0.51678726 0.08593631
0.51570462 0.51796173 0.08462162
0.53847112 0.51965705 0.08366324
0.56046609 0.52182617 0.08299738
0.58318029 0.52414137 0.08180407
0.60530024 0.52661428 0.07988543
0.63248396 0.53026674 0.07800898
0.65669732 0.53427504 0.07686040
0.68369600 0.53839154 0.07561203
0.71083789 0.54326982 0.07525640
0.74277611 0.54943994 0.07488251
0.77712714 0.55684677 0.07270424
0.80828629 0.56637406 0.07166451
0.85087269 0.57888962 0.07463228
0.89198293 0.59521465 0.07493326
0.92652168 0.61531973 0.07223847
0.92971099 0.63010480 0.09961859
0.93700344 0.67382584 0.26221049
0.24922368 0.55483881 0.10551098
0.25869226 0.55406612 0.10530866
0.26811827 0.55334158 0.10513248
0.27779249 0.55263880 0.10497566
0.28935262 0.55184998 0.10481843
0.30221122 0.55118177 0.10459881
0.31657237 0.55057414 0.10387089
0.33240228 0.54975831 0.10411916
0.35050716 0.54895728 0.10445663
0.37036979 0.54820737 0.10489094
0.39112520 0.54829401 0.10478912
0.41295541 0.54817383 0.10443703
0.43565139 0.54807760 0.10422536
0.45854203 0.54808214 0.10393419
0.48086263 0.54867650 0.10307984
0.50377465 0.54934934 0.10219924
0.52621615 0.55024745 0.10060686
0.54781298 0.55128293 0.09920547
0.56909059 0.55277331 0.09818875
0.59159135 0.55470652 0.09820663
0.61272792 0.55679730 0.09716025
0.63849809 0.55985231 0.09471158
0.66187327 0.56296140 0.09300198
0.68771566 0.56678806 0.09148469
0.71417578 0.57128558 0.09038011
0.74434344 0.57657166 0.08879484
0.77717849 0.58338037 0.08693038
0.80924894 0.59184105 0.08547310
0.84947259 0.60237079 0.08274146
0.89062965 0.61658296 0.08201241
0.92640488 0.63348444 0.07953411
0.93016255 0.64558742 0.11103326
0.93726942 0.68018699 0.26725446
0.26952458 0.58775032 0.11748832
0.27860141 0.58708651 0.11731026
0.28760341 0.58646109 0.11715315
0.29688107 0.58585170 0.11701112
0.30803475 0.58516449 0.11686570
0.32051021 0.58436551 0.11689705
0.33416711 0.58364918 0.11696710
0.34980046 0.58292583 0.11708739
0.36740371 0.58221099 0.11727126
0.38663035 0.58153719 0.11752716
0.40698122 0.58083079 0.11772754
0.42797918 0.58062163 0.11746112
0.44934748 0.58053864 0.11706948
0.47084985 0.58056741 0.11677426
0.49285745 0.58059484 0.11686129
0.51480977 0.58112698 0.11686209
0.53600604 0.58197184 0.11561035
0.55648610 0.58298521 0.11417142
0.57754127 0.58377372 0.11401343
0.59884252 0.58500693 0.11437205
0.61894216 0.58692393 0.11452295
0.64349123 0.58969064 0.11298281
0.66625943 0.59195181 0.11143031
0.69070151 0.59483924 0.10999944
0.71649806 0.59872651 0.10794770
0.74786606 0.60306119 0.10677100
0.77772309 0.60836691 0.10453761
0.81051506 0.61569440 0.10165438
0.84951100 0.62473928 0.09466117
0.88960554 0.63671953 0.09167707
0.92653624 0.65227428 0.09138362
0.93056075 0.66095045 0.12165043
0.93754946 0.68664601 0.27258430
0.28976538 0.62046855 0.13037107
0.29847301 0.61990365 0.13019632
0.30709674 0.61930897 0.13007434
0.31576637 0.61853130 0.13007600
0.32622777 0.61763849 0.13009644
0.33877585 0.61667610 0.13015145
0.35228555 0.61604440 0.13023013
0.36747057 0.61539316 0.13034035
0.38450132 0.61473924 0.13051062
0.40276097 0.61377886 0.13069015
0.42213104 0.61279542 0.13093739
0.44226689 0.61234192 0.13098485
0.46227935 0.61220560 0.13052352
0.48294717 0.61208990 0.13033069
0.50418248 0.61196823 0.13051518
0.52527645 0.61200044 0.13076848
0.54551242 0.61254211 0.13063318
0.56533919 0.61324726 0.12936084
0.58608975 0.61363961 0.12979661
0.60625633 0.61415639 0.13039133
0.62535580 0.61522369 0.13081070
0.64910654 0.61731453 0.13053802
0.67134858 0.61900783 0.12812852
0.69461071 0.62107906 0.12569944
0.71919945 0.62400470 0.12317972
0.75143196 0.62763149 0.12352627
0.77999031 0.63209672 0.12211462
0.81174551 0.63807307 0.11784243
0.84920935 0.64625676 0.11125489
0.88947594 0.65597796 0.10704846
0.92466486 0.66919999 0.10570012
0.93100701 0.67611836 0.13343786
0.93789641 0.69359281 0.27755894
0.30989829 0.64897665 0.14394034
0.31802196 0.64828365 0.14391251
0.32615755 0.64761753 0.14389763
0.33464231 0.64695498 0.14389514
0.34497091 0.64619061 0.14390908
0.35737574 0.64533033 0.14395369
0.37077564 0.64467212 0.14402276
0.38543378 0.64403801 0.14410786
0.40158270 0.64314815 0.14419702
0.41888749 0.64225310 0.14434592
0.43732744 0.64136710 0.14456500
0.45629017 0.64056963 0.14483452
0.47542548 0.64034815 0.14463696
0.49547716 0.64009957 0.14466057
0.51562099 0.63992874 0.14478464
0.53551739 0.63978963 0.14489046
0.55495568 0.63985008 0.14497009
0.57496533 0.63996077 0.14502934
0.59479929 0.64015989 0.14490669
0.61394464 0.64045921 0.14491296
0.63205117 0.64085527 0.14504972
0.65515936 0.64195943 0.14505464
0.67651166 0.64352215 0.14448255
0.69883357 0.64544374 0.14164333
0.72279882 0.64766560 0.13942266
0.75325944 0.65065366 0.13974726
0.78088546 0.65469271 0.14038119
0.81159696 0.65934083 0.13616083
0.84832733 0.66611987 0.12750245
0.88931476 0.67410779 0.12233839
0.92289864 0.68518774 0.11962566
0.93154592 0.69086872 0.14653892
0.93826245 0.70056846 0.28263768
0.33590825 0.68277727 0.16256932
0.34386839 0.68222376 0.16254010
0.35184793 0.68169043 0.16252119
0.36009334 0.68115871 0.16251197
0.36998239 0.68054334 0.16251420
0.38159912 0.67959114 0.16263083
0.39456799 0.67847682 0.16278973
0.40812520 0.67776443 0.16280497
0.42313835 0.67701821 0.16285951
0.43923921 0.67628272 0.16298119
0.45601786 0.67555220 0.16316226
0.47372798 0.67444493 0.16341677
0.49213977 0.67331174 0.16364020
0.51073139 0.67306549 0.16354756
0.52927311 0.67287963 0.16353579
0.54760927 0.67276011 0.16361180
0.56667736 0.67259521 0.16360134
0.58600346 0.67249666 0.16367817
0.60460254 0.67262888 0.16379835
0.62244969 0.67290573 0.16369245
0.63945862 0.67322750 0.16370267
0.66200157 0.67334212 0.16389318
0.68234480 0.67409363 0.16395113
0.70376889 0.67562160 0.16313616
0.72843435 0.67719057 0.16159038
0.75525596 0.67888291 0.16179040
