public/luts/builtin/fuji_classic_chrome.cube
TITLE "Rec709800_sRGB-LA:FLog2_to_CLASSICCHROME_LA:FLog2_to_CLASSICCHROME"
LUT_3D_SIZE 9
# Rec709 (800%)/sRGB -> LA - :FLog2_to_CLASSIC-CHROME/LA - :FLog2_to_CLASSIC-CHROME, CineEI Shift 0.00, Black Level -0.01% IRE, Input 100% -> Output 100% - Created with LUTCalc v4.09 by Ben Turley February 2025
0.00000000 0.00000000 0.00000000
0.02409263 0.00000000 0.00000000
0.10759452 0.00146312 0.00240865
0.25593112 0.00813758 0.00742434
0.46092654 0.02468987 0.01705623
0.65067290 0.05897915 0.03742510
0.79933640 0.12617330 0.07416387
0.93093955 0.27352518 0.15542416
0.95262804 0.66211033 0.43248287
0.00000000 0.03242534 0.00002851
0.04496753 0.03832417 0.00000664
0.15015784 0.04904322 0.00169276
0.31466282 0.06584870 0.00825820
0.48921372 0.09231762 0.01674593
0.64093300 0.12981875 0.03520582
0.79072937 0.19785579 0.07297528
0.92387240 0.32942085 0.15386128
0.95255884 0.67027760 0.43783346
0.01543761 0.15480734 0.00000378
0.07763145 0.15773194 0.00000359
0.19087735 0.16714912 0.00000000
0.34436045 0.18286078 0.00720383
0.50219725 0.20925249 0.01727731
0.63967032 0.24511169 0.03609746
0.78063773 0.30433408 0.07502155
0.91617003 0.40776943 0.15957405
0.95244373 0.68366348 0.44685563
0.06932512 0.34577047 0.00895742
0.13761888 0.34374916 0.00918267
0.25009817 0.34515526 0.01130636
0.38824966 0.35343197 0.01856660
0.52809428 0.36840552 0.03563690
0.64831358 0.39094911 0.05679722
0.77517197 0.43097274 0.09274035
0.90851555 0.50615070 0.17602212
0.95281035 0.70201306 0.45922790
0.15858893 0.52464790 0.05041473
0.22526916 0.52173447 0.05154585
0.32444818 0.51873739 0.05718656
0.44269201 0.52072901 0.06619821
0.56223440 0.52705333 0.08015282
0.66607179 0.53896641 0.09955930
0.77795432 0.56113608 0.13214710
0.90087981 0.60517525 0.20912623
0.95345400 0.72432538 0.47483958
0.26304802 0.65662017 0.11290846
0.31893179 0.65485290 0.11466607
0.39674692 0.65283959 0.11910160
0.49650153 0.65199989 0.12653623
0.59793284 0.65332295 0.13910456
0.68611446 0.65758455 0.15594335
0.78397596 0.66663826 0.18452587
0.89553177 0.68988797 0.25553953
0.95464110 0.74940326 0.49267523
0.38924487 0.77506284 0.20653098
0.42763620 0.77402216 0.20792454
0.48764754 0.77189835 0.21167522
0.56187952 0.77054499 0.21787436
0.63994225 0.76946927 0.22914025
0.70992100 0.76906396 0.24466646
0.79492708 0.77202212 0.27176554
0.89148913 0.78235156 0.32779667
0.95684084 0.78631415 0.52024016
0.55991321 0.88124352 0.36464159
0.58099255 0.88078087 0.36674861
0.61531701 0.88003187 0.37056052
0.65949272 0.87882236 0.37717117
0.70717706 0.87795847 0.38510502
0.75610607 0.87689465 0.39508669
0.81604999 0.87646166 0.40900504
0.89428013 0.87719119 0.44261353
0.96072120 0.83589663 0.56466550
0.82630123 0.97674188 0.71925762
0.82765317 0.97682244 0.71928639
0.82997971 0.97696232 0.71933776
0.83349265 0.97717578 0.71941990
0.83814917 0.97746058 0.71953712
0.84377820 0.97780645 0.71969359
0.85285144 0.97831894 0.71990944
0.87300894 0.97930280 0.72039745
0.98128044 0.98719843 0.71136182
0.00000272 0.00000007 0.01485483
0.03087035 0.00079542 0.01634123
0.13302879 0.00289303 0.02392393
0.30790056 0.00992650 0.04125210
0.51550538 0.02889039 0.06043716
0.67882973 0.06340061 0.08568735
0.81432052 0.13289515 0.13085895
0.93621970 0.27971727 0.22577046
0.95263349 0.66423103 0.46036534
0.00000000 0.04576356 0.04838257
0.04946627 0.04946627 0.04946627
0.17177037 0.05817978 0.04997348
0.34647537 0.07465557 0.05777516
0.51838394 0.09972087 0.07178644
0.66361551 0.13769744 0.09314216
0.80403974 0.20579767 0.13629138
0.93027387 0.33486460 0.22786946
0.95270513 0.67212148 0.46494809
0.00798676 0.18327328 0.08296291
0.07642039 0.18130347 0.07533186
0.20307573 0.18492167 0.07399072
0.36345514 0.19761760 0.07940859
0.52358716 0.22250366 0.09161322
0.65707611 0.25682822 0.11205094
0.79295578 0.31368611 0.15270450
0.92177920 0.41347509 0.23642791
0.95282836 0.68506552 0.47274147
0.05890868 0.36657392 0.11677482
0.13290710 0.36353108 0.11139248
0.25405621 0.36245834 0.10947309
0.39717667 0.36743060 0.11395141
0.54040574 0.38137203 0.12493575
0.65984132 0.40104293 0.14544085
0.78405761 0.43914979 0.17929483
0.91269495 0.50970768 0.25545376
0.95325846 0.70277480 0.48381868
0.14834389 0.53518989 0.16310429
0.21930123 0.53200669 0.16071952
0.32303677 0.52905306 0.16091790
0.44526742 0.52962404 0.16422113
0.56772085 0.53529789 0.17403236
0.67185833 0.54520576 0.18877665
0.78249743 0.56524212 0.21807392
0.90294207 0.60797785 0.28620331
0.95393549 0.72484265 0.49828259
0.25338523 0.66119296 0.21896675
0.31238801 0.65927307 0.21809939
0.39308098 0.65699005 0.21824445
0.49644681 0.65580734 0.22087252
0.59913519 0.65712372 0.22911667
0.68773695 0.66026675 0.24135745
0.78665880 0.66801050 0.26464108
0.89651013 0.69174247 0.32642505
0.95497362 0.74981639 0.51478477
0.38196478 0.77547963 0.29663943
0.42141553 0.77432968 0.29679886
0.48411762 0.77209744 0.29820951
0.56015367 0.77069655 0.30140680
0.64015699 0.77009500 0.30879018
0.71091053 0.77014415 0.32041984
0.79579828 0.77300025 0.34103820
0.89282141 0.78304726 0.38639177
0.95717120 0.78647361 0.53969607
0.55574276 0.88041110 0.42082086
0.57748704 0.88003764 0.42230137
0.61193927 0.87928067 0.42590167
0.65729112 0.87840797 0.43094227
0.70588237 0.87772074 0.43674422
0.75516221 0.87660722 0.44537934
0.81640270 0.87615189 0.45668522
0.89424343 0.87668658 0.48264808
0.96097764 0.83568576 0.58078853
0.82587841 0.97679167 0.72341810
0.82723577 0.97687185 0.72344444
0.82957096 0.97701105 0.72349154
0.83309517 0.97722342 0.72356695
0.83776288 0.97750666 0.72367485
0.84341203 0.97784974 0.72381929
0.85244682 0.97838383 0.72408435
0.87263516 0.97936630 0.72454965
0.98144019 0.98759884 0.71532236
0.00000876 0.00258771 0.06331279
0.03755844 0.00375690 0.06805301
0.16139769 0.00669298 0.09118221
0.35951354 0.01659687 0.12922128
0.56966691 0.04203288 0.16699369
0.71064281 0.08134800 0.20474762
0.83168278 0.15351034 0.25481258
0.94303484 0.29466792 0.33990964
0.95331677 0.66781344 0.50153687
0.00000084 0.06401261 0.15073151
0.04888189 0.06838887 0.15637175
0.19164049 0.07638584 0.16087248
0.37964125 0.09220931 0.17364684
0.55416184 0.11874081 0.19285504
0.68994714 0.15858562 0.21918805
0.81824914 0.22346342 0.26286511
0.93497517 0.34716604 0.34207505
0.95333112 0.67540844 0.50535968
0.00389438 0.21744049 0.23358347
0.06767213 0.21390262 0.22214823
0.21524436 0.21524436 0.21524436
0.38411213 0.22660009 0.21376832
0.54760717 0.24876971 0.22330601
0.67552626 0.28020668 0.24297384
0.80512004 0.33199098 0.27980108
0.92734369 0.42415674 0.34897901
0.95335672 0.68788110 0.51188440
0.04073049 0.39551510 0.28011292
0.11967901 0.39014743 0.26975313
0.25273365 0.38706125 0.26130872
0.40825882 0.38917857 0.25921123
0.55314808 0.40019594 0.26293029
0.67146045 0.41884829 0.27744551
0.79419527 0.45326617 0.30488633
0.91669723 0.51790979 0.36283986
0.95369139 0.70535322 0.52182970
0.12801900 0.55202679 0.32087869
0.20435022 0.54844384 0.31502369
0.31844770 0.54523128 0.30934703
0.44763758 0.54444582 0.30631832
0.57313345 0.54809414 0.30986687
0.67901989 0.55641980 0.31849164
0.78828421 0.57414752 0.33689404
0.90562936 0.61325107 0.38548752
0.95427965 0.72658928 0.53442116
0.23601472 0.66791159 0.35871685
0.29873366 0.66604362 0.35582202
0.38441454 0.66418385 0.35286921
0.49273533 0.66251983 0.35147022
0.59942488 0.66250132 0.35390593
0.69003866 0.66537845 0.35913048
0.78944997 0.67254711 0.37524231
0.89907822 0.69456988 0.41667262
0.95543843 0.75074018 0.54887424
0.36863723 0.77792523 0.40877538
0.41010526 0.77657278 0.40831789
0.47524159 0.77414855 0.40853294
0.55593485 0.77282882 0.40893195
0.63776392 0.77181168 0.41331995
0.71156406 0.77167330 0.42023107
0.79750796 0.77497322 0.43313241
0.89487164 0.78457354 0.46780745
0.95777074 0.78690832 0.57099269
0.54818032 0.87868744 0.49969349
0.57109605 0.87831801 0.50081696
0.60656205 0.87778767 0.50287855
0.65288526 0.87721097 0.50581204
0.70238748 0.87686125 0.50894477
0.75246257 0.87604532 0.51459942
0.81546417 0.87565997 0.52352043
0.89395543 0.87607235 0.54145018
0.96152995 0.83537882 0.60569467
0.82516413 0.97687596 0.73043835
0.82653078 0.97695550 0.73046083
0.82888083 0.97709352 0.73050112
0.83242450 0.97730402 0.73056586
0.83711172 0.97758455 0.73065892
0.84279370 0.97792264 0.73078420
0.85185292 0.97844938 0.73101584
0.87201244 0.97947322 0.73161273
0.98172349 0.98827512 0.72202580
0.00000682 0.00633119 0.12714608
0.04974668 0.00787048 0.14712492
0.19747672 0.01384180 0.19292048
0.41300219 0.02838370 0.25729276
0.61261597 0.06066843 0.31442671
0.73745040 0.10346218 0.34646942
0.84840931 0.17802864 0.39084313
0.94779358 0.31547401 0.45766884
0.95363106 0.67300357 0.55389256
0.00093423 0.08969977 0.30333040
0.04691334 0.09407280 0.31436176
0.21343880 0.10265863 0.32057452
0.41484919 0.11908038 0.32912221
0.58637777 0.14795399 0.34318334
0.71213115 0.18662534 0.36410627
0.83248151 0.24987845 0.39857248
0.94068471 0.36522217 0.45957992
0.95371533 0.68014039 0.55723031
0.00398537 0.25970215 0.40891287
0.05515529 0.25214938 0.39247405
0.21722989 0.25143851 0.37909905
0.40136868 0.26070720 0.37329640
0.56847249 0.28074460 0.37763096
0.69323981 0.30883019 0.38901731
0.81669010 0.35407298 0.41446313
0.93162481 0.43987527 0.46559070
0.95381231 0.69201927 0.56279623
0.02971253 0.42894773 0.44934454
0.10214505 0.42254360 0.43703797
0.24865434 0.41735066 0.42525660
0.41649806 0.41649806 0.41649806
0.56723115 0.42714288 0.41460753
0.68405178 0.44305037 0.42039096
0.80355449 0.47164083 0.43671825
0.91999906 0.52980909 0.47702448
0.95415898 0.70902891 0.57039625
0.10508963 0.57145809 0.47865396
0.18393325 0.56754633 0.47123122
0.30863070 0.56335658 0.46179293
0.44695338 0.56237527 0.45387335
0.57854312 0.56420121 0.45286077
0.68480746 0.57093297 0.45313548
0.79203751 0.58662441 0.46172168
0.90965505 0.62140686 0.49656821
0.95466067 0.72959173 0.58009540
0.20814723 0.67773701 0.50252537
0.27686350 0.67548186 0.49817922
0.37020500 0.67276061 0.49254376
0.48661308 0.67086370 0.48697972
0.59811113 0.67159108 0.48426542
0.69188988 0.67328697 0.48604418
0.79224385 0.68028704 0.49325313
0.90196356 0.69995072 0.52090154
0.95553648 0.75286327 0.59150210
0.34642616 0.78212675 0.53425515
0.39131019 0.78038850 0.53291486
0.46299708 0.77772789 0.53111722
0.54717127 0.77639177 0.52964143
0.63387332 0.77516833 0.52949286
0.71183051 0.77519124 0.53189327
0.79886502 0.77846796 0.53814880
0.89708772 0.78749368 0.55808800
0.95803877 0.78800059 0.60908965
0.53345118 0.87660949 0.58705473
0.55809746 0.87630204 0.58798659
0.59634704 0.87574833 0.58951346
0.64473570 0.87515464 0.59118136
0.69657862 0.87516340 0.59245727
0.74793594 0.87510542 0.59427176
0.81327154 0.87524326 0.59834506
0.89289552 0.87500956 0.60804572
0.96251289 0.83552883 0.63826514
0.82389381 0.97694257 0.74173069
0.82527447 0.97702125 0.74175245
0.82764672 0.97715778 0.74179145
0.83121886 0.97736591 0.74185416
0.83593295 0.97764305 0.74194434
0.84165820 0.97797586 0.74206581
0.85074486 0.97849509 0.74229057
0.87105612 0.97955574 0.74276614
0.98217420 0.98925103 0.73191355
0.00000000 0.01131519 0.21787830
0.06768674 0.01520136 0.26060199
0.23720274 0.02543228 0.32921888
0.46772802 0.04905389 0.40832544
0.64541221 0.08813559 0.45437412
0.75950510 0.13248158 0.48265440
0.86207757 0.20757670 0.51943532
0.95154854 0.33699648 0.56570063
0.95375370 0.68088227 0.60567435
0.00158695 0.12390653 0.46714654
0.04164824 0.12690738 0.47763141
0.23102456 0.13361622 0.47814565
0.44060729 0.15225981 0.48021145
0.61185992 0.18206723 0.48807021
0.73141943 0.22084475 0.50273711
0.84397951 0.28298692 0.52768503
0.94467755 0.38522483 0.56888389
0.95393722 0.68756522 0.60832763
0.00500474 0.30216448 0.56638468
0.04549132 0.29533170 0.54902607
0.21557687 0.29360016 0.53430476
0.41564986 0.29968272 0.52329946
0.58596953 0.31613597 0.52232921
0.70812575 0.33984827 0.52798368
0.82662546 0.38010194 0.54267781
0.93402619 0.45849419 0.57471499
0.95419585 0.69870726 0.61288650
0.02382686 0.46189860 0.59614467
0.08398535 0.45562276 0.58403339
0.23883432 0.45059821 0.57006728
0.41668882 0.44953718 0.55899477
0.57475877 0.45632383 0.55348727
0.69348867 0.46850100 0.55325260
0.81074364 0.49278048 0.55935318
0.92478729 0.54512488 0.58397673
0.95484288 0.71475864 0.61846965
0.08177334 0.59299722 0.61294926
0.15268297 0.58886742 0.60499202
0.28942028 0.58407296 0.59525618
0.44018132 0.58122394 0.58562226
0.58036257 0.58036257 0.58036257
0.68951138 0.58768784 0.57781274
0.79704741 0.60021910 0.57971070
0.91240569 0.63259105 0.59825398
0.95584696 0.73397002 0.62620231
0.17068609 0.68838245 0.62569764
0.24572309 0.68604341 0.62136606
0.34896346 0.68364756 0.61471427
0.47414092 0.68170263 0.60779338
0.59409515 0.68141253 0.60196220
0.69268377 0.68298764 0.60024817
0.79468214 0.68981645 0.60152046
0.90401334 0.70837287 0.61556432
0.95695921 0.75609140 0.63551427
0.31947701 0.78730801 0.64140263
0.36745954 0.78544734 0.63965397
0.44325533 0.78317295 0.63688403
0.53555521 0.78139527 0.63391650
0.62876281 0.78050375 0.63154549
0.70941202 0.78094095 0.63062187
0.79935784 0.78357094 0.63266711
0.89859008 0.79245047 0.64291469
0.95866086 0.78942186 0.65038170
0.51065409 0.87388932 0.66469542
0.53713159 0.87385576 0.66498660
0.57879873 0.87381919 0.66549263
0.62975542 0.87337547 0.66620150
0.68597604 0.87345164 0.66652087
0.74114330 0.87374434 0.66724438
0.80931499 0.87379893 0.66876924
0.88986525 0.87380548 0.67383685
0.96357930 0.83601630 0.67298049
0.82244717 0.97688589 0.75559824
0.82378786 0.97697561 0.75564659
0.82610000 0.97713110 0.75573201
0.82957990 0.97736764 0.75586622
0.83416542 0.97768129 0.75605326
0.83985124 0.97803424 0.75622079
0.84904016 0.97854742 0.75638019
0.86952010 0.97960327 0.75670982
0.98281980 0.99042443 0.74449748
0.00598650 0.02066577 0.34319978
0.09242278 0.02935800 0.39766449
0.28188122 0.04804300 0.47906369
0.51149433 0.08021966 0.55684525
0.66869124 0.11816433 0.58233459
0.77681626 0.16835794 0.60152262
0.87322955 0.24061755 0.62705389
0.95360468 0.36091861 0.65674291
0.95473752 0.68931086 0.65480513
0.00258994 0.16570294 0.61932779
0.04247383 0.16816031 0.61876015
0.24217653 0.17590673 0.61461508
0.46148399 0.19207850 0.61005283
0.63063633 0.21969579 0.61292404
0.74745730 0.25673447 0.62083055
0.85353225 0.31442624 0.63627811
0.94719329 0.40796017 0.65882335
0.95482314 0.69547535 0.65691085
0.00647392 0.34163144 0.68536668
0.03247978 0.33491137 0.67191391
0.21232467 0.33252284 0.65730920
0.42416970 0.33784083 0.64573419
0.59879358 0.35184819 0.64040898
0.71965284 0.37229754 0.64106627
0.83365613 0.40737901 0.64660550
0.93750500 0.47878613 0.66449421
0.95506689 0.70583039 0.66056107
0.02290729 0.49192304 0.70320821
0.06144459 0.48551546 0.69440560
0.21992573 0.48019595 0.68164453
0.41293742 0.47967368 0.67031082
0.57903503 0.48465858 0.66257415
0.69983910 0.49421960 0.65884299
0.81586175 0.51557456 0.66012242
0.92676264 0.56371787 0.67171776
0.95620418 0.72050808 0.66492440
0.05829167 0.61236837 0.71224108
0.11867958 0.60873978 0.70471113
0.26036524 0.60466895 0.69482382
0.42796515 0.60169286 0.68654827
0.57778377 0.60206603 0.68035644
0.69041878 0.60602734 0.67509030
0.79891216 0.61738815 0.67529467
0.91583311 0.64518539 0.68328561
0.95746108 0.73856694 0.67077642
0.13826478 0.70126240 0.71646376
0.20836587 0.69889608 0.71148137
0.32028610 0.69604708 0.70613412
0.45765409 0.69369142 0.70043884
0.58747466 0.69288262 0.69577529
0.69293489 0.69293489 0.69293489
0.79799774 0.69956647 0.69076953
0.90653082 0.71675391 0.69545730
0.95861041 0.75976451 0.67785915
0.27860603 0.79194616 0.72447109
0.33580947 0.79012377 0.72234403
0.41528472 0.78850585 0.71912903
0.52066252 0.78696544 0.71595213
0.61903282 0.78562482 0.71352451
0.70529720 0.78622163 0.71206598
0.79786858 0.78950617 0.71045679
0.89893870 0.79611106 0.71461894
0.96029594 0.79134321 0.68899830
0.48239680 0.87054126 0.72711591
0.51104304 0.87058783 0.72735862
0.55729438 0.87068396 0.72777401
0.61204284 0.87054567 0.72752525
0.67232061 0.87075409 0.72752637
0.73127278 0.87129651 0.72771758
0.80286672 0.87227214 0.72779706
0.88612413 0.87217131 0.72950541
0.96429205 0.83635418 0.70748997
0.82120955 0.97674220 0.77092960
0.82254988 0.97683286 0.77097005
0.82488469 0.97699009 0.77104154
0.82840072 0.97722950 0.77115389
0.83302503 0.97754777 0.77131056
0.83864221 0.97793001 0.77151372
0.84753724 0.97851946 0.77189060
0.86772634 0.97966180 0.77245712
0.98313393 0.99082097 0.76006965
0.02181020 0.05380177 0.55185489
0.12935275 0.06961613 0.60393875
0.33727525 0.09407222 0.66868543
0.54612064 0.13141544 0.70503032
0.69260393 0.17393191 0.71321463
0.79121771 0.21990247 0.72276060
0.88252027 0.29101668 0.73584333
0.95545304 0.39553893 0.75171516
0.95606951 0.70362586 0.71031204
0.00411127 0.22761740 0.76851258
0.04407520 0.22813960 0.76012482
0.25573728 0.23414733 0.74857646
0.48066054 0.25064070 0.73891959
0.64906324 0.27763106 0.73613409
0.76038616 0.30995084 0.73829269
0.86216752 0.35614257 0.74331350
0.94896496 0.44216614 0.75410066
0.95623552 0.70913786 0.71194726
0.00996767 0.39126359 0.80059529
0.03404888 0.38554156 0.79079318
0.19489207 0.38212687 0.77553738
0.42863104 0.38626811 0.76225115
0.60785551 0.39752147 0.75589588
0.72885143 0.41414824 0.75269360
0.84117558 0.44634874 0.75227251
0.93899222 0.50901046 0.75828750
0.95652561 0.71821696 0.71467312
0.02266713 0.53018843 0.80833291
0.05292075 0.52455328 0.80196872
0.18306927 0.51873882 0.79134879
0.39927225 0.51725954 0.78010280
0.57859221 0.52030921 0.77044750
0.70473957 0.52882968 0.76527784
0.82024605 0.54745542 0.76209217
0.93017841 0.58868882 0.76596927
0.95733283 0.73099130 0.71828283
0.05276044 0.63586235 0.81144513
0.09305200 0.63236429 0.80687822
0.20922869 0.62871983 0.79921764
0.39992386 0.62741034 0.79039127
0.56807924 0.62750360 0.78313883
0.68979607 0.63155170 0.77686480
0.80199273 0.64026172 0.77245030
0.91837892 0.66482041 0.77360898
0.95842770 0.74713004 0.72327845
0.09059254 0.71606397 0.81166219
0.14767121 0.71405558 0.80836809
0.27494822 0.71134073 0.80296753
0.42839724 0.70963256 0.79624104
0.57376340 0.70901796 0.79065450
0.68751771 0.71059428 0.78660054
0.79827982 0.71563184 0.78225871
0.90891030 0.72921597 0.78142045
0.95951880 0.76604971 0.72825672
0.21128043 0.79632744 0.80794617
0.27515013 0.79502964 0.80539588
0.36293283 0.79369129 0.80234949
0.48285321 0.79221134 0.79936787
0.59550680 0.79158523 0.79628656
0.69360321 0.79154401 0.79353616
0.79284126 0.79284126 0.79284126
0.89703242 0.79878834 0.78938208
0.96162557 0.79510994 0.73589181
0.42962803 0.86587867 0.79354745
0.46150646 0.86588365 0.79354615
0.51384603 0.86590894 0.79354696
0.57854260 0.86628993 0.79340914
0.64629765 0.86672371 0.79330282
0.71261431 0.86726327 0.79335802
0.78895427 0.86848803 0.79353712
0.87890790 0.86904561 0.79186277
0.96517796 0.83759506 0.75073012
0.81742429 0.97694185 0.79339375
0.81873024 0.97704555 0.79345688
0.82099184 0.97722493 0.79356776
0.82446542 0.97749685 0.79374035
0.82905621 0.97785325 0.79397770
0.83471671 0.97824443 0.79418493
0.84389256 0.97881463 0.79441403
0.86447222 0.98001544 0.79466531
0.98403568 0.99065984 0.78437452
0.06667163 0.16556239 0.83892295
0.18542935 0.18691322 0.85279677
0.38517711 0.20961527 0.85246223
0.57810238 0.23846243 0.84975655
0.71045620 0.27568925 0.84990426
0.80362988 0.31647666 0.85176264
0.89297315 0.36945284 0.85558534
0.95441727 0.45945314 0.85542087
0.95796120 0.72313360 0.77641011
0.01082278 0.32726541 0.89484798
0.06446334 0.32723913 0.88909073
0.27575378 0.33228948 0.87836661
0.49867560 0.34580602 0.86783927
0.66248139 0.36494868 0.86394064
0.77630040 0.38934028 0.86139454
0.87238819 0.42915320 0.86118870
0.94797024 0.50022632 0.85736071
0.95818627 0.72878221 0.77831593
0.01653655 0.46403474 0.90687390
0.03680032 0.46042651 0.90234063
0.17079579 0.45827930 0.89512178
0.42062448 0.46182220 0.88478359
0.61200433 0.47086184 0.87826920
0.73758782 0.48389069 0.87228619
0.84816219 0.51021803 0.86623099
0.94150835 0.55877396 0.86128387
0.95857083 0.73773203 0.78112832
0.03029017 0.58225466 0.91370502
0.04110564 0.57869465 0.90907994
0.13582406 0.57503495 0.90137727
0.36850157 0.57409035 0.89299213
0.56821795 0.57728081 0.88557596
0.70367932 0.58386512 0.87901920
0.82242561 0.59641059 0.87247630
0.93253972 0.62568596 0.86425778
0.95925394 0.74968060 0.78461027
0.04424484 0.66811118 0.91103643
0.06280810 0.66540377 0.90728920
0.14738872 0.66245689 0.90230493
0.33288910 0.66055392 0.89614545
0.53592600 0.66170981 0.88934979
0.67724139 0.66564461 0.88289869
0.80305446 0.67388662 0.87570861
0.91716992 0.68857022 0.86621922
0.96027502 0.76523076 0.78958677
0.06667643 0.73118425 0.90514275
0.08369563 0.72955182 0.90263814
0.16394628 0.72793074 0.89931106
0.35191500 0.72783945 0.89497926
0.52979402 0.72836995 0.88747419
0.66160016 0.72984140 0.88222440
0.78787202 0.73360047 0.87545411
0.90134890 0.74092453 0.86720646
0.96143666 0.78205959 0.79409181
0.11169552 0.79277357 0.89283962
0.15238902 0.79214817 0.89092788
0.24580278 0.79140090 0.88775780
0.39776918 0.79075599 0.88280279
0.53337259 0.79113130 0.87996552
0.65127066 0.79207192 0.87689226
0.76965026 0.79475211 0.87302254
0.88443950 0.79883017 0.86560773
0.96287976 0.80245299 0.79945486
0.31834682 0.85605186 0.86735775
0.35830648 0.85561718 0.86671031
0.42344950 0.85523115 0.86569962
0.49995309 0.85534449 0.86470798
0.58637491 0.85630053 0.86377502
0.66621600 0.85743109 0.86286703
0.75757485 0.85954959 0.86250637
0.86091334 0.86091334 0.86091334
0.96686447 0.84120805 0.81001195
0.80911684 0.97723582 0.82527102
0.81063025 0.97734281 0.82543258
0.81319414 0.97752745 0.82571523
0.81699481 0.97780460 0.82615229
0.82198827 0.97816173 0.82674773
0.82811093 0.97858210 0.82749703
0.83734939 0.97919110 0.82784404
0.85815031 0.98034204 0.82828900
0.98652249 0.99187859 0.82238933
0.46356504 0.57852140 0.96245935
0.49342793 0.58208573 0.96225567
0.53772675 0.58803500 0.96205361
0.59477941 0.59629410 0.96172266
0.65426043 0.60545187 0.96093968
0.70863350 0.61550342 0.96009837
0.78090317 0.62958211 0.95930550
0.86574380 0.65330948 0.95984694
0.96196570 0.74029624 0.95792838
0.42342876 0.59139345 0.96193314
0.45279970 0.59478342 0.96181015
0.49937769 0.60047779 0.96163486
0.56387071 0.60856749 0.96126021
0.62924512 0.61781483 0.96048283
0.68970497 0.62790445 0.95965021
0.76444116 0.64123481 0.95891691
0.85408757 0.66297615 0.95950876
0.96226253 0.74413012 0.95821831
0.35661567 0.61183908 0.96215186
0.38794756 0.61482814 0.96196997
0.44289061 0.61984926 0.96166873
0.52027046 0.62706501 0.96119814
0.59460011 0.63609636 0.96047782
0.66222920 0.64581580 0.95973579
0.73959376 0.65825346 0.95860839
0.83958938 0.67756775 0.95924755
0.96276459 0.75050173 0.95870531
0.28230888 0.64031876 0.96117486
0.31817087 0.64247998 0.96122083
0.37826278 0.64615118 0.96130007
0.46537347 0.65167327 0.96124708
0.54894701 0.65886088 0.96043322
0.62670431 0.66762157 0.95935586
0.70912915 0.67935883 0.95859093
0.82045511 0.69684513 0.95920840
0.96345275 0.75970283 0.95942037
0.21125905 0.67176497 0.96110035
0.25193392 0.67307641 0.96099311
0.32557045 0.67535552 0.96083443
0.40133259 0.67896552 0.95975635
0.49904954 0.68374317 0.95841132
0.58445434 0.69090635 0.95772949
0.68031676 0.70228763 0.95747287
0.79921389 0.71882470 0.95870747
0.96421458 0.77293999 0.96005902
0.18205131 0.70263506 0.96000958
0.21157669 0.70347274 0.95991222
0.26728439 0.70503974 0.95964483
0.35342194 0.70738975 0.95924939
0.45559392 0.71128140 0.95842617
0.54418949 0.71660123 0.95738776
0.65474514 0.72556737 0.95621275
0.77966452 0.74118946 0.95797892
0.96532568 0.78729846 0.96042066
0.17053340 0.74367427 0.95827823
0.19660197 0.74387726 0.95802218
0.24659161 0.74426602 0.95763659
0.33108336 0.74503847 0.95735867
0.40833970 0.74764182 0.95658956
0.50133094 0.75089116 0.95566956
0.61925616 0.75702368 0.95564553
0.75496405 0.77154141 0.95852864
0.96709129 0.80610979 0.96287711
0.19075485 0.79866243 0.95630336
0.21241841 0.79856372 0.95608225
0.25328192 0.79840086 0.95570006
0.31910087 0.79827481 0.95515460
0.39662415 0.79893368 0.95481449
0.47217899 0.80070928 0.95547506
0.58541153 0.80399947 0.95645880
0.72136746 0.81176631 0.96003156
0.97100218 0.83754726 0.96863895
0.63888889 0.96071009 0.95553629
0.64237847 0.96087369 0.95577969
0.64844605 0.96116086 0.95620300
0.65772461 0.96160760 0.95684985
0.67015872 0.96222213 0.95772233
0.68547712 0.96300683 0.95881296
0.70791953 0.96389528 0.96043349
0.75309288 0.96629438 0.96343757
0.97841135 0.97841135 0.97841135
