public/luts/builtin/fuji_astia.cube
TITLE "Rec709800_sRGB-LA:FLog2_to_ASTIA_LA:FLog2_to_ASTIA"
LUT_3D_SIZE 33
# Rec709 (800%)/sRGB -> LA - :FLog2_to_ASTIA/LA - :FLog2_to_ASTIA, CineEI Shift 0.00, Black Level -0.02% IRE, Input 100% -> Output 100% - Created with LUTCalc v4.09 by Ben Turley February 2025
0.00000000 0.00000000 0.00000000
0.00000338 0.00000000 0.00000000
0.00212965 0.00000000 0.00000000
0.02564055 0.00140504 0.00000000
0.04135694 0.00159538 0.00000746
0.05993277 0.00190328 0.00001816
0.08110076 0.00225634 0.00000000
0.10500413 0.00289186 0.00000000
0.13296495 0.00328738 0.00000000
0.16673318 0.00429114 0.00000000
0.20660991 0.00602086 0.00000000
0.25147419 0.00621586 0.00000119
0.29838891 0.00659087 0.00000000
0.34684692 0.00823881 0.00000510
0.39337730 0.00996951 0.00001063
0.44799376 0.01118928 0.00000898
0.49768983 0.01265753 0.00001107
0.55110952 0.01346860 0.00004741
0.59623164 0.01616929 0.00006106
0.63623784 0.01859728 0.00006052
0.67451257 0.01926336 0.00000000
0.71675421 0.02272620 0.00080128
0.76125100 0.02602545 0.01348228
0.79996053 0.02940431 0.02166908
0.83025376 0.03503738 0.02745572
0.87460007 0.04483227 0.03988465
0.91076519 0.05585481 0.05839600
0.95626292 0.07234208 0.08028285
0.98839667 0.09484416 0.11838618
1.00029867 0.12354238 0.17883122
1.00070569 0.17573425 0.24985885
1.00069189 0.28602696 0.25288984
1.00069272 0.56865120 0.32320912
0.00000000 0.00001098 0.00000000
0.00000682 0.00000110 0.00000000
0.01487965 0.00262901 0.00001002
0.02889514 0.00555975 0.00000000
0.04424777 0.00729221 0.00000823
0.06322418 0.00856642 0.00000313
0.08705902 0.00962084 0.00005835
0.11527986 0.01069819 0.00000000
0.14681270 0.01383229 0.00004950
0.18454889 0.01616264 0.00003121
0.22550092 0.01840129 0.00000149
0.27096871 0.01975968 0.00000844
0.31781781 0.02225950 0.00000604
0.36657953 0.02360975 0.00001107
0.41386880 0.02482946 0.00000684
0.46541473 0.02599989 0.00000602
0.51097725 0.02791082 0.00000358
0.55889883 0.02917151 0.00000000
0.60170703 0.03040917 0.00000000
0.63694776 0.03237060 0.00000742
0.67158891 0.03449995 0.00006143
0.71303046 0.03792041 0.00000000
0.75605915 0.04233080 0.00814753
0.79352404 0.04796468 0.01443877
0.82654132 0.05520266 0.02134640
0.86949385 0.06333252 0.03304700
0.90559075 0.07423647 0.04956286
0.95146404 0.09271533 0.07122803
0.98356694 0.11387222 0.10927180
1.00040660 0.14148312 0.16992414
1.00081250 0.19246485 0.24367967
1.00075869 0.29843708 0.25014369
1.00067896 0.57149455 0.32338193
0.00002096 0.02064453 0.00000549
0.00163758 0.02226962 0.00004254
0.01923806 0.02289952 0.00000000
0.03350317 0.02317724 0.00000361
0.05009214 0.02378391 0.00001076
0.07092805 0.02525756 0.00000754
0.09562128 0.02673929 0.00003987
0.12380717 0.02874391 0.00003250
0.15848757 0.03090378 0.00000648
0.19686289 0.03215333 0.00001105
0.23891951 0.03338848 0.00000948
0.28494402 0.03456189 0.00000995
0.33240813 0.03636783 0.00000394
0.38006658 0.03801331 0.00000812
0.42757750 0.03964452 0.00001105
0.47706672 0.04094139 0.00000468
0.51930651 0.04316548 0.00000000
0.56211358 0.04577924 0.00000000
0.60072473 0.04759937 0.00000000
0.63634458 0.04943874 0.00000927
0.67050752 0.05163981 0.00002558
0.71072764 0.05518931 0.00001469
0.75366546 0.05991948 0.00000000
0.79105828 0.06630598 0.00103659
0.82249750 0.07443069 0.01654552
0.86449901 0.08528857 0.02822384
0.90149312 0.09860669 0.04219606
0.94632915 0.11357194 0.06475620
0.98031022 0.13383260 0.10127381
1.00038382 0.16110936 0.16154185
1.00090235 0.20948716 0.23783619
1.00079210 0.31069902 0.24743607
1.00066518 0.57430493 0.32355856
0.00000701 0.03663197 0.00000449
0.00933182 0.03820586 0.00000000
0.02595930 0.03810891 0.00001083
0.03981550 0.04000620 0.00000000
0.05651693 0.04063343 0.00004997
0.07557464 0.04148833 0.00006081
0.10276726 0.04319545 0.00000232
0.13232573 0.04482891 0.00000885
0.16877991 0.04615503 0.00001107
0.20828134 0.04790211 0.00000928
0.25109961 0.04942922 0.00000909
0.29789433 0.05108550 0.00000000
0.34480781 0.05295520 0.00000000
0.39034395 0.05486976 0.00000000
0.43615245 0.05698468 0.00000443
0.48076332 0.05951688 0.00000000
0.52248400 0.06106030 0.00000000
0.56480658 0.06280436 0.00000000
0.60107787 0.06484313 0.00000000
0.63509027 0.06748418 0.00000000
0.66838235 0.07081700 0.00000000
0.70845160 0.07448446 0.00000465
0.75179472 0.07940948 0.00001747
0.78716156 0.08576495 0.00000000
0.82009680 0.09418846 0.01293831
0.86283752 0.10516941 0.02518609
0.89813942 0.11721434 0.03516207
0.94202766 0.13413540 0.05824049
0.98028927 0.15558258 0.09460119
1.00032036 0.18235147 0.15313833
1.00091076 0.22704475 0.23154735
1.00081012 0.32316067 0.24470499
1.00065091 0.57717937 0.32374535
0.00000000 0.05770583 0.00005785
0.01681459 0.05867688 0.00000000
0.03213624 0.05930619 0.00006145
0.04657691 0.06097338 0.00005364
0.06447826 0.06256463 0.00000650
0.08550279 0.06275026 0.00000579
0.11014308 0.06254103 0.00000402
0.14066398 0.06463494 0.00000926
0.17866108 0.06662331 0.00000168
0.21859245 0.06778198 0.00000685
0.26196408 0.06940397 0.00001097
0.30693322 0.07111392 0.00000335
0.35243042 0.07275985 0.00000000
0.39696468 0.07441436 0.00000000
0.44194490 0.07680133 0.00000000
0.48411559 0.07956896 0.00000000
0.52426369 0.08254632 0.00000020
0.56441730 0.08535369 0.00000000
0.60026606 0.08775558 0.00000000
0.63479754 0.09021138 0.00000000
0.66769414 0.09360524 0.00000000
0.70621092 0.09891575 0.00000000
0.74668357 0.10460503 0.00000000
0.78230649 0.11139576 0.00000000
0.81777094 0.11849920 0.00892477
0.85876883 0.12793500 0.01861885
0.89490890 0.13968045 0.02887735
0.93872146 0.15721797 0.04864721
0.97877779 0.17851887 0.08122212
1.00023367 0.20829556 0.14406874
1.00091531 0.24836184 0.22385436
1.00078526 0.33667995 0.24211441
1.00063367 0.58060108 0.32397599
0.00843798 0.08283100 0.00004565
0.02425006 0.08390683 0.00000000
0.03674457 0.08450379 0.00002583
0.05139078 0.08585603 0.00000000
0.06902129 0.08719013 0.00000385
0.09347891 0.08782433 0.00006028
0.11985110 0.08844867 0.00000101
0.15161439 0.09114561 0.00000586
0.18909660 0.09311482 0.00000663
0.22942133 0.09458894 0.00000869
0.27262153 0.09610958 0.00001090
0.31554166 0.09789819 0.00000511
0.35808201 0.10045792 0.00001106
0.40020969 0.10220868 0.00001048
0.44435649 0.10427781 0.00000996
0.48565591 0.10666423 0.00000993
0.52614627 0.10894625 0.00001081
0.56522821 0.11141483 0.00000853
0.59975520 0.11458097 0.00000540
0.63332212 0.11836311 0.00000000
0.66497753 0.12263180 0.00000000
0.70346608 0.12710397 0.00000000
0.74471405 0.13243979 0.00001763
0.77925539 0.13855856 0.00000000
0.81318158 0.14659352 0.00000000
0.85401371 0.15765329 0.00960382
0.89069027 0.16960217 0.02172793
0.93451616 0.18488805 0.03814052
0.97569524 0.20497156 0.06883093
1.00015620 0.23275152 0.12980561
1.00092842 0.27367577 0.21556774
1.00074453 0.35208252 0.23930970
1.00061304 0.58463027 0.32425938
0.01626635 0.11704550 0.00000817
0.02961911 0.11706579 0.00000000
0.04277737 0.11807928 0.00000005
0.05788493 0.11934433 0.00000423
0.07641758 0.11937280 0.00000707
0.10151056 0.11986098 0.00000838
0.12939080 0.12090186 0.00000000
0.16151342 0.12272499 0.00000523
0.19821997 0.12389701 0.00000579
0.23819539 0.12503304 0.00000000
0.28087040 0.12620345 0.00000342
0.32363609 0.12791902 0.00000686
0.36450214 0.13002615 0.00001107
0.40461503 0.13248854 0.00000856
0.44736117 0.13474631 0.00000183
0.48749692 0.13665921 0.00000429
0.52738568 0.13939378 0.00000868
0.56502528 0.14280472 0.00001102
0.59899454 0.14629693 0.00000759
0.63294918 0.15002698 0.00000230
0.66375238 0.15422133 0.00000000
0.70074495 0.16030363 0.00000000
0.73752207 0.16676084 0.00000000
0.77330204 0.17285706 0.00000673
0.81055647 0.18050848 0.00004962
0.85175622 0.19031732 0.00000000
0.88518597 0.20254745 0.01046937
0.92961778 0.21760353 0.03056304
0.97169224 0.23573782 0.06000303
1.00012968 0.26092278 0.11638598
1.00085713 0.29797189 0.20484312
1.00069547 0.36945666 0.23676783
1.00058908 0.58922354 0.32459839
0.02272743 0.15736483 0.00001101
0.03639022 0.15721501 0.00000005
0.05063559 0.15826132 0.00000532
0.06496578 0.15830389 0.00000777
0.08427905 0.15817185 0.00001036
0.11132781 0.15785789 0.00000000
0.13877428 0.15880163 0.00001014
0.17114179 0.15977732 0.00000711
0.20692777 0.16102348 0.00001101
0.24633846 0.16186680 0.00001076
0.28794539 0.16307356 0.00001055
0.32998578 0.16460862 0.00000000
0.37088443 0.16623256 0.00000000
0.41136282 0.16811609 0.00000973
0.45275983 0.17017414 0.00000863
0.49014760 0.17320758 0.00000248
0.52924772 0.17620426 0.00000627
0.56581306 0.17917966 0.00001105
0.59871752 0.18264007 0.00000386
0.63125449 0.18718889 0.00000720
0.66088944 0.19190778 0.00000909
0.69848701 0.19735344 0.00000739
0.73522391 0.20317906 0.00000546
0.76958898 0.21032935 0.00000461
0.80501252 0.21869321 0.00000346
0.84485439 0.22708611 0.00003354
0.88073559 0.23777162 0.00000000
0.92485934 0.25178586 0.02175773
0.97313231 0.27045024 0.05469996
1.00014881 0.29247824 0.10669366
1.00077867 0.32434793 0.19378238
1.00066607 0.38848338 0.23412911
1.00056186 0.59433086 0.32499583
0.02988917 0.20641985 0.00006143
0.04481198 0.20515304 0.00000000
0.05869891 0.20493635 0.00004013
0.07327524 0.20511462 0.00000666
0.09436173 0.20435710 0.00000205
0.11964015 0.20372744 0.00001096
0.14946115 0.20351992 0.00001105
0.18107507 0.20418112 0.00000431
0.21722580 0.20507745 0.00000194
0.25598349 0.20529105 0.00000555
0.29635765 0.20640107 0.00001055
0.33744494 0.20770356 0.00000428
0.37694007 0.20916775 0.00000793
0.41682464 0.21068218 0.00001095
0.45660146 0.21258561 0.00000440
0.49334623 0.21464458 0.00001107
0.53189088 0.21721451 0.00001017
0.56684076 0.22016529 0.00000718
0.59959191 0.22337315 0.00000239
0.63159533 0.22734450 0.00000720
0.66036722 0.23189520 0.00001083
0.69629613 0.23826327 0.00001049
0.73127835 0.24389618 0.00001067
0.76573603 0.25026485 0.00001106
0.80380023 0.25753453 0.00001092
0.84016449 0.26640850 0.00001098
0.87686149 0.27684236 0.00005456
0.91997189 0.28945660 0.01362197
0.96869053 0.30515798 0.04299421
1.00007662 0.32623883 0.09887013
1.00067334 0.35255110 0.18262186
1.00072909 0.40898439 0.23084286
1.00053104 0.59998485 0.32546172
0.03572969 0.25827457 0.00005265
0.05464195 0.25627835 0.00000000
0.06750741 0.25600811 0.00005447
0.08446949 0.25438743 0.00002327
0.10695569 0.25329846 0.00000000
0.13056832 0.25264158 0.00000000
0.15930619 0.25247421 0.00005753
0.19280533 0.25272490 0.00000000
0.22861136 0.25220822 0.00005105
0.26718751 0.25187720 0.00001046
0.30667826 0.25232422 0.00001073
0.34590682 0.25322422 0.00000183
0.38413115 0.25488447 0.00001423
0.42316639 0.25611283 0.00000000
0.46124198 0.25779822 0.00000552
0.49735358 0.25974073 0.00001105
0.53415811 0.26189287 0.00001076
0.56786496 0.26459754 0.00001074
0.59987891 0.26782370 0.00001101
0.63028927 0.27157325 0.00000841
0.65863060 0.27544541 0.00000475
0.69508254 0.28065662 0.00000437
0.72902147 0.28588329 0.00000638
0.76243601 0.29237472 0.00000807
0.80131894 0.29881037 0.00001063
0.83553970 0.30663607 0.00000987
0.87301425 0.31630151 0.00003993
0.91589692 0.32814433 0.00537793
0.96479312 0.34073597 0.03390383
0.99838560 0.35745759 0.09056491
1.00049903 0.38217609 0.17317587
1.00079281 0.43108558 0.22752625
1.00050982 0.60577650 0.32617111
0.04670936 0.31169305 0.00004540
0.06380266 0.30975534 0.00005995
0.08060798 0.30808647 0.00004970
0.09856966 0.30667130 0.00001887
0.11917644 0.30539528 0.00000000
0.14411079 0.30433754 0.00000000
0.17277641 0.30425762 0.00006156
0.20600733 0.30389967 0.00000000
0.24153463 0.30344183 0.00000000
0.27841692 0.30316003 0.00001384
0.31671222 0.30276439 0.00001074
0.35395127 0.30341824 0.00001081
0.39130303 0.30415797 0.00000238
0.42955692 0.30480545 0.00004394
0.46618666 0.30602409 0.00003890
0.50213741 0.30719712 0.00000125
0.53731050 0.30865319 0.00000191
0.56942240 0.31044949 0.00000774
0.60154084 0.31316753 0.00000507
0.63133640 0.31657544 0.00000310
0.65857754 0.32040930 0.00000220
0.69357626 0.32509383 0.00000014
0.72641126 0.32924455 0.00000155
0.75940703 0.33490982 0.00000344
0.79657487 0.34061722 0.00001105
0.82973525 0.34752457 0.00000063
0.86951115 0.35515040 0.00004382
0.91226130 0.36495400 0.00338516
0.96200448 0.37618495 0.02875847
0.99795673 0.38948537 0.08027120
1.00052458 0.41124802 0.16709600
1.00078542 0.45417299 0.22501604
1.00049178 0.61185453 0.32703943
0.05835112 0.36357521 0.00000000
0.07549766 0.36179318 0.00000000
0.09580804 0.36027568 0.00002480
0.11233055 0.35879978 0.00001360
0.13226100 0.35737012 0.00000519
0.15822640 0.35612280 0.00000998
0.18746879 0.35519801 0.00000620
0.21939955 0.35431492 0.00000000
0.25448003 0.35378492 0.00002889
0.29093496 0.35300491 0.00005634
0.32748520 0.35227048 0.00000318
0.36322030 0.35218658 0.00000425
0.39949597 0.35207762 0.00001053
0.43629045 0.35241230 0.00000128
0.47197566 0.35310728 0.00003353
0.50763105 0.35409196 0.00003200
0.54156198 0.35530458 0.00000082
0.57279522 0.35693418 0.00000133
0.60327012 0.35942143 0.00000792
0.63179039 0.36220992 0.00000973
0.65841923 0.36530027 0.00000875
0.69314081 0.36882839 0.00000389
0.72423251 0.37252872 0.00000000
0.75799495 0.37660960 0.00000000
0.79688546 0.38117305 0.00000966
0.82709524 0.38715987 0.00000059
0.86458523 0.39380571 0.00001057
0.90617781 0.40166902 0.00000000
0.95775871 0.41057303 0.02191537
0.99814628 0.42236233 0.06969842
1.00053979 0.44087579 0.15845678
1.00070926 0.47694700 0.22330166
1.00047232 0.61827357 0.32800709
0.07420515 0.41433527 0.00000000
0.09318738 0.41245282 0.00000000
0.11222415 0.41055527 0.00005094
0.12844565 0.40914278 0.00000125
0.14913504 0.40777487 0.00000924
0.17436291 0.40629516 0.00001092
0.20369256 0.40468901 0.00001104
0.23421942 0.40380226 0.00000680
0.26813811 0.40284207 0.00000000
0.30419178 0.40175668 0.00002224
0.33912079 0.40082153 0.00000048
0.37395084 0.40017093 0.00000105
0.40851456 0.39969965 0.00000736
0.44391614 0.39971824 0.00000000
0.47916794 0.39978255 0.00001624
0.51381777 0.39994121 0.00000210
0.54651707 0.40086063 0.00000863
0.57728673 0.40217727 0.00000013
0.60670502 0.40409661 0.00000590
0.63381862 0.40633846 0.00001079
0.65933449 0.40877590 0.00001101
0.69317167 0.41143101 0.00000988
0.72336160 0.41432910 0.00000536
0.75698292 0.41779429 0.00000195
0.79273061 0.42136112 0.00000963
0.82278275 0.42628382 0.00000000
0.86185006 0.43173609 0.00000000
0.90108235 0.43841053 0.00005629
0.95317162 0.44504947 0.01553181
0.99687735 0.45599882 0.06656631
1.00056586 0.47008342 0.14883373
1.00061855 0.49976828 0.22165587
1.00045157 0.62498198 0.32907439
0.09293176 0.46324152 0.00000000
0.11081318 0.46144979 0.00000000
0.12895450 0.45981380 0.00004631
0.14741698 0.45840909 0.00000017
0.16762464 0.45672785 0.00001736
0.19188900 0.45516036 0.00002859
0.22027276 0.45361848 0.00003428
0.25116361 0.45206961 0.00004826
0.28421823 0.45035492 0.00006093
0.31813218 0.44940361 0.00001529
0.35253292 0.44852040 0.00000000
0.38565729 0.44789874 0.00000000
0.41895074 0.44752203 0.00006043
0.45266682 0.44728884 0.00003018
0.48667253 0.44707922 0.00000212
0.51985796 0.44720010 0.00000000
0.55122545 0.44771337 0.00000018
0.58148531 0.44777831 0.00003172
0.60964602 0.44918290 0.00000000
0.63571183 0.45106843 0.00000689
0.66056382 0.45260479 0.00001105
0.69187860 0.45438968 0.00000926
0.72134085 0.45654086 0.00001091
0.75678048 0.45883563 0.00001098
0.79039193 0.46126945 0.00000928
0.81887339 0.46480896 0.00000000
0.86044418 0.46827327 0.00000219
0.89806349 0.47407201 0.00005969
0.94627027 0.47919668 0.01637203
0.99012311 0.48697855 0.05864870
1.00059562 0.49834088 0.14014916
1.00050515 0.52389794 0.21841630
1.00042945 0.63201297 0.33025210
0.11438166 0.51095598 0.00000017
0.13172319 0.50946554 0.00003738
0.14914866 0.50791682 0.00000000
0.16833218 0.50646138 0.00000590
0.18847435 0.50508943 0.00000007
0.21235945 0.50378203 0.00000000
0.23933119 0.50202381 0.00000404
0.26930003 0.49957919 0.00005568
0.30069602 0.49798382 0.00006025
0.33271791 0.49687255 0.00001997
0.36500888 0.49511542 0.00000000
0.39761451 0.49365335 0.00000000
0.42960345 0.49313645 0.00003674
0.46284397 0.49244025 0.00003896
0.49444989 0.49183394 0.00000053
0.52586344 0.49149089 0.00000927
0.55639302 0.49127646 0.00001099
0.58585428 0.49098971 0.00001106
0.61294035 0.49085716 0.00000670
0.63814652 0.49174033 0.00000982
0.66273577 0.49230534 0.00001107
0.69328966 0.49310234 0.00001062
0.72065076 0.49463225 0.00000593
0.75706493 0.49630394 0.00000000
0.78925160 0.49855475 0.00000000
0.81558987 0.50166561 0.00000000
0.85633220 0.50417776 0.00001106
0.89413430 0.50889499 0.00000000
0.94051868 0.51175064 0.01584679
0.98274833 0.51699534 0.05171314
1.00056054 0.52789950 0.13838152
1.00037904 0.54772046 0.21437461
1.00038273 0.63945876 0.33155277
0.13593467 0.55530938 0.00003994
0.15274962 0.55388806 0.00000000
0.17079046 0.55253971 0.00000550
0.19015243 0.55123582 0.00001102
0.21112879 0.54992537 0.00001106
0.23367994 0.54807389 0.00000770
0.25917489 0.54590658 0.00000097
0.28765573 0.54368641 0.00000608
0.31797134 0.54161663 0.00004125
0.34774631 0.53978382 0.00005659
0.37809138 0.53800408 0.00006069
0.40922653 0.53635493 0.00006144
0.44132537 0.53495817 0.00005074
0.47331685 0.53368083 0.00000236
0.50326673 0.53320979 0.00001095
0.53265616 0.53301685 0.00000000
0.56220539 0.53232382 0.00000000
0.59033749 0.53208166 0.00000000
0.61641563 0.53203510 0.00000445
0.64079868 0.53213215 0.00001107
0.66455321 0.53247621 0.00001079
0.69409076 0.53342366 0.00000915
0.72060201 0.53457352 0.00001008
0.75445236 0.53493320 0.00000526
0.78580679 0.53614651 0.00000380
0.81484722 0.53804645 0.00000328
0.85386185 0.53922725 0.00000000
0.88965993 0.54222196 0.00000979
0.93699014 0.54311705 0.01031435
0.98124744 0.54729287 0.05232591
1.00045937 0.55554675 0.13259934
1.00045182 0.57131389 0.21353950
1.00031977 0.64727873 0.33297821
0.16070161 0.59510136 0.00003737
0.17825439 0.59396391 0.00000000
0.19633985 0.59289699 0.00000338
0.21359751 0.59160033 0.00000955
0.23347042 0.59015383 0.00001107
0.25496582 0.58863643 0.00000862
0.27929659 0.58686983 0.00000159
0.30579814 0.58505200 0.00000439
0.33426123 0.58291020 0.00000583
0.36269669 0.58105503 0.00001386
0.39132442 0.57956996 0.00003007
0.42085181 0.57823507 0.00004115
0.45236323 0.57648512 0.00000016
0.48230972 0.57520254 0.00000823
0.51114727 0.57440548 0.00000000
0.53975645 0.57350527 0.00000000
0.56787200 0.57182913 0.00000441
0.59448003 0.57090072 0.00001020
0.61960068 0.57065757 0.00001079
0.64359476 0.57032865 0.00001052
0.66645916 0.57013239 0.00000833
0.69489167 0.57024212 0.00000420
0.72194917 0.57056588 0.00000248
0.75598560 0.57015177 0.00001089
0.78401893 0.57039008 0.00001003
0.81468049 0.57110107 0.00000858
0.85329274 0.57147434 0.00000465
0.88584030 0.57335870 0.00001105
0.93347326 0.57422589 0.01006083
0.97997442 0.57663008 0.05300993
1.00019918 0.58159734 0.12433937
1.00055569 0.59409688 0.21380699
1.00025393 0.65526997 0.33455571
0.18841728 0.63145364 0.00005695
0.20408078 0.63025127 0.00005286
0.21978171 0.62911045 0.00002064
0.23605684 0.62798989 0.00000000
0.25566641 0.62671341 0.00000267
0.27662046 0.62542636 0.00000023
0.29930040 0.62388187 0.00000481
0.32394725 0.62201349 0.00000140
0.35033343 0.62008058 0.00000000
0.37794890 0.61814667 0.00000000
0.40507577 0.61673055 0.00000413
0.43411273 0.61509543 0.00000045
0.46351254 0.61344338 0.00000775
0.49183658 0.61180490 0.00001102
0.51952804 0.61067665 0.00000000
0.54779682 0.60889548 0.00000000
0.57441319 0.60719078 0.00000148
0.59945131 0.60566009 0.00001052
0.62327446 0.60470667 0.00001052
0.64673846 0.60393295 0.00000011
0.66893529 0.60345057 0.00001099
0.69638872 0.60330436 0.00002802
0.72371484 0.60301629 0.00001985
0.75607660 0.60250214 0.00000068
0.78314464 0.60237268 0.00000987
0.81172891 0.60254688 0.00000924
0.84869469 0.60263499 0.00000869
0.88277341 0.60313582 0.00005402
0.92989445 0.60324787 0.01027960
0.97785785 0.60393767 0.05260626
0.99997815 0.60635008 0.12073611
1.00064045 0.61575866 0.21449488
1.00018517 0.66341235 0.33624345
0.21356826 0.66365148 0.00000000
0.22858489 0.66258153 0.00002964
0.24361262 0.66155991 0.00006161
0.25915672 0.66055024 0.00004268
0.27789840 0.65939243 0.00000606
0.29812969 0.65785349 0.00000000
0.31914544 0.65618518 0.00000000
0.34190373 0.65442281 0.00000030
0.36640409 0.65257924 0.00000134
0.39225593 0.65071169 0.00000271
0.41945211 0.64881429 0.00000143
0.44729062 0.64714245 0.00000289
0.47434235 0.64550019 0.00000908
0.50096850 0.64392956 0.00001058
0.52844772 0.64245448 0.00001078
0.55510529 0.64082169 0.00000000
0.58024904 0.63924007 0.00000614
0.60396467 0.63779109 0.00001101
0.62685329 0.63655753 0.00001026
0.64923213 0.63566969 0.00000652
0.67066770 0.63512005 0.00000000
0.69729024 0.63480014 0.00001568
0.72359296 0.63367038 0.00003955
0.75303054 0.63261553 0.00003603
0.78044216 0.63198277 0.00000068
0.81183298 0.63116970 0.00004904
0.84442787 0.63067829 0.00003096
0.88053224 0.63032226 0.00000000
0.92651311 0.62974713 0.01845158
0.97521859 0.62923046 0.05251584
0.99972790 0.63051984 0.12408349
1.00051790 0.63637381 0.21305953
1.00011355 0.67170180 0.33804712
0.23986317 0.69310758 0.00004713
0.25423160 0.69217319 0.00006028
0.26851965 0.69119612 0.00003875
0.28273811 0.68996077 0.00001267
0.29944545 0.68853018 0.00000000
0.31874233 0.68692755 0.00000258
0.33821096 0.68543558 0.00000359
0.35927327 0.68384670 0.00000486
0.38217999 0.68217226 0.00000627
0.40679071 0.68027385 0.00000704
0.43306142 0.67832293 0.00000773
0.45942408 0.67667474 0.00000535
0.48448273 0.67512181 0.00001047
0.51029584 0.67361170 0.00001107
0.53671041 0.67217420 0.00000923
0.56194343 0.67079684 0.00000674
0.58591401 0.66928355 0.00001107
0.60865261 0.66784362 0.00000869
0.63082609 0.66660597 0.00000922
0.65226172 0.66549585 0.00000971
0.67283053 0.66466894 0.00000622
0.69924963 0.66359988 0.00002571
0.72536685 0.66188764 0.00006137
0.75263201 0.66024969 0.00000000
0.77824509 0.65902699 0.00000000
0.81227259 0.65775364 0.00000000
0.84390301 0.65684071 0.00000000
0.87862660 0.65579164 0.00704417
0.92299663 0.65448234 0.02490438
0.97564049 0.65363381 0.05241940
0.99894366 0.65310266 0.12505381
1.00038747 0.65618890 0.21289428
1.00021634 0.67965888 0.33993553
0.26567922 0.71981854 0.00005791
0.27887319 0.71865762 0.00003771
0.29179601 0.71753413 0.00001371
0.30490651 0.71640889 0.00000000
0.32039814 0.71510119 0.00000094
0.33836400 0.71362364 0.00000627
0.35691762 0.71218764 0.00000862
0.37663815 0.71069384 0.00000944
0.39843272 0.70896524 0.00000985
0.42173263 0.70718380 0.00001023
0.44661704 0.70536829 0.00001057
0.47139096 0.70358581 0.00001057
0.49526273 0.70213554 0.00001038
0.52056768 0.70068400 0.00000751
0.54529771 0.69929678 0.00000365
0.56907310 0.69787025 0.00000000
0.59187433 0.69644004 0.00000000
0.61408701 0.69490616 0.00000082
0.63522075 0.69348924 0.00001730
0.65583161 0.69216918 0.00004259
0.67555110 0.69097473 0.00006049
0.70199593 0.68929701 0.00004016
0.72735774 0.68767136 0.00000000
0.75358439 0.68606328 0.00000000
0.77817727 0.68441990 0.00000000
0.81052655 0.68270329 0.00000000
0.84139377 0.68154166 0.00000000
0.87657291 0.67952432 0.01007732
0.91988077 0.67745653 0.02862341
0.97392121 0.67600792 0.05409073
0.99830040 0.67447346 0.12638163
1.00030783 0.67449619 0.21567799
1.00033849 0.68754271 0.34191121
0.29767988 0.75473987 0.00006013
0.30957692 0.75385989 0.00005065
0.32125296 0.75300030 0.00003634
0.33305856 0.75213190 0.00002063
0.34692707 0.75111254 0.00000552
0.36296881 0.74939557 0.00000000
0.38059509 0.74725781 0.00000000
0.39879937 0.74590058 0.00000018
0.41884205 0.74444432 0.00000452
0.44057562 0.74298715 0.00001252
0.46294020 0.74149616 0.00002386
0.48566129 0.73899403 0.00000002
0.50908780 0.73618937 0.00001102
0.53238249 0.73487198 0.00000946
0.55494582 0.73360537 0.00000637
0.57686302 0.73239595 0.00000282
0.59877234 0.73032765 0.00000000
0.61989443 0.72819056 0.00002567
0.63981714 0.72684267 0.00003501
0.65930763 0.72559661 0.00004557
0.67818576 0.72437395 0.00005730
0.70389098 0.72199069 0.00000000
0.72793688 0.72009895 0.00000000
0.75355259 0.71840936 0.00000000
0.78080088 0.71622815 0.00000000
0.80785885 0.71355704 0.00005042
