public/luts/builtin/fuji_classic_neg.cube
TITLE "Rec709800_sRGB-LA:FLog2_to_CLASSICNeg._LA:FLog2_to_CLASSICNeg."
LUT_3D_SIZE 9
# Rec709 (800%)/sRGB -> LA - :FLog2_to_CLASSIC-Neg./LA - :FLog2_to_CLASSIC-Neg., CineEI Shift 0.00, Black Level -0.01% IRE, Input 100% -> Output 100% - Created with LUTCalc v4.09 by Ben Turley February 2025
0.00000000 0.00000000 0.00000000
0.03691811 0.00232325 0.00004297
0.10628991 0.00656751 0.00003664
0.21042365 0.01675650 0.00000003
0.40988881 0.04161448 0.00000541
0.64822681 0.07979297 0.00000000
0.81323458 0.13063427 0.00000000
0.91815081 0.21199711 0.01844439
0.96266414 0.62871509 0.33772972
0.00000000 0.05109112 0.00997283
0.05068569 0.05863134 0.00583267
0.12670451 0.07092984 0.00107326
0.24509623 0.08788202 0.00000000
0.43102317 0.11348274 0.00004322
0.63266766 0.14402382 0.00001036
0.80644559 0.18549530 0.00000823
0.91618144 0.25853359 0.03104288
0.96340367 0.64051392 0.34641965
0.01065607 0.15548136 0.04166979
0.06359275 0.15793250 0.03405941
0.14108246 0.16469922 0.02939410
0.25539658 0.17748149 0.02133685
0.42881605 0.19825110 0.00827062
0.62197846 0.22448922 0.00348066
0.80024978 0.26430993 0.00995847
0.91385448 0.33818842 0.05856826
0.96473520 0.65968525 0.36143494
0.03960865 0.29864845 0.10493785
0.09271136 0.29863687 0.09580982
0.16517942 0.30115906 0.08486468
0.28064688 0.31019289 0.07351498
0.45190579 0.32671284 0.06086980
0.63388169 0.35194765 0.05070044
0.80186744 0.38723576 0.05574146
0.91350021 0.45236304 0.10276495
0.96619106 0.68723679 0.38014521
0.08756293 0.48243264 0.18852946
0.13531578 0.48070085 0.17971836
0.20671902 0.47977058 0.16764846
0.32367039 0.48474451 0.15292377
0.48987215 0.49632902 0.13589791
0.65897551 0.51276366 0.12386477
0.80992648 0.53731422 0.12454516
0.91451578 0.57934307 0.16083367
0.96796536 0.71921989 0.40541956
0.14131800 0.64698172 0.27751444
0.18311794 0.64580909 0.26943893
0.25446363 0.64513836 0.25744211
0.37311385 0.64677296 0.24182273
0.53188696 0.65374136 0.22130650
0.68567529 0.66259607 0.20892820
0.81730504 0.67463845 0.20291319
0.91650036 0.69586956 0.22804207
0.96966720 0.75182836 0.43509753
0.21641392 0.78548655 0.40182101
0.25422964 0.78570553 0.39424850
0.32745636 0.78735244 0.38105533
0.43501852 0.78956336 0.36293217
0.57464928 0.79459306 0.34165425
0.70638433 0.79971339 0.32551485
0.82676316 0.80313678 0.31732108
0.91749635 0.80603330 0.32921037
0.97271402 0.79652408 0.47987165
0.35053478 0.89413446 0.56946215
0.38338034 0.89534496 0.56324421
0.44424991 0.89773113 0.55234825
0.53286763 0.90066518 0.53855773
0.63609819 0.90352694 0.52315496
0.73487188 0.90739330 0.50716447
0.83095295 0.90850858 0.49343679
0.91425707 0.90705517 0.48769485
0.97720250 0.85647792 0.55092395
0.82258519 0.98661479 0.82386993
0.82458682 0.98672006 0.82341673
0.82801937 0.98690388 0.82261993
0.83315107 0.98718650 0.82137801
0.83979007 0.98756616 0.81966719
0.84747919 0.98803018 0.81748403
0.85923878 0.98880840 0.81445595
0.88228982 0.99005318 0.80929120
0.97337805 0.99249180 0.76531822
0.00129290 0.00310054 0.02366981
0.05095720 0.00539001 0.01602320
0.12906745 0.01030113 0.01202693
0.25866235 0.02438194 0.00873952
0.48542057 0.05309896 0.00000000
0.68970715 0.08836869 0.00000000
0.83168705 0.13764453 0.00489199
0.92531695 0.21953029 0.07282660
0.96454885 0.63314401 0.36935884
0.00453367 0.07288980 0.07458408
0.06820646 0.07778235 0.06339815
0.15216164 0.08529868 0.05407603
0.28488930 0.10121537 0.03932003
0.47738866 0.12371519 0.02752226
0.66952821 0.15330504 0.02186250
0.82331585 0.19465470 0.03091435
0.92393773 0.26801189 0.08879223
0.96530244 0.64455183 0.37672670
0.02082198 0.18047692 0.13131850
0.08166708 0.17990168 0.11614134
0.16250710 0.18230132 0.10262939
0.28638106 0.19325599 0.08736325
0.47075843 0.21282600 0.07101661
0.65974511 0.23897233 0.06133402
0.81913571 0.27696312 0.06786543
0.92156761 0.34804608 0.11813124
0.96653241 0.66306633 0.38951127
0.05526597 0.32486253 0.19476511
0.10963617 0.32295638 0.18175023
0.18658979 0.32274336 0.16642968
0.31010668 0.32971542 0.14900505
0.48643498 0.34626753 0.12999913
0.66446164 0.36793747 0.11786682
0.81841815 0.40124242 0.12086692
0.92093702 0.46062701 0.16438311
0.96771653 0.68946348 0.40763197
0.10148023 0.50430509 0.27593544
0.15142825 0.50154974 0.26322330
0.22516670 0.49936034 0.24863631
0.34975605 0.50255608 0.22682282
0.51864985 0.51245297 0.20724843
0.68107189 0.52713633 0.19252560
0.82295416 0.54772887 0.18990493
0.92116000 0.58539899 0.22119900
0.96912226 0.72085103 0.43260117
0.15506779 0.65962166 0.36333919
0.19778036 0.65795471 0.35256701
0.27115490 0.65691712 0.33743570
0.39313311 0.65824921 0.31646506
0.55130482 0.66327255 0.29257316
0.70114760 0.66966053 0.27541981
0.82784302 0.67965764 0.26729103
0.92111257 0.69835956 0.28806754
0.97069509 0.75318274 0.46033941
0.22759356 0.78813385 0.47453286
0.26633813 0.78846319 0.46531042
0.34023881 0.79032958 0.45005379
0.44987468 0.79269117 0.43005897
0.58875849 0.79749963 0.40670102
0.71700057 0.80262623 0.38705249
0.83305441 0.80481317 0.37388499
0.92144545 0.80699103 0.38152977
0.97362260 0.79692884 0.50139402
0.35969087 0.89425631 0.61539680
0.39295616 0.89557869 0.60844006
0.45422094 0.89793739 0.59772572
0.54235040 0.90073902 0.58303568
0.64477671 0.90352647 0.56656884
0.74117579 0.90727518 0.55009199
0.83558958 0.90782156 0.53506269
0.91589018 0.90647774 0.52451957
0.97785237 0.85643495 0.56846056
0.82278540 0.98670583 0.82770916
0.82478314 0.98681081 0.82726760
0.82820892 0.98699399 0.82649106
0.83333023 0.98727528 0.82528024
0.83995525 0.98765246 0.82361130
0.84762475 0.98811228 0.82148001
0.85917480 0.98882893 0.81782484
0.88219998 0.99005437 0.81251191
0.97373343 0.99254898 0.76900074
0.00954343 0.01293665 0.07215697
0.07033472 0.01630384 0.06634639
0.15868032 0.02393920 0.07126791
0.32041004 0.04384926 0.07601252
0.56393697 0.07874959 0.07204497
0.73603724 0.11372550 0.07706948
0.85458155 0.15998966 0.10078608
0.93343494 0.23673873 0.16883903
0.96716488 0.64046962 0.41679353
0.01391917 0.09915507 0.15935670
0.08945539 0.10412930 0.15184545
0.18324417 0.11151537 0.14090985
0.33544703 0.12567266 0.12527617
0.53942788 0.14937149 0.11251030
0.71621453 0.17619282 0.10897091
0.84785741 0.21380676 0.12459503
0.93305383 0.28652214 0.18615813
0.96773516 0.65124378 0.42403554
0.03418360 0.21482678 0.24805653
0.10318028 0.21267290 0.22623049
0.19224403 0.21425011 0.20465325
0.33403647 0.22357028 0.18241552
0.52707630 0.24256981 0.16546911
0.70335239 0.26664562 0.15461748
0.84050449 0.30237098 0.16558619
0.93154517 0.36596158 0.21655466
0.96859315 0.66870310 0.43636288
0.07474277 0.36706909 0.32399935
0.13149766 0.36204273 0.30492960
0.21450993 0.35954934 0.28139319
0.35067386 0.36329976 0.25719981
0.53299430 0.37697841 0.23440343
0.70189792 0.39570380 0.21962889
0.83725453 0.42528038 0.22225030
0.93033968 0.47654166 0.26219324
0.96944565 0.69450691 0.45322410
0.12209948 0.53651356 0.40833092
0.17333582 0.53315718 0.39251171
0.25204676 0.53018871 0.37003281
0.38285863 0.53242382 0.34429274
0.55526817 0.53896684 0.31655833
0.71029665 0.54993050 0.29808086
0.83864361 0.56657700 0.29160963
0.92961268 0.59703074 0.31508036
0.97074211 0.72449940 0.47427190
0.17414397 0.67724408 0.48958687
0.21986168 0.67556086 0.47644363
0.29555943 0.67451263 0.45559030
0.42092290 0.67573841 0.42962988
0.58004997 0.67951045 0.40112151
0.72094212 0.68471937 0.37900116
0.84045034 0.69166409 0.36524369
0.92773610 0.70447909 0.37413718
0.97241462 0.75546035 0.49825808
0.24383683 0.79455028 0.57697059
0.28416614 0.79487691 0.56656215
0.35933877 0.79647569 0.54920115
0.47041626 0.79908213 0.52643274
0.60910694 0.80285382 0.50142670
0.73313816 0.80665985 0.47888839
0.84171194 0.80888866 0.46168533
0.92701927 0.80983659 0.45989958
0.97514732 0.79810691 0.53606106
0.37303256 0.89409552 0.68166671
0.40708366 0.89556603 0.67455250
0.46824604 0.89810128 0.66343373
0.55547380 0.90090104 0.64827350
0.65628108 0.90343307 0.63007289
0.74974845 0.90691968 0.61239963
0.84143541 0.90731996 0.59576307
0.91882426 0.90552962 0.58005888
0.97881747 0.85635500 0.59609368
0.82313346 0.98686019 0.83394483
0.82512442 0.98696457 0.83352368
0.82853840 0.98714646 0.83278269
0.83364160 0.98742519 0.83162646
0.84024222 0.98779777 0.83003111
0.84787752 0.98824996 0.82799111
0.85939521 0.98894921 0.82448575
0.88206854 0.99005171 0.81781973
0.97433753 0.99264698 0.77515626
0.02216692 0.02985917 0.12446739
0.09556252 0.03521794 0.12724140
0.19956165 0.04966661 0.14499823
0.39865827 0.07710818 0.16587986
0.63575318 0.11317145 0.17621908
0.78007565 0.14476151 0.19018911
0.87670739 0.18671408 0.22350950
0.94211882 0.26101938 0.29447236
0.96951894 0.65168754 0.47907106
0.03596784 0.13057020 0.27707622
0.11783856 0.13591957 0.27340705
0.22766567 0.14349876 0.25930472
0.40198788 0.15912495 0.24177062
0.60737176 0.18205449 0.22884678
0.76126089 0.20794499 0.23105230
0.86945046 0.24459074 0.25104295
0.94171507 0.31292158 0.31299084
0.96982538 0.66168825 0.48499231
0.06191067 0.26303268 0.40761328
0.13266420 0.25673341 0.37800342
0.23051320 0.25549518 0.34794029
0.38913777 0.26310517 0.31874780
0.59000370 0.28097889 0.29709322
0.74769856 0.30271147 0.28750648
0.86295119 0.33419506 0.29611348
0.94012748 0.39265312 0.34201798
0.97043922 0.67808353 0.49540992
0.10504653 0.41894778 0.49449208
0.16050340 0.41310934 0.47081907
0.25210619 0.40871280 0.44160976
0.40285047 0.41011088 0.40568553
0.58858165 0.42189983 0.37399557
0.74053840 0.43640026 0.35693635
0.85786477 0.45784738 0.35481972
0.93869815 0.49930443 0.38321120
0.97137791 0.70246906 0.50940316
0.14793884 0.57530562 0.57276983
0.19875738 0.57167039 0.55330252
0.28703548 0.56842679 0.52525844
0.42619486 0.56860873 0.49133871
0.59903762 0.57265128 0.45943348
0.74245211 0.58037878 0.43478471
0.85430595 0.59156745 0.42098916
0.93741005 0.61490138 0.43206429
0.97303921 0.73003710 0.52767001
0.19588142 0.69909376 0.63302621
0.24457416 0.69761888 0.61918726
0.32560472 0.69661954 0.59535302
0.45575567 0.69682896 0.56430415
0.61330815 0.70026258 0.53202645
0.74483342 0.70401299 0.50573381
0.85442721 0.70759509 0.48700938
0.93559785 0.71463644 0.48531500
0.97484576 0.75887993 0.54882275
0.26538831 0.80332993 0.69586425
0.30743444 0.80386417 0.68543141
0.38276960 0.80528941 0.66699566
0.49575218 0.80775016 0.64258610
0.63146082 0.81097070 0.61279746
0.75090914 0.81421352 0.58811281
0.85184572 0.81481153 0.56685065
0.93252769 0.81371431 0.55541731
0.97715742 0.79998240 0.58207543
0.38980996 0.89432390 0.75755070
0.42481271 0.89576619 0.74994446
0.48486925 0.89823447 0.73850625
0.57021215 0.90100357 0.72373607
0.66816840 0.90384964 0.70495579
0.75832202 0.90695003 0.68557933
0.84708179 0.90713308 0.66732897
0.92272445 0.90489628 0.64671065
0.98002246 0.85691586 0.63185640
0.82329846 0.98688391 0.84212604
0.82528391 0.98698799 0.84173934
0.82868847 0.98716934 0.84105718
0.83377761 0.98744715 0.83998871
0.84036011 0.98781835 0.83851183
0.84797285 0.98826862 0.83661990
0.85946539 0.98896426 0.83336056
0.88215929 0.99004039 0.82661153
0.97521215 0.99279368 0.78404221
0.04937095 0.05132562 0.18925559
0.12690291 0.06306206 0.20896930
0.25259427 0.08350350 0.24737294
0.48735030 0.11576131 0.28914715
0.70087472 0.15138597 0.30937879
0.81806497 0.17889798 0.32974033
0.89677086 0.22179110 0.36767257
0.95153651 0.29398025 0.42806738
0.97222403 0.66636469 0.54536929
0.07830391 0.17307159 0.43258099
0.15659866 0.17803271 0.43219350
0.28097046 0.18515488 0.41149612
0.47547316 0.20104693 0.38853519
0.67334780 0.22236140 0.37503073
0.80173074 0.24644994 0.37768915
0.89038535 0.28100082 0.39702564
0.95060747 0.34453213 0.44483843
0.97268030 0.67568174 0.55062104
0.10097465 0.31876712 0.58200221
0.16951830 0.31106030 0.55083891
0.28171388 0.30993281 0.51514820
0.45868628 0.31627184 0.47896562
0.65340533 0.33152945 0.45070599
0.78718745 0.34887974 0.43775975
0.88303863 0.37376480 0.44264753
0.95009342 0.42536545 0.47292635
0.97342601 0.69094373 0.55950421
0.13663938 0.47692652 0.66446901
0.19562139 0.46945192 0.64026741
0.29830561 0.46421244 0.60434244
0.45976217 0.46407244 0.56520552
0.64194252 0.47097179 0.53048920
0.77680895 0.48039256 0.50796290
0.87651772 0.49552702 0.49787580
0.94880930 0.52714116 0.50922860
0.97465636 0.71269735 0.57190115
0.17880145 0.61659214 0.72316476
0.22998458 0.61249892 0.70404617
0.32491504 0.60782836 0.67435931
0.47279297 0.60691235 0.63822709
0.64199875 0.60872524 0.60058390
0.77064228 0.61380878 0.57509218
0.87122383 0.62083161 0.55607112
0.94607487 0.63623775 0.55234015
0.97576676 0.73756406 0.58767210
0.22205238 0.72026206 0.76284509
0.27271386 0.71927710 0.74951912
0.35816160 0.71901704 0.72549515
0.49219892 0.71974388 0.69476192
0.64650341 0.72178751 0.66131640
0.77057187 0.72406126 0.63175074
0.86659383 0.72539650 0.60874462
0.94216547 0.72895721 0.59575428
0.97677234 0.76441928 0.60520022
0.28822027 0.81329995 0.79786458
0.33295637 0.81398936 0.78731460
0.40952085 0.81518741 0.76971518
0.52350941 0.81773991 0.74513645
0.65604605 0.82074922 0.71724963
0.76870746 0.82242480 0.69290055
0.86347186 0.82237095 0.66648565
0.93734771 0.82100649 0.64986920
0.97882328 0.80261618 0.63167353
0.40746864 0.89557442 0.83134749
0.44201056 0.89698896 0.82304926
0.50023570 0.89930963 0.80798664
0.58428642 0.90166682 0.79401432
0.68084984 0.90408254 0.77586361
0.76727840 0.90689931 0.75691992
0.85256144 0.90769092 0.73670305
0.92597930 0.90535026 0.71436141
0.98158935 0.85778956 0.67115298
0.82394948 0.98672467 0.85261235
0.82589491 0.98685567 0.85222277
0.82923155 0.98708387 0.85153705
0.83422106 0.98743285 0.85046571
0.84067858 0.98789647 0.84898303
0.84819651 0.98839949 0.84718907
0.85965254 0.98907676 0.84429403
0.88234713 0.99012040 0.83819028
0.97625401 0.99298477 0.79509909
0.09412175 0.08022908 0.28904787
0.17361112 0.09635653 0.32822915
0.32813871 0.12244237 0.38574203
0.58262315 0.16212737 0.44038132
0.75547427 0.19225672 0.45551361
0.85099204 0.22164879 0.47497608
0.91500895 0.26045246 0.50555811
0.95962192 0.33191417 0.55111398
0.97517860 0.68260313 0.61038017
0.12338657 0.22825263 0.60721504
0.20673570 0.23036300 0.59331423
0.34970433 0.23772144 0.56948503
0.55387847 0.25189873 0.54058571
0.73146159 0.27096774 0.52472888
0.83667785 0.29356053 0.52327958
0.90807779 0.32506524 0.53638686
0.95888077 0.38240315 0.56826741
0.97564742 0.69104483 0.61453750
0.14341953 0.38281658 0.72833773
0.21498543 0.37522452 0.70189315
0.34138368 0.37170077 0.66682407
0.52955288 0.37508958 0.62799038
0.70835948 0.38514252 0.59697228
0.82150639 0.39941289 0.58207168
0.90078065 0.42050609 0.57865689
0.95815787 0.46206504 0.59394647
0.97634126 0.70506340 0.62185344
0.17193025 0.53326222 0.79428453
0.23639087 0.52593585 0.77065204
0.34741713 0.51989623 0.73891423
0.51665552 0.51886690 0.70075327
0.68987713 0.52236515 0.66501342
0.80883830 0.52700172 0.63940411
0.89272834 0.53635777 0.62573032
0.95640878 0.55971493 0.62427821
0.97701432 0.72380307 0.63121224
0.21197836 0.65627496 0.83299493
0.26514210 0.65256979 0.81591887
0.36618530 0.64934242 0.78851580
0.52034475 0.64775037 0.75459137
0.68325530 0.64842359 0.72100124
0.79801934 0.64803244 0.69441424
0.88500763 0.64979142 0.67068857
0.95315396 0.65954369 0.65720179
0.97769031 0.74639858 0.64328656
0.25158291 0.74176458 0.85640893
0.30256120 0.74043877 0.84358765
0.39340621 0.74001974 0.82164364
0.53030297 0.74027374 0.79246256
0.67776099 0.74163566 0.76204575
0.79138328 0.74261790 0.73420347
0.87940488 0.74285202 0.71119880
0.94918023 0.74454033 0.69019757
0.97844568 0.77141892 0.65718331
0.31352118 0.82300675 0.87678613
0.35911501 0.82418511 0.86478888
0.43657535 0.82544032 0.85110854
0.55183399 0.82786682 0.82608403
0.67826943 0.82999293 0.80223931
0.78385012 0.83164013 0.77671395
0.87294862 0.83096859 0.75346390
0.94204830 0.82761864 0.73092254
0.98032083 0.80654879 0.67897055
0.42580032 0.89690741 0.88491156
0.46015169 0.89824398 0.87788553
0.51824388 0.90043614 0.86475918
0.59961048 0.90263682 0.85218189
0.69302408 0.90519086 0.83609961
0.77572541 0.90760625 0.81702328
0.85691207 0.90733022 0.79576087
0.92879136 0.90467011 0.77266107
0.98260879 0.85861754 0.71176273
0.82496797 0.98634645 0.86393230
0.82689390 0.98647808 0.86357241
0.83019659 0.98670827 0.86293900
0.83513394 0.98706256 0.86194989
0.84151950 0.98753783 0.86058322
0.84889350 0.98811431 0.85883950
0.86010407 0.98899571 0.85587795
0.88259407 0.99021286 0.85003824
0.97707014 0.99304769 0.80810387
0.16720197 0.13498481 0.49275061
0.26770686 0.15894984 0.54126049
0.46796686 0.19459012 0.59863235
0.68756399 0.23407583 0.62850958
0.81521190 0.26065674 0.63155807
0.88272005 0.28866089 0.64232732
0.93519993 0.32649103 0.65832924
0.96829476 0.38865138 0.67994343
0.97824134 0.70769191 0.68517133
0.19984120 0.31747141 0.78596982
0.29425006 0.31815821 0.76411012
0.45785085 0.32325806 0.73430988
0.65135355 0.33409971 0.70418177
0.79321906 0.35015548 0.68727689
0.87082805 0.36695353 0.68272824
0.92954687 0.39182751 0.68379640
0.96779167 0.44014904 0.69447187
0.97853852 0.71476751 0.68872246
0.20765230 0.47074139 0.86840440
0.28698906 0.46367956 0.84720316
0.43047941 0.46074940 0.80864828
0.61832790 0.46262033 0.76960992
0.76800489 0.46795192 0.74331996
0.85635981 0.47381967 0.72762811
0.92091022 0.48533812 0.71616821
0.96609921 0.51425439 0.71521658
0.97902978 0.72621603 0.69454694
0.22776829 0.60205889 0.90561224
0.29693950 0.59762348 0.89220386
0.41885068 0.59310620 0.86342951
0.59301254 0.59105593 0.82447068
0.74582976 0.58966145 0.79049602
0.84208857 0.58885687 0.76796264
0.91006295 0.59246860 0.75215097
0.96541847 0.60469976 0.74017090
0.97969106 0.74196747 0.70180670
0.25940087 0.69994770 0.93306673
0.32009969 0.69734474 0.92119609
0.42532449 0.69553343 0.89588189
0.57882472 0.69515392 0.86298370
0.72649886 0.69500061 0.82975085
0.82782204 0.69385047 0.80444588
0.90184271 0.69164931 0.78240765
0.96177188 0.69131346 0.76609241
0.98036820 0.76164925 0.71145334
0.29732886 0.77084467 0.94237824
0.34827140 0.77047690 0.93383300
0.44407806 0.77078159 0.90887158
0.57941968 0.77097119 0.88275799
0.71505901 0.77122187 0.85653419
0.81609299 0.77089926 0.83309961
0.89308927 0.76685118 0.81038172
0.95643419 0.76503743 0.78725142
0.98107288 0.78217121 0.72159923
0.34905895 0.83516169 0.94699884
0.39619641 0.83608907 0.93766522
0.47257942 0.83702548 0.92653986
0.58620986 0.83954354 0.90311537
0.70406027 0.84099621 0.88235615
0.80187761 0.84214139 0.85897985
0.88099021 0.84097972 0.83537767
0.94768750 0.83681607 0.81112660
0.98266125 0.81297166 0.73658246
0.45048917 0.89851070 0.93912798
0.48340389 0.89987339 0.93394845
0.53908339 0.90210015 0.92236208
0.61696336 0.90385237 0.90745658
0.70589714 0.90648550 0.89330244
0.78344786 0.90861867 0.87556755
0.86179114 0.90878617 0.85758101
0.93186862 0.90580976 0.83451965
0.98462695 0.86057765 0.75896167
0.82592735 0.98677723 0.88199495
0.82783230 0.98689544 0.88156658
0.83109869 0.98710145 0.88081084
0.83598092 0.98741691 0.87962569
0.84228946 0.98783750 0.87797662
0.84957417 0.98837547 0.87621241
0.86072102 0.98921878 0.87368508
0.88332516 0.99039963 0.86833575
0.97846269 0.99324627 0.82791346
0.39359834 0.30921904 0.82655181
0.52510682 0.33972948 0.83306001
0.67658839 0.36234813 0.82242265
0.79856816 0.38073961 0.81028843
0.87266801 0.39981074 0.80649853
0.91640068 0.42070734 0.80642682
0.95441871 0.44827001 0.80890047
0.97718993 0.49247058 0.81139264
0.98191774 0.73993063 0.76605405
0.37454118 0.47465306 0.91932485
0.47990454 0.47407445 0.90220890
0.62945308 0.47602137 0.87843825
0.76759296 0.48142046 0.85556957
0.85520084 0.48851439 0.84312610
0.90709019 0.49601562 0.83393276
0.94951360 0.50935486 0.82829847
0.97740261 0.53718683 0.82353143
0.98220832 0.74644400 0.76921749
0.34902291 0.59709319 0.96382974
0.43813406 0.59423331 0.95157239
0.58014874 0.59292929 0.92826639
0.73022311 0.59094667 0.89766999
0.83346160 0.58941372 0.87652735
0.89298814 0.58847104 0.86321100
0.94139665 0.59119111 0.85059816
0.97648564 0.60193552 0.83818345
0.98268046 0.75658005 0.77397062
0.34425011 0.69288978 0.98364388
0.42112579 0.69109183 0.97529666
0.54821439 0.69004801 0.95540996
0.69435537 0.68726819 0.92992771
0.80802330 0.68319515 0.90529625
0.87765106 0.67947629 0.88813507
0.93088125 0.67613237 0.87412562
0.97517252 0.67259412 0.85605297
0.98308346 0.77015577 0.77998798
0.35509627 0.75751816 0.99288605
0.41859704 0.75728751 0.98741971
0.52710681 0.75764812 0.97144418
0.66421362 0.75747834 0.95326099
0.78087388 0.75641181 0.93260668
0.85881787 0.75298969 0.91010257
0.92026403 0.74647542 0.89214101
0.97041689 0.74037169 0.87112328
0.98406435 0.78672686 0.78792015
0.37455678 0.80340095 0.99666386
0.43024045 0.80414435 0.99426435
0.52272245 0.80510581 0.98151981
0.64849366 0.80733708 0.96248541
0.76162101 0.80803104 0.94194634
0.84323069 0.80668318 0.92591739
0.90791590 0.80287503 0.90546631
0.96323461 0.79209250 0.88353006
0.98512734 0.80361225 0.79563754
0.41041320 0.85027881 0.99630882
0.45406145 0.85098833 0.99189566
0.52858489 0.85267280 0.98138943
0.63271682 0.85569897 0.96903043
0.73562960 0.85732800 0.95346862
0.81864520 0.85777034 0.93748887
0.89016814 0.85446428 0.91732853
0.95201671 0.84767890 0.89398215
0.98589594 0.82711208 0.80570296
0.48710678 0.90104741 0.98874929
0.51802183 0.90205061 0.98586580
0.57005336 0.90346937 0.98019971
0.64286193 0.90516987 0.96964179
0.72308891 0.90756771 0.95569001
0.79319297 0.90873216 0.94210327
0.86597151 0.90928145 0.92605035
0.93305516 0.90590590 0.90352468
0.98776464 0.86524903 0.82166535
0.82542711 0.98761563 0.91135465
0.82753409 0.98773698 0.91104356
0.83113931 0.98794642 0.91049943
0.83650818 0.98826175 0.90965641
0.84339551 0.98867072 0.90849908
0.85127623 0.98914262 0.90701560
0.86219736 0.98977561 0.90452444
0.88445986 0.99075454 0.89915887
0.98062303 0.99234383 0.85956309
0.84835873 0.74131764 0.97464358
0.85684935 0.74306949 0.97353867
0.86982677 0.74592801 0.97207287
0.88616798 0.74969536 0.97036085
0.90468356 0.75328628 0.96872815
0.92206636 0.75725833 0.96718662
0.94299685 0.76237065 0.96454574
0.97131447 0.77031631 0.96142166
0.99059578 0.79921445 0.95077552
0.83475006 0.74920579 0.97806289
0.84482857 0.75103759 0.97725426
0.85916811 0.75405872 0.97588072
0.87709172 0.75831648 0.97345203
0.89655168 0.76244288 0.97093995
0.91459611 0.76636586 0.96932857
0.93873478 0.77121115 0.96717665
0.96827927 0.77842754 0.96325613
0.99070322 0.80226595 0.95142320
0.81055483 0.76320383 0.98332772
0.82296245 0.76493867 0.98214688
0.84122686 0.76784745 0.98027790
0.86257593 0.77192610 0.97759064
0.88443188 0.77599353 0.97516855
0.90474220 0.77977107 0.97271469
0.93132377 0.78404143 0.97034774
0.96143636 0.79021868 0.96693692
0.99088146 0.80729710 0.95250240
0.77614271 0.78103926 0.99109868
0.79091917 0.78247601 0.98992144
0.81370184 0.78486352 0.98692237
0.84143397 0.78808441 0.98275954
0.86718770 0.79166937 0.97982890
0.89051104 0.79539146 0.97753794
0.91784845 0.79951854 0.97483095
0.95417209 0.80457730 0.97028232
0.99111806 0.81454737 0.95416156
0.74071287 0.79943401 0.99791897
0.75715063 0.80059955 0.99636790
0.78263713 0.80259124 0.99383380
0.81495034 0.80493797 0.99090353
0.84708070 0.80790349 0.98635144
0.87491132 0.81088829 0.98277951
0.90592180 0.81501897 0.97941292
0.94468103 0.82040966 0.97424858
0.99130745 0.82468759 0.95596964
0.71061843 0.81896408 0.99939293
0.72788638 0.81981671 0.99925151
0.75447143 0.82121920 0.99888760
0.78896184 0.82328706 0.99631324
0.82592676 0.82575265 0.99233820
0.85826806 0.82871556 0.98939609
0.89338293 0.83306502 0.98324245
0.93611107 0.83870012 0.97810746
0.99164382 0.83640851 0.95795526
0.67819741 0.84371623 0.99991644
0.69559955 0.84451530 0.99991341
0.72326619 0.84587407 0.99987931
0.76023042 0.84795971 0.99967937
0.79926421 0.84962178 0.99905218
0.83631813 0.85150061 0.99529478
0.87710223 0.85414744 0.98994708
0.92589978 0.85871000 0.98310330
0.99252792 0.85257424 0.96129967
0.65645819 0.87801951 0.99992237
0.67114071 0.87864790 0.99991939
0.69508517 0.87971651 0.99991434
0.72818367 0.88133944 0.99993328
0.76656791 0.88308332 0.99979462
0.80587007 0.88414322 0.99932561
0.85308136 0.88594649 0.99881606
0.90819897 0.88837060 0.99119088
0.99399951 0.87904218 0.96861787
0.78512914 0.98223283 0.99964803
0.78781292 0.98238091 0.99963905
0.79245328 0.98264329 0.99962341
0.79947540 0.98305859 0.99959944
0.80869500 0.98364702 0.99956726
0.81963042 0.98443923 0.99952769
0.83733365 0.98505364 0.99949295
0.86824939 0.98739624 0.99937831
0.99119437 0.98946390 0.98790834
