public/luts/builtin/kodachrome.cube
TITLE "Kodachrome-Generic"
LUT_3D_SIZE 9
0.066667 0.047059 0.047059
0.108824 0.043137 0.043627
0.178431 0.035294 0.035294
0.258333 0.023529 0.021078
0.347058 0.015686 0.015686
0.435785 0.011765 0.011765
0.524510 0.007843 0.007843
0.608823 0.007843 0.007843
0.674510 0.007843 0.007843
0.066667 0.093138 0.070098
0.116605 0.089216 0.054902
0.186274 0.069608 0.035294
0.263542 0.047549 0.021078
0.347058 0.028677 0.015686
0.431863 0.015686 0.011765
0.517157 0.007843 0.007843
0.601042 0.007843 0.007843
0.666667 0.007843 0.007843
0.090196 0.154902 0.107843
0.124510 0.150980 0.088725
0.196323 0.143873 0.054902
0.275122 0.126471 0.027941
0.354412 0.104902 0.015686
0.435785 0.081863 0.011765
0.516666 0.059069 0.007843
0.593628 0.037255 0.007843
0.654902 0.033333 0.007843
0.120098 0.220588 0.153922
0.139215 0.224510 0.138725
0.197059 0.221201 0.100000
0.281863 0.211826 0.058824
0.369853 0.197549 0.027941
0.453921 0.175429 0.011765
0.534804 0.152083 0.007843
0.611275 0.128921 0.007843
0.673039 0.117157 0.007843
0.154902 0.307843 0.207844
0.166176 0.311764 0.196569
0.201961 0.303922 0.161765
0.281863 0.296079 0.104902
0.374509 0.292157 0.058824
0.468383 0.281618 0.033334
0.557843 0.261765 0.011275
0.638481 0.238726 0.007843
0.700000 0.223529 0.007843
0.189706 0.396569 0.265686
0.197549 0.404412 0.258333
0.227941 0.398652 0.227451
0.282415 0.378431 0.175980
0.378432 0.382108 0.118137
0.482843 0.386274 0.075980
0.576961 0.378431 0.045098
0.665503 0.358823 0.021078
0.730882 0.347059 0.013235
0.224510 0.489216 0.327451
0.237132 0.500490 0.319608
0.258824 0.500980 0.289216
0.303921 0.475613 0.254412
0.378432 0.464706 0.198529
0.488235 0.484681 0.141176
0.587255 0.489216 0.098774
0.679902 0.476961 0.064216
0.752941 0.469608 0.044118
0.267157 0.574020 0.389215
0.282414 0.585723 0.377941
0.298039 0.589215 0.350981
0.332353 0.569791 0.316176
0.384313 0.544608 0.273529
0.474694 0.551471 0.215502
0.584191 0.573652 0.156740
0.683824 0.573529 0.105882
0.752941 0.566177 0.078921
0.305882 0.635294 0.439216
0.321569 0.647059 0.427941
0.337255 0.650980 0.400981
0.363235 0.640686 0.370098
0.394118 0.613725 0.329411
0.471079 0.600000 0.279412
0.576470 0.623529 0.209804
0.683824 0.643137 0.148040
0.752941 0.639216 0.109804
0.066667 0.047059 0.085295
0.104902 0.043137 0.081373
0.174878 0.035294 0.058824
0.255883 0.023529 0.034804
0.341422 0.015686 0.017402
0.428431 0.011765 0.011765
0.515809 0.007843 0.007843
0.597549 0.007843 0.007843
0.659314 0.007843 0.007843
0.070588 0.096630 0.100981
0.123591 0.096630 0.100605
0.197442 0.077941 0.071660
0.279029 0.051470 0.043175
0.364185 0.032384 0.019363
0.451249 0.019118 0.011765
0.539277 0.007843 0.007843
0.621017 0.007843 0.007843
0.685356 0.007843 0.007843
0.093137 0.154902 0.131863
0.140073 0.166544 0.135662
0.212990 0.165196 0.111397
0.296124 0.143137 0.074020
0.379412 0.119669 0.043137
0.465686 0.094914 0.018796
0.551042 0.074020 0.007843
0.631434 0.051899 0.007843
0.693628 0.044976 0.007843
0.120098 0.220588 0.177451
0.159888 0.240012 0.184804
0.217157 0.249770 0.165196
0.300980 0.235899 0.119179
0.389706 0.220588 0.080883
0.476042 0.200000 0.050980
0.561152 0.174510 0.024142
0.636252 0.148123 0.007843
0.697549 0.136765 0.007843
0.150981 0.303922 0.235049
0.188787 0.326532 0.242157
0.227880 0.334804 0.226961
0.304902 0.326961 0.177941
0.397549 0.319975 0.127819
0.487500 0.310539 0.095098
0.576471 0.292647 0.064461
0.657843 0.265687 0.034069
0.719363 0.246569 0.017157
0.185968 0.392647 0.296569
0.220098 0.415686 0.303493
0.257476 0.431143 0.288910
0.311213 0.419301 0.252390
0.401470 0.415686 0.198284
0.501961 0.419301 0.155086
0.596078 0.413113 0.118137
0.684314 0.393137 0.083824
0.746385 0.375490 0.056863
0.221078 0.481862 0.358333
0.258502 0.504841 0.365257
0.289338 0.524020 0.354779
0.334804 0.517233 0.327451
0.406250 0.504289 0.279902
0.507659 0.519210 0.226593
0.610294 0.523530 0.179871
0.702466 0.515257 0.141176
0.768137 0.504902 0.113235
0.259314 0.569669 0.419669
0.294493 0.589591 0.424019
0.325705 0.608701 0.415318
0.361726 0.608065 0.389216
0.418688 0.590472 0.352451
0.501961 0.586091 0.301960
0.607675 0.605392 0.244118
0.706372 0.607904 0.187247
0.771569 0.604412 0.159313
0.290686 0.631373 0.466667
0.328860 0.650061 0.474020
0.360294 0.669240 0.465319
0.390196 0.670098 0.439216
0.430882 0.656373 0.408333
0.498039 0.638726 0.360294
0.603431 0.655392 0.297182
0.706862 0.674020 0.232843
0.771569 0.677941 0.190196
0.077451 0.061765 0.144118
0.100981 0.057843 0.143137
0.167402 0.043872 0.124265
0.250858 0.026838 0.093628
0.339216 0.017157 0.066667
0.420098 0.011765 0.039706
0.500000 0.007843 0.018627
0.573652 0.007843 0.007843
0.632353 0.007843 0.007843
0.078431 0.104044 0.148040
0.127941 0.111764 0.162745
0.200215 0.101226 0.149755
0.282659 0.074740 0.116667
0.369853 0.049448 0.080883
0.454718 0.032445 0.050444
0.538358 0.017402 0.024448
0.617371 0.007843 0.007843
0.678799 0.007843 0.007843
0.093873 0.154902 0.158823
0.154412 0.180239 0.182874
0.234559 0.192218 0.191605
0.317279 0.174020 0.155515
0.402451 0.147059 0.113725
0.489706 0.123407 0.080883
0.580637 0.100429 0.050980
0.665166 0.078431 0.021813
0.728431 0.070588 0.013971
0.124020 0.219118 0.190319
0.177819 0.249923 0.219163
0.253340 0.280423 0.241698
0.331863 0.276042 0.211274
0.416973 0.257537 0.168627
0.505392 0.234421 0.126210
0.593750 0.207230 0.085141
0.676608 0.177007 0.048039
0.740196 0.163235 0.028922
0.154902 0.296569 0.247058
0.207476 0.330882 0.276961
0.276716 0.368750 0.300000
0.337990 0.370159 0.273223
0.426471 0.362500 0.230147
0.518076 0.350735 0.190441
0.605883 0.327451 0.145098
0.688726 0.296569 0.095589
0.751961 0.273530 0.059314
0.185784 0.384804 0.308823
0.238680 0.419608 0.338725
0.303676 0.458333 0.361764
0.353431 0.465794 0.343015
0.436275 0.462255 0.304167
0.532843 0.462025 0.262378
0.626593 0.458088 0.222763
0.713909 0.433241 0.171614
0.776961 0.409927 0.127573
0.216666 0.473529 0.371323
0.270588 0.508333 0.400613
0.338480 0.549265 0.427451
0.379933 0.558824 0.416176
0.446201 0.554902 0.385662
0.540686 0.561581 0.338909
0.641177 0.566667 0.292463
0.729902 0.559375 0.244240
0.795098 0.544117 0.206127
0.247182 0.557966 0.435294
0.301900 0.592172 0.462378
0.370098 0.627451 0.489216
0.405837 0.643137 0.477941
0.461336 0.642708 0.450980
0.543489 0.638236 0.413726
0.640778 0.648315 0.356863
0.733823 0.653722 0.301639
0.799019 0.650490 0.267647
0.271568 0.619608 0.485295
0.332353 0.647549 0.515319
0.400245 0.684314 0.539215
0.431863 0.700981 0.526838
0.473529 0.700981 0.503922
0.542524 0.694975 0.471568
0.636520 0.698039 0.410784
0.733823 0.716667 0.349019
0.799019 0.720589 0.305883
0.094118 0.074510 0.207353
0.105392 0.070894 0.208824
0.154902 0.061275 0.193750
0.236275 0.039216 0.174448
0.335294 0.021569 0.146569
0.424020 0.011765 0.114216
0.503922 0.007843 0.078431
0.573529 0.007843 0.047549
0.631373 0.007843 0.032353
0.094118 0.116973 0.207353
0.132192 0.124510 0.231434
0.190993 0.122595 0.226838
0.273223 0.099686 0.201961
0.366176 0.073376 0.169608
0.453316 0.049218 0.134804
0.534804 0.030301 0.096079
0.607843 0.017073 0.059130
0.665687 0.013909 0.040196
0.103799 0.159436 0.208824
0.161366 0.189384 0.239706
0.237653 0.214124 0.261275
0.319715 0.202819 0.244240
0.404902 0.177941 0.205882
0.493628 0.152083 0.167525
0.579259 0.125582 0.126961
0.662025 0.100444 0.085601
0.723897 0.089706 0.059804
0.126471 0.220588 0.220588
0.183150 0.252811 0.251287
0.270098 0.295650 0.290196
0.354328 0.308762 0.299081
0.442708 0.292647 0.261275
0.532353 0.269608 0.217157
0.622917 0.238726 0.169930
0.709689 0.205392 0.118627
0.777451 0.183272 0.081863
0.154902 0.292157 0.258088
0.212255 0.328676 0.293137
0.299877 0.376961 0.338725
0.377941 0.407874 0.358395
0.458946 0.404044 0.328554
0.548805 0.390135 0.286275
0.638726 0.362255 0.229657
0.724755 0.323529 0.167984
0.793137 0.292647 0.118627
0.181863 0.380883 0.319118
0.243137 0.415686 0.355208
0.328324 0.466177 0.403569
0.404902 0.503638 0.428026
0.474081 0.508823 0.406648
0.566728 0.509398 0.372036
0.657843 0.501700 0.323529
0.745902 0.467953 0.258326
0.811213 0.437255 0.200000
0.212133 0.468628 0.382353
0.270588 0.504059 0.420895
0.358823 0.554657 0.470098
0.433931 0.596492 0.498820
0.492708 0.604657 0.485784
0.579412 0.608395 0.453661
0.672059 0.611765 0.409804
0.760554 0.603876 0.352941
0.825980 0.582843 0.300490
0.239400 0.550000 0.444117
0.300981 0.584337 0.484988
0.388327 0.631373 0.531863
0.461083 0.669294 0.561275
0.507996 0.685785 0.549418
0.583333 0.688235 0.522733
0.673897 0.693628 0.475490
0.764216 0.697549 0.421301
0.826470 0.696568 0.383333
0.260294 0.609314 0.498039
0.324203 0.642340 0.536275
0.412745 0.688603 0.581863
0.482782 0.726471 0.607905
0.520588 0.740931 0.597549
0.584865 0.743627 0.576961
0.673897 0.743627 0.529780
0.764216 0.755392 0.471568
0.829902 0.759314 0.425490
0.111765 0.090196 0.270589
0.119363 0.086275 0.278431
0.154902 0.076961 0.265686
0.216667 0.063480 0.247794
0.314706 0.040196 0.234314
0.424020 0.018873 0.212255
0.512745 0.010784 0.175000
0.585294 0.007843 0.130882
0.643137 0.007843 0.103921
0.115686 0.134804 0.270589
0.143903 0.141697 0.301256
0.186642 0.135846 0.303860
0.250490 0.123529 0.284160
0.347426 0.096569 0.262255
0.450981 0.069608 0.235294
0.539216 0.047304 0.196079
0.612500 0.028401 0.150000
0.670098 0.023039 0.123039
0.121079 0.176961 0.270589
0.171078 0.203493 0.305392
0.236275 0.229535 0.337500
0.306127 0.228493 0.333701
0.398039 0.208333 0.304902
0.488726 0.184804 0.270833
0.576716 0.154902 0.228922
0.654841 0.127451 0.180637
0.715686 0.108823 0.146078
0.134559 0.228432 0.274509
0.189308 0.261030 0.308823
0.274020 0.306618 0.348039
0.358824 0.334804 0.376961
0.446446 0.326225 0.359804
0.535539 0.304412 0.317157
0.624632 0.271814 0.267157
0.709620 0.232353 0.211520
0.773529 0.202696 0.165931
0.155882 0.290196 0.283334
0.213603 0.326716 0.316912
0.304902 0.378922 0.366666
0.394975 0.425613 0.413235
0.485294 0.441176 0.424019
0.576961 0.428309 0.383088
0.667402 0.397059 0.322549
0.756250 0.353922 0.255637
0.826470 0.313725 0.196078
0.181863 0.376225 0.332353
0.243137 0.411765 0.372549
0.335784 0.465196 0.426471
0.428432 0.516666 0.475705
0.515196 0.550245 0.502696
0.602451 0.554902 0.483334
0.691912 0.541667 0.428370
0.779596 0.500735 0.347549
0.849020 0.460294 0.274510
0.208823 0.463235 0.392647
0.273162 0.500000 0.434988
0.364216 0.553922 0.492157
0.460233 0.607230 0.546262
0.542647 0.646078 0.576470
0.620405 0.659804 0.565686
0.706863 0.663726 0.530392
0.791299 0.646569 0.464951
0.852941 0.618627 0.395588
0.233579 0.546078 0.455637
0.300490 0.580392 0.498253
0.393137 0.630392 0.554412
0.487347 0.679167 0.607843
0.564829 0.718627 0.638113
0.627451 0.734314 0.629565
0.710784 0.738725 0.597549
0.795098 0.740441 0.545098
0.856373 0.740196 0.506862
0.254902 0.603922 0.505882
0.320098 0.636520 0.550000
0.412745 0.686765 0.604412
0.505392 0.734314 0.655392
0.577451 0.769607 0.682353
0.631127 0.788235 0.676470
0.710784 0.790686 0.650000
0.795098 0.796079 0.595098
0.852941 0.800000 0.549019
0.137255 0.105882 0.349510
0.137255 0.099816 0.361274
0.155883 0.094118 0.350490
0.211275 0.084743 0.335294
0.275735 0.069363 0.313480
0.384804 0.043137 0.305821
0.507720 0.016789 0.289706
0.593321 0.011765 0.248039
0.652451 0.011765 0.213725
0.137255 0.153738 0.340380
0.152344 0.159497 0.382575
0.182843 0.147549 0.392157
0.241851 0.139705 0.373529
0.313235 0.128094 0.348775
0.420765 0.101961 0.334673
0.534681 0.073529 0.314216
0.620588 0.046607 0.271079
0.681863 0.038236 0.236765
0.138358 0.196201 0.336274
0.178477 0.222549 0.380208
0.238113 0.246967 0.422764
0.297672 0.246048 0.426348
0.371078 0.239216 0.404596
0.471109 0.221078 0.382154
0.570588 0.190809 0.351226
0.655270 0.161765 0.302451
0.716054 0.139706 0.263726
0.148101 0.242586 0.345036
0.195098 0.276287 0.382468
0.274387 0.322028 0.428799
0.353202 0.353025 0.468137
0.430392 0.355453 0.462990
0.523958 0.344033 0.437316
0.618689 0.313725 0.397840
0.704297 0.271883 0.339767
0.768689 0.239277 0.288235
0.162745 0.303431 0.353432
0.216421 0.338051 0.388051
0.304902 0.388358 0.434314
0.396048 0.437745 0.482598
0.487868 0.471078 0.517157
0.580882 0.471140 0.503676
0.670833 0.442096 0.456373
0.758333 0.390196 0.382843
0.825980 0.343382 0.315196
0.181863 0.373039 0.369118
0.243137 0.411650 0.407353
0.335784 0.465809 0.459436
0.432353 0.522465 0.516115
0.533854 0.573039 0.570312
0.629963 0.600061 0.591092
0.719608 0.586933 0.550980
0.807231 0.539836 0.470297
0.875980 0.495098 0.400000
0.204902 0.457843 0.415196
0.271936 0.496079 0.457031
0.366666 0.552941 0.515196
0.465686 0.609636 0.574372
0.568382 0.663971 0.629963
0.661765 0.703921 0.668198
0.744700 0.711764 0.653094
0.822059 0.692464 0.587822
0.883824 0.653431 0.512868
0.227941 0.540870 0.469118
0.297059 0.576471 0.515012
0.392279 0.626471 0.575184
0.493934 0.680392 0.634620
0.595251 0.731127 0.690441
0.679588 0.772549 0.725667
0.748897 0.786765 0.715502
0.825980 0.786765 0.668689
0.883824 0.780883 0.626471
0.250980 0.600000 0.517647
0.316176 0.633027 0.561581
0.411764 0.684314 0.619118
0.511765 0.734314 0.677880
0.607353 0.782353 0.730882
0.688235 0.822549 0.763725
0.752451 0.836765 0.756373
0.825980 0.838542 0.718627
0.882353 0.842157 0.684314
0.146079 0.122549 0.434314
0.149878 0.117770 0.450000
0.159804 0.110784 0.441422
0.204902 0.104044 0.427573
0.268137 0.095098 0.404902
0.337377 0.079411 0.382966
0.445833 0.050980 0.375245
0.576103 0.020588 0.364216
0.654902 0.015686 0.337255
0.145221 0.172549 0.419118
0.156480 0.175169 0.465196
0.175950 0.159559 0.480882
0.230515 0.151470 0.467019
0.298775 0.147549 0.443628
0.378600 0.140502 0.420282
0.486397 0.113021 0.408946
0.606985 0.073529 0.391176
0.685785 0.054412 0.364216
0.147304 0.213970 0.406863
0.178431 0.238756 0.459804
0.231556 0.262439 0.510233
0.284314 0.260539 0.522549
0.352819 0.260539 0.504902
0.436765 0.257996 0.482230
0.541176 0.236030 0.466667
0.650398 0.197549 0.433824
0.716667 0.177451 0.403676
0.151471 0.260784 0.420098
0.194730 0.294240 0.458839
0.270925 0.338235 0.511520
0.343827 0.368137 0.559482
0.412745 0.373591 0.565196
0.498529 0.378431 0.549403
0.598560 0.361642 0.528676
0.699142 0.324556 0.487393
0.761765 0.295221 0.445098
0.162745 0.318627 0.437745
0.212745 0.355882 0.470343
0.300980 0.403676 0.516666
0.389706 0.452880 0.569362
0.472549 0.483823 0.614706
0.564216 0.502329 0.620343
0.656863 0.491176 0.597059
0.748039 0.451961 0.545098
0.813235 0.410784 0.488235
0.180392 0.383333 0.446078
0.241804 0.419960 0.484452
0.334528 0.473652 0.535417
0.432123 0.529780 0.588266
0.531311 0.583333 0.645098
0.628064 0.626961 0.686933
0.719363 0.635049 0.681587
0.803064 0.596247 0.627206
0.865319 0.552941 0.562868
0.200981 0.456863 0.457843
0.270098 0.496079 0.500000
0.365686 0.552941 0.557843
0.467157 0.611765 0.619608
0.574020 0.669608 0.677451
0.677451 0.725368 0.734191
0.771017 0.752941 0.756679
0.841575 0.734467 0.711765
0.902941 0.696814 0.653922
0.223897 0.533456 0.495588
0.296569 0.569117 0.537745
0.392647 0.622549 0.595588
0.496263 0.680086 0.657353
0.602451 0.734314 0.716850
0.702451 0.787132 0.773039
0.784099 0.824755 0.802451
0.851961 0.825490 0.782904
0.909804 0.818137 0.741177
0.243137 0.596078 0.533333
0.315196 0.626961 0.575613
0.411764 0.679657 0.633333
0.513235 0.730392 0.691544
0.617647 0.783823 0.750000
0.714216 0.833211 0.803922
0.790441 0.871568 0.829412
0.855882 0.879412 0.821201
0.910784 0.883333 0.799019
0.160784 0.137745 0.518627
0.164277 0.134252 0.538726
0.168627 0.129535 0.530883
0.190686 0.123346 0.519118
0.256617 0.117892 0.503432
0.329718 0.106372 0.478431
0.398039 0.090686 0.452328
0.495527 0.063235 0.444117
0.602451 0.032353 0.444117
0.153860 0.188174 0.500000
0.161213 0.191177 0.550322
0.175123 0.172059 0.569608
0.207843 0.159964 0.561274
0.279657 0.159313 0.541911
0.360401 0.155860 0.516827
0.435907 0.150490 0.493138
0.536765 0.116605 0.478431
0.633333 0.081863 0.475429
0.149020 0.230393 0.475613
0.167647 0.253048 0.533348
0.211611 0.273989 0.592157
0.253431 0.266789 0.611275
0.329657 0.266667 0.601900
0.414752 0.270772 0.579718
0.495619 0.273958 0.555392
0.595036 0.246951 0.540196
0.686765 0.219240 0.536397
0.145098 0.273346 0.485785
0.178921 0.306801 0.533333
0.257920 0.352084 0.591177
0.330882 0.377627 0.648100
0.390931 0.378431 0.661274
0.474204 0.386275 0.647120
0.560294 0.398039 0.625000
0.656373 0.377145 0.605721
0.738541 0.350490 0.594607
0.148775 0.333334 0.510784
0.203922 0.367708 0.547059
0.292647 0.417647 0.597120
0.378585 0.462592 0.653186
0.454902 0.489216 0.706005
0.537255 0.503431 0.715104
0.625980 0.521630 0.697059
0.717708 0.508088 0.675490
0.791421 0.481372 0.660784
0.166176 0.395098 0.532169
0.234804 0.431457 0.569010
0.327865 0.485647 0.616176
0.421875 0.539645 0.666177
0.518137 0.590686 0.721477
0.610784 0.630882 0.769118
0.696737 0.652941 0.775934
0.778026 0.649043 0.752941
0.845404 0.622549 0.730392
0.193137 0.460785 0.538235
0.266177 0.500689 0.576532
0.365686 0.556863 0.630392
0.467693 0.614706 0.682475
0.571385 0.672549 0.736765
0.671691 0.729427 0.791054
0.763572 0.768628 0.829320
0.836765 0.771691 0.815089
0.894608 0.750000 0.792157
0.219608 0.526470 0.538235
0.296569 0.565196 0.580446
0.393505 0.622549 0.635509
0.498039 0.677941 0.692586
0.606128 0.736274 0.749540
0.706372 0.791973 0.806066
0.795588 0.836826 0.849020
0.867218 0.856373 0.863840
0.922059 0.852941 0.845588
0.235294 0.583824 0.561274
0.311764 0.619118 0.599510
0.411764 0.672549 0.650490
0.515686 0.726471 0.707047
0.621568 0.780393 0.762990
0.718137 0.834314 0.818627
0.806863 0.879412 0.865073
0.875490 0.909865 0.890686
0.929412 0.914215 0.891176
0.168627 0.145098 0.584314
0.172059 0.141176 0.603922
0.176471 0.137255 0.600000
0.186765 0.133333 0.596078
0.241177 0.129412 0.584314
0.325981 0.120098 0.559314
0.394118 0.109804 0.528431
0.451960 0.097549 0.493628
0.513725 0.086275 0.482353
0.160784 0.199020 0.561274
0.168198 0.199020 0.610846
0.179412 0.179044 0.630883
0.194608 0.163726 0.630392
0.262255 0.163235 0.618628
0.349020 0.163235 0.593627
0.428431 0.159313 0.562745
0.490196 0.155392 0.531862
0.551961 0.139705 0.520588
0.146079 0.238236 0.530392
0.164216 0.260417 0.587255
0.200981 0.279412 0.642157
0.227941 0.270589 0.673530
0.306863 0.270589 0.676470
0.402451 0.274877 0.656495
0.489461 0.283088 0.628432
0.551961 0.286274 0.597549
0.613725 0.274509 0.586274
0.145098 0.280882 0.539706
0.167953 0.314216 0.579412
0.245465 0.356863 0.645098
0.320527 0.382353 0.705944
0.372794 0.382353 0.733088
0.456373 0.388664 0.725000
0.546201 0.404044 0.698039
0.617647 0.409804 0.671079
0.675490 0.405882 0.655882
0.145098 0.337255 0.564706
0.188725 0.371569 0.599265
0.281373 0.422059 0.652941
0.370098 0.467157 0.713480
0.443137 0.493138 0.768627
0.514215 0.501961 0.788235
0.606863 0.522549 0.768137
0.687255 0.535294 0.742647
0.741177 0.535294 0.729411
0.154412 0.402941 0.589706
0.223529 0.437439 0.624510
0.320098 0.491176 0.671078
0.414216 0.543566 0.723100
0.502941 0.592647 0.779167
0.594669 0.634804 0.826470
0.677573 0.653922 0.838235
0.752942 0.664706 0.818137
0.806863 0.668627 0.802941
0.189216 0.464706 0.607843
0.263235 0.506862 0.646079
0.365686 0.560784 0.692157
0.466054 0.618628 0.738235
0.564216 0.676470 0.788235
0.660294 0.732843 0.838235
0.749019 0.772549 0.874755
0.814706 0.783333 0.876348
0.864706 0.783333 0.864706
0.219608 0.526470 0.599510
0.296140 0.568198 0.637807
0.393627 0.622549 0.687868
0.500184 0.680392 0.737929
0.606373 0.737990 0.788235
0.702941 0.794301 0.840686
0.794608 0.840686 0.879412
0.864216 0.867647 0.905943
0.918137 0.871568 0.910294
0.231373 0.576471 0.592157
0.308333 0.618628 0.630883
0.411764 0.672549 0.684314
0.517157 0.726471 0.735784
0.621568 0.776471 0.788235
0.722059 0.834314 0.840686
0.810784 0.880392 0.883333
0.879412 0.914215 0.913725
0.937255 0.929412 0.929412
