public/luts/builtin/kodachrome.cube
TITLE "Kodachrome-Generic"
LUT_3D_SIZE 5
0.066667 0.047059 0.047059
0.178431 0.035294 0.035294
0.347058 0.015686 0.015686
0.524510 0.007843 0.007843
0.674510 0.007843 0.007843
0.090196 0.154902 0.107843
0.196323 0.143873 0.054902
0.354412 0.104902 0.015686
0.516666 0.059069 0.007843
0.654902 0.033333 0.007843
0.154902 0.307843 0.207844
0.201961 0.303922 0.161765
0.374509 0.292157 0.058824
0.557843 0.261765 0.011275
0.700000 0.223529 0.007843
0.224510 0.489216 0.327451
0.258824 0.500980 0.289216
0.378432 0.464706 0.198529
0.587255 0.489216 0.098774
0.752941 0.469608 0.044118
0.305882 0.635294 0.439216
0.337255 0.650980 0.400981
0.394118 0.613725 0.329411
0.576470 0.623529 0.209804
0.752941 0.639216 0.109804
0.077451 0.061765 0.144118
0.167402 0.043872 0.124265
0.339216 0.017157 0.066667
0.500000 0.007843 0.018627
0.632353 0.007843 0.007843
0.093873 0.154902 0.158823
0.234559 0.192218 0.191605
0.402451 0.147059 0.113725
0.580637 0.100429 0.050980
0.728431 0.070588 0.013971
0.154902 0.296569 0.247058
0.276716 0.368750 0.300000
0.426471 0.362500 0.230147
0.605883 0.327451 0.145098
0.751961 0.273530 0.059314
0.216666 0.473529 0.371323
0.338480 0.549265 0.427451
0.446201 0.554902 0.385662
0.641177 0.566667 0.292463
0.795098 0.544117 0.206127
0.271568 0.619608 0.485295
0.400245 0.684314 0.539215
0.473529 0.700981 0.503922
0.636520 0.698039 0.410784
0.799019 0.720589 0.305883
0.111765 0.090196 0.270589
0.154902 0.076961 0.265686
0.314706 0.040196 0.234314
0.512745 0.010784 0.175000
0.643137 0.007843 0.103921
0.121079 0.176961 0.270589
0.236275 0.229535 0.337500
0.398039 0.208333 0.304902
0.576716 0.154902 0.228922
0.715686 0.108823 0.146078
0.155882 0.290196 0.283334
0.304902 0.378922 0.366666
0.485294 0.441176 0.424019
0.667402 0.397059 0.322549
0.826470 0.313725 0.196078
0.208823 0.463235 0.392647
0.364216 0.553922 0.492157
0.542647 0.646078 0.576470
0.706863 0.663726 0.530392
0.852941 0.618627 0.395588
0.254902 0.603922 0.505882
0.412745 0.686765 0.604412
0.577451 0.769607 0.682353
0.710784 0.790686 0.650000
0.852941 0.800000 0.549019
0.146079 0.122549 0.434314
0.159804 0.110784 0.441422
0.268137 0.095098 0.404902
0.445833 0.050980 0.375245
0.654902 0.015686 0.337255
0.147304 0.213970 0.406863
0.231556 0.262439 0.510233
0.352819 0.260539 0.504902
0.541176 0.236030 0.466667
0.716667 0.177451 0.403676
0.162745 0.318627 0.437745
0.300980 0.403676 0.516666
0.472549 0.483823 0.614706
0.656863 0.491176 0.597059
0.813235 0.410784 0.488235
0.200981 0.456863 0.457843
0.365686 0.552941 0.557843
0.574020 0.669608 0.677451
0.771017 0.752941 0.756679
0.902941 0.696814 0.653922
0.243137 0.596078 0.533333
0.411764 0.679657 0.633333
0.617647 0.783823 0.750000
0.790441 0.871568 0.829412
0.910784 0.883333 0.799019
0.168627 0.145098 0.584314
0.176471 0.137255 0.600000
0.241177 0.129412 0.584314
0.394118 0.109804 0.528431
0.513725 0.086275 0.482353
0.146079 0.238236 0.530392
0.200981 0.279412 0.642157
0.306863 0.270589 0.676470
0.489461 0.283088 0.628432
0.613725 0.274509 0.586274
0.145098 0.337255 0.564706
0.281373 0.422059 0.652941
0.443137 0.493138 0.768627
0.606863 0.522549 0.768137
0.741177 0.535294 0.729411
0.189216 0.464706 0.607843
0.365686 0.560784 0.692157
0.564216 0.676470 0.788235
0.749019 0.772549 0.874755
0.864706 0.783333 0.864706
0.231373 0.576471 0.592157
0.411764 0.672549 0.684314
0.621568 0.776471 0.788235
0.810784 0.880392 0.883333
0.937255 0.929412 0.929412
