public/luts/builtin/kodak_gold_200.cube
TITLE "Kodak-Gold-200"
LUT_3D_SIZE 33
0.050980 0.047059 0.047059
0.062500 0.047059 0.043260
0.077941 0.047059 0.043137
0.093383 0.047059 0.043137
0.116176 0.043627 0.043137
0.139338 0.043137 0.043137
0.165686 0.039951 0.043137
0.196569 0.039216 0.039216
0.231373 0.039216 0.039216
0.262255 0.036397 0.039216
0.293137 0.035294 0.039216
0.324020 0.035294 0.035294
0.354902 0.035294 0.035294
0.379534 0.035294 0.035294
0.402696 0.035294 0.031373
0.425858 0.035294 0.031373
0.443137 0.035294 0.031373
0.458578 0.035294 0.031373
0.474019 0.035294 0.031373
0.489461 0.035294 0.031373
0.504902 0.035294 0.031373
0.520343 0.035294 0.031373
0.534559 0.035294 0.031373
0.542279 0.035294 0.031373
0.550000 0.035294 0.031373
0.558579 0.035294 0.031373
0.568627 0.035294 0.031373
0.573162 0.035294 0.031373
0.580882 0.035294 0.031373
0.588603 0.035294 0.031373
0.592402 0.035294 0.031373
0.600000 0.035294 0.031373
0.600000 0.035294 0.031373
0.054779 0.058579 0.047059
0.066303 0.058579 0.043260
0.081855 0.058694 0.043137
0.104668 0.058590 0.043137
0.127803 0.055254 0.043137
0.150961 0.054657 0.043137
0.177328 0.050857 0.043137
0.208184 0.047767 0.040047
0.239093 0.046936 0.039216
0.269976 0.044118 0.039216
0.300858 0.040403 0.039216
0.331740 0.039093 0.035294
0.362622 0.035294 0.035294
0.391127 0.035294 0.035294
0.414285 0.035294 0.031373
0.435360 0.035294 0.031373
0.450858 0.035294 0.031373
0.466299 0.035294 0.031373
0.481740 0.035294 0.031373
0.497182 0.035294 0.031373
0.512623 0.035294 0.031373
0.522836 0.035294 0.031373
0.534559 0.035294 0.031373
0.542279 0.035294 0.031373
0.550000 0.035294 0.031373
0.558579 0.035294 0.031373
0.568627 0.035294 0.031373
0.573162 0.035294 0.031373
0.580882 0.035294 0.031373
0.588603 0.035294 0.031373
0.595963 0.035294 0.031373
0.600000 0.035294 0.031373
0.600000 0.035294 0.031373
0.066422 0.081618 0.047059
0.074142 0.081618 0.047059
0.089461 0.078171 0.047059
0.112377 0.077719 0.046837
0.135539 0.074265 0.043597
0.161803 0.070098 0.043137
0.188971 0.066866 0.043137
0.219853 0.063113 0.040074
0.250735 0.059314 0.039216
0.281618 0.055691 0.039216
0.312500 0.051884 0.039216
0.343382 0.046814 0.035294
0.374265 0.044363 0.035294
0.402573 0.042892 0.035294
0.425981 0.039216 0.031373
0.446813 0.037018 0.031373
0.462378 0.035294 0.031373
0.477826 0.035294 0.031373
0.493137 0.035294 0.031373
0.508578 0.035294 0.031373
0.520343 0.035294 0.031373
0.530515 0.035294 0.031373
0.538235 0.035294 0.031373
0.546201 0.035294 0.031373
0.553921 0.035294 0.031373
0.561642 0.035294 0.031373
0.569362 0.035294 0.031373
0.577045 0.035294 0.031373
0.584100 0.035294 0.031373
0.588603 0.035294 0.031373
0.596078 0.035294 0.031373
0.600000 0.035294 0.031373
0.600000 0.035294 0.031373
0.078063 0.108701 0.054534
0.085773 0.108333 0.054534
0.100736 0.104657 0.051202
0.123985 0.101191 0.050612
0.146860 0.097426 0.047503
0.173897 0.093015 0.046691
0.204167 0.089093 0.043803
0.235049 0.085172 0.043137
0.265931 0.078584 0.040104
0.296814 0.073775 0.039216
0.324142 0.067157 0.039216
0.355024 0.063232 0.035294
0.385769 0.058227 0.035294
0.416421 0.052056 0.035294
0.441177 0.048407 0.031373
0.460589 0.044608 0.031373
0.477696 0.042769 0.031373
0.493137 0.039044 0.031373
0.508578 0.037293 0.031373
0.522427 0.035294 0.031373
0.530515 0.035294 0.031373
0.541789 0.035294 0.031373
0.549510 0.035294 0.031373
0.557230 0.035294 0.031373
0.564951 0.035294 0.031373
0.569117 0.035294 0.031373
0.576839 0.035294 0.031373
0.581005 0.035294 0.031373
0.587913 0.035294 0.031373
0.592157 0.035294 0.031373
0.596300 0.035294 0.031373
0.600000 0.035294 0.031373
0.600000 0.035294 0.031373
0.093138 0.142647 0.058334
0.100858 0.139215 0.058334
0.112469 0.135294 0.055116
0.135172 0.131372 0.054412
0.158762 0.127451 0.050551
0.185294 0.120221 0.050490
0.216177 0.116422 0.047059
0.246568 0.109191 0.043888
0.277451 0.104044 0.043137
0.308333 0.097534 0.040181
0.339216 0.089951 0.039216
0.367846 0.082552 0.036474
0.397243 0.078431 0.035294
0.427941 0.071201 0.035294
0.452696 0.063480 0.031373
0.473774 0.059682 0.031373
0.489706 0.054167 0.031373
0.505147 0.050260 0.031373
0.520588 0.046569 0.031373
0.534145 0.042647 0.031373
0.545588 0.041360 0.031373
0.553309 0.039216 0.031373
0.561029 0.037653 0.031373
0.568750 0.035294 0.031373
0.575613 0.035294 0.031373
0.580653 0.035294 0.031373
0.584559 0.035294 0.031373
0.591253 0.035294 0.031373
0.595588 0.035294 0.031373
0.599510 0.035294 0.031373
0.603432 0.035294 0.031373
0.603432 0.035294 0.031373
0.603922 0.035294 0.031373
0.108579 0.181250 0.066054
0.116299 0.174123 0.066054
0.127941 0.169730 0.062132
0.147614 0.162623 0.058269
0.170466 0.158823 0.054779
0.197453 0.154412 0.051497
0.227819 0.147304 0.050980
0.258088 0.139583 0.047783
0.288971 0.131863 0.043964
0.319853 0.127133 0.043137
0.350735 0.118068 0.039216
0.378309 0.112622 0.036642
0.408578 0.104902 0.035294
0.437496 0.097181 0.035294
0.464216 0.089805 0.031373
0.487378 0.082353 0.031373
0.504657 0.076593 0.031373
0.520098 0.070833 0.031373
0.535539 0.065173 0.031373
0.547423 0.061271 0.031373
0.557108 0.056128 0.031373
0.565441 0.052539 0.031373
0.572549 0.049755 0.031373
0.580270 0.046274 0.031373
0.584681 0.045006 0.031373
0.591789 0.042524 0.031373
0.596086 0.039216 0.031373
0.600000 0.038603 0.031373
0.603799 0.035294 0.031373
0.607541 0.035294 0.031373
0.611152 0.035294 0.031373
0.611152 0.035294 0.031373
0.611152 0.035294 0.031373
0.127941 0.223774 0.070588
0.131740 0.216054 0.069876
0.143382 0.208334 0.066667
0.162132 0.200613 0.063044
0.182108 0.193535 0.059222
0.209076 0.189093 0.055400
0.239461 0.182108 0.051577
0.269769 0.174387 0.050980
0.300490 0.169056 0.047855
0.331373 0.162132 0.044033
0.360064 0.154412 0.040441
0.389951 0.144600 0.039216
0.420098 0.137775 0.035294
0.449088 0.131250 0.035294
0.474341 0.123529 0.031373
0.498897 0.115809 0.031373
0.516912 0.108456 0.031373
0.532353 0.101103 0.031373
0.547472 0.093382 0.031373
0.560907 0.087691 0.031373
0.569362 0.082139 0.031373
0.577084 0.074877 0.031373
0.584804 0.071078 0.031373
0.591789 0.064990 0.031373
0.598713 0.061091 0.031373
0.603309 0.056495 0.031373
0.607843 0.050107 0.031373
0.614330 0.046324 0.031373
0.618137 0.042402 0.031373
0.618873 0.042402 0.031373
0.618873 0.039216 0.031373
0.618995 0.039216 0.031373
0.622794 0.039216 0.031373
0.143382 0.269363 0.077573
0.147277 0.261642 0.073679
0.158770 0.250000 0.069975
0.174797 0.239215 0.066177
0.196814 0.231495 0.062378
0.223284 0.227562 0.059303
0.251103 0.219975 0.055477
0.281986 0.214648 0.051650
0.312224 0.208242 0.050980
0.342892 0.200736 0.047921
0.373774 0.193015 0.044095
0.404657 0.185294 0.040269
0.433625 0.177252 0.038680
0.462500 0.168034 0.035294
0.487255 0.158586 0.033088
0.510416 0.150490 0.031373
0.528554 0.143628 0.031373
0.543995 0.135907 0.031373
0.559061 0.128186 0.031373
0.572775 0.120466 0.031373
0.584069 0.112745 0.031373
0.591789 0.105024 0.031373
0.599510 0.097572 0.031373
0.607230 0.093505 0.031373
0.613970 0.086642 0.031373
0.618750 0.078922 0.031373
0.622549 0.071201 0.031373
0.629657 0.064817 0.031373
0.633578 0.060539 0.031373
0.633578 0.056740 0.031373
0.633578 0.050122 0.031373
0.633701 0.050122 0.031373
0.637500 0.050122 0.031373
0.162745 0.315686 0.082353
0.162745 0.304075 0.078523
0.174265 0.292647 0.074694
0.189461 0.280852 0.070864
0.212255 0.273897 0.067035
0.236244 0.266299 0.062745
0.265686 0.261765 0.059375
0.296569 0.254780 0.055545
0.327451 0.250000 0.054167
0.358333 0.242279 0.051807
0.389215 0.235539 0.050000
0.420098 0.227175 0.046416
0.448529 0.219117 0.043627
0.475613 0.209651 0.040411
0.498775 0.200735 0.038235
0.521936 0.193015 0.034773
0.540196 0.185294 0.032843
0.555637 0.177574 0.031373
0.571078 0.169853 0.031373
0.585539 0.161550 0.031373
0.597059 0.153431 0.031373
0.607230 0.144700 0.031373
0.614951 0.135049 0.031373
0.622671 0.126501 0.031373
0.629412 0.116667 0.031373
0.634191 0.108946 0.031373
0.637990 0.101225 0.031373
0.645098 0.093505 0.031373
0.649019 0.085907 0.031373
0.649019 0.079044 0.031373
0.649019 0.071569 0.031373
0.649142 0.067647 0.031373
0.652941 0.067647 0.031373
0.182108 0.359191 0.089093
0.182108 0.350402 0.085206
0.192524 0.336083 0.078607
0.207721 0.323529 0.074774
0.228049 0.312975 0.069975
0.250858 0.304902 0.065736
0.281128 0.301103 0.062745
0.312010 0.297063 0.059440
0.342892 0.291697 0.057997
0.373774 0.285784 0.055695
0.404657 0.278064 0.053799
0.435539 0.272193 0.051949
0.463971 0.265441 0.048116
0.491054 0.257721 0.046404
0.514216 0.250000 0.043750
0.537377 0.242279 0.042034
0.554657 0.234007 0.038113
0.570098 0.226838 0.036792
0.585539 0.219118 0.034191
0.600980 0.210949 0.031373
0.612500 0.202574 0.031373
0.622671 0.192034 0.031373
0.630392 0.180392 0.031373
0.638113 0.168750 0.031373
0.644853 0.157108 0.031373
0.649632 0.146569 0.031373
0.653431 0.134926 0.031373
0.660539 0.124387 0.031373
0.664461 0.116667 0.031373
0.667279 0.106127 0.031373
0.668382 0.098583 0.031373
0.668382 0.093627 0.031373
0.668382 0.090809 0.031373
0.200245 0.404412 0.094118
0.201432 0.394079 0.090280
0.209069 0.378677 0.085294
0.224265 0.365931 0.078684
0.247059 0.355484 0.073775
0.270221 0.347426 0.069554
0.296569 0.339706 0.065671
0.327451 0.335907 0.063335
0.360355 0.334130 0.061826
0.391912 0.328309 0.059582
0.422794 0.323284 0.057981
0.453676 0.315564 0.055829
0.481863 0.311765 0.054136
0.506495 0.304044 0.052075
0.529657 0.299019 0.049755
0.552819 0.292524 0.047671
0.570098 0.287500 0.045833
0.585539 0.283050 0.041912
0.600980 0.277160 0.038680
0.616421 0.270956 0.036895
0.627941 0.258303 0.034069
0.638113 0.246745 0.033142
0.645833 0.232108 0.031373
0.653554 0.220588 0.031373
0.660294 0.205453 0.031373
0.665074 0.191521 0.031373
0.668872 0.179412 0.031373
0.675980 0.165617 0.031373
0.679902 0.154166 0.031373
0.683824 0.142525 0.031373
0.683824 0.134804 0.031373
0.683908 0.127121 0.031373
0.686519 0.120588 0.031373
0.216912 0.450736 0.100613
0.219405 0.439093 0.094198
0.227084 0.423775 0.089093
0.242280 0.409555 0.082721
0.262500 0.394240 0.077573
0.285662 0.386029 0.073372
0.312745 0.378309 0.069493
0.342892 0.376520 0.067230
0.377696 0.373652 0.065656
0.410428 0.370454 0.065319
0.442034 0.368383 0.062745
0.472917 0.361887 0.061397
0.500383 0.358088 0.061397
0.525858 0.354289 0.057476
0.549020 0.349900 0.056028
0.569466 0.347427 0.053554
0.585539 0.343505 0.050306
0.600980 0.339584 0.048426
0.616421 0.336520 0.045711
0.631863 0.328799 0.041789
0.643382 0.319608 0.040319
0.653554 0.304167 0.037868
0.661275 0.289147 0.034873
0.668995 0.274633 0.033222
0.676378 0.259191 0.031373
0.680515 0.243750 0.031373
0.686405 0.228562 0.031373
0.692035 0.214215 0.031373
0.695833 0.199265 0.031373
0.699265 0.187255 0.031373
0.699426 0.173407 0.031373
0.701880 0.165686 0.031373
0.703186 0.157966 0.031373
0.232353 0.490686 0.105882
0.236152 0.479045 0.100613
0.243873 0.463725 0.094271
0.259069 0.448284 0.088863
0.280576 0.432843 0.082659
0.303554 0.424633 0.077190
0.331373 0.416912 0.071323
0.362255 0.414262 0.070588
0.394976 0.412255 0.069485
0.429703 0.411198 0.067356
0.461275 0.409099 0.066667
0.492157 0.407368 0.065702
0.521507 0.405943 0.065196
0.547672 0.402941 0.063741
0.570833 0.401471 0.061275
0.590073 0.401471 0.059191
0.607353 0.397549 0.057353
0.622794 0.397549 0.053431
0.635141 0.395006 0.050337
0.648759 0.390564 0.048514
0.658824 0.377451 0.044669
0.668995 0.363480 0.041667
0.676716 0.348039 0.039216
0.684436 0.332598 0.037056
0.692157 0.316789 0.034926
0.698407 0.299709 0.033288
0.703676 0.282353 0.031373
0.709543 0.266911 0.031373
0.714706 0.251471 0.031373
0.718627 0.236030 0.031373
0.718627 0.220834 0.031373
0.718704 0.210662 0.031373
0.721078 0.202941 0.031373
0.247794 0.529289 0.112132
0.251666 0.517769 0.104412
0.261642 0.502328 0.098284
0.276838 0.486888 0.092892
0.297304 0.471446 0.086566
0.320466 0.463235 0.081009
0.346814 0.455515 0.074947
0.377696 0.451716 0.073265
0.412500 0.450858 0.072917
0.446856 0.450858 0.071243
0.480515 0.450858 0.070588
0.511397 0.449813 0.069543
0.542279 0.449265 0.068995
0.566912 0.451295 0.068995
0.590073 0.451593 0.067686
0.611152 0.451593 0.065074
0.626593 0.451593 0.063113
0.642034 0.451593 0.060061
0.656457 0.451593 0.057231
0.667402 0.448407 0.053309
0.676716 0.439216 0.049387
0.685237 0.423775 0.046511
0.694485 0.408333 0.043137
0.701551 0.392892 0.040889
0.707598 0.374724 0.038818
0.715319 0.357579 0.035294
0.722740 0.338725 0.034995
0.726838 0.320956 0.033337
0.732675 0.305515 0.031373
0.736397 0.290074 0.031373
0.737990 0.274878 0.031373
0.737990 0.263235 0.031373
0.737990 0.255515 0.031373
0.263236 0.567893 0.117647
0.267157 0.556250 0.109927
0.278431 0.540932 0.102206
0.293872 0.525490 0.098246
0.312745 0.510049 0.090686
0.335907 0.501838 0.082966
0.362990 0.494118 0.078845
0.394861 0.490318 0.076716
0.429596 0.489461 0.076716
0.466184 0.489461 0.074510
0.500935 0.489461 0.073330
0.532353 0.489461 0.072794
0.562163 0.493383 0.072794
0.587868 0.496607 0.072794
0.611030 0.499510 0.070588
0.632476 0.500682 0.069677
0.649755 0.503431 0.068873
0.665196 0.504465 0.065863
0.677681 0.505637 0.061994
0.689254 0.502734 0.058127
0.698284 0.495680 0.054259
0.706005 0.483333 0.050390
0.713725 0.467892 0.046523
0.721446 0.451969 0.043137
0.728615 0.433088 0.040870
0.734306 0.415449 0.038841
0.740686 0.396155 0.035294
0.746201 0.378922 0.035294
0.751930 0.363481 0.035294
0.755637 0.348039 0.035294
0.755744 0.332598 0.035294
0.757353 0.317280 0.035294
0.757353 0.309559 0.035294
0.278677 0.600490 0.123652
0.282476 0.588970 0.115931
0.293987 0.575613 0.108211
0.309313 0.562010 0.102156
0.330499 0.548652 0.094608
0.353431 0.540441 0.086888
0.381617 0.532721 0.081250
0.412500 0.528064 0.078431
0.448867 0.528064 0.078431
0.484927 0.528064 0.078431
0.520259 0.528064 0.075161
0.551716 0.528064 0.074510
0.581449 0.533287 0.074510
0.608467 0.538235 0.074510
0.632476 0.542946 0.073476
0.652577 0.547917 0.070588
0.668995 0.549755 0.070588
0.684437 0.552569 0.068750
0.698162 0.553676 0.065863
0.708567 0.550846 0.061998
0.717525 0.544363 0.058135
0.725245 0.535294 0.053554
0.732966 0.519853 0.048491
0.740686 0.504412 0.045956
0.748407 0.488511 0.043137
0.755672 0.470834 0.039216
0.759926 0.452329 0.038481
0.765563 0.436887 0.035294
0.771186 0.421446 0.035294
0.774877 0.406005 0.035294
0.774992 0.390564 0.035294
0.776716 0.375122 0.035294
0.776716 0.363603 0.035294
0.294118 0.631373 0.129412
0.297978 0.619853 0.121692
0.309313 0.608211 0.113970
0.324755 0.596446 0.106250
0.347549 0.583088 0.098529
0.370711 0.575123 0.090809
0.397059 0.567402 0.084682
0.431005 0.565135 0.080821
0.465687 0.562745 0.078921
0.502880 0.562745 0.078431
0.537623 0.564093 0.078431
0.571078 0.566667 0.077144
0.600735 0.573039 0.076470
0.626593 0.576838 0.074510
0.649755 0.583456 0.074510
0.671875 0.588358 0.073468
0.691177 0.594118 0.071569
0.707598 0.594118 0.070588
0.720221 0.594118 0.067770
0.729044 0.593321 0.063909
0.738725 0.588725 0.060049
0.746446 0.580331 0.054902
0.754167 0.568750 0.050367
0.761887 0.554657 0.047059
0.769608 0.539216 0.043137
0.775367 0.523345 0.042279
0.780760 0.506373 0.039216
0.786581 0.490931 0.035294
0.790686 0.475490 0.035294
0.794118 0.460049 0.035294
0.796079 0.444608 0.035294
0.796079 0.429289 0.035294
0.796079 0.417648 0.035294
0.309558 0.660417 0.135171
0.313358 0.650613 0.127451
0.324755 0.638971 0.118007
0.340196 0.627328 0.110172
0.362990 0.615916 0.102451
0.386152 0.607966 0.094731
0.412500 0.602083 0.087010
0.446446 0.601348 0.082755
0.481127 0.601348 0.082353
0.519731 0.601348 0.080269
0.554412 0.601348 0.078431
0.586519 0.603921 0.078431
0.617402 0.611642 0.078431
0.645956 0.615441 0.077194
0.669118 0.623162 0.074510
0.691173 0.626961 0.074510
0.710478 0.632720 0.074510
0.726838 0.632720 0.071565
0.739530 0.632720 0.069677
0.751114 0.632720 0.065074
0.759926 0.627328 0.061275
0.767647 0.619608 0.057476
0.775367 0.611236 0.052244
0.783088 0.600980 0.048380
0.790349 0.588082 0.046078
0.796236 0.574020 0.043137
0.801984 0.558579 0.039216
0.806128 0.543137 0.038603
0.811749 0.529534 0.035294
0.815441 0.514093 0.035294
0.817279 0.498652 0.035294
0.817279 0.483333 0.035294
0.817279 0.471692 0.035294
0.319363 0.683578 0.141176
0.327083 0.677520 0.133456
0.340196 0.668137 0.123530
0.355637 0.656656 0.114093
0.378432 0.646845 0.106372
0.401593 0.640296 0.098652
0.427941 0.636443 0.090931
0.461887 0.636030 0.083211
0.496568 0.636030 0.082353
0.535172 0.636030 0.082353
0.569853 0.637546 0.078967
0.601961 0.642525 0.078431
0.632843 0.649173 0.078431
0.661397 0.654044 0.078431
0.684559 0.660049 0.076225
0.707720 0.665564 0.074510
0.729780 0.668505 0.074510
0.746079 0.671323 0.072672
0.760769 0.671323 0.070588
0.771446 0.671323 0.066667
0.779167 0.665931 0.061918
0.786887 0.658211 0.058066
0.796125 0.650490 0.054213
0.802328 0.642149 0.049877
0.810049 0.630576 0.046507
0.815572 0.620343 0.043137
0.821247 0.604902 0.042402
0.827229 0.591935 0.039216
0.831097 0.577941 0.035294
0.834965 0.562500 0.035294
0.836520 0.547166 0.035294
0.836520 0.535539 0.035294
0.836520 0.524019 0.035294
0.327083 0.706740 0.145098
0.338653 0.702868 0.137378
0.354044 0.695221 0.125735
0.369485 0.685390 0.114460
0.392279 0.677451 0.106372
0.417034 0.673039 0.098652
0.443382 0.673039 0.090931
0.477329 0.673039 0.083211
0.512010 0.673039 0.082353
0.550612 0.673039 0.082353
0.585294 0.674633 0.080752
0.617402 0.678006 0.078431
0.648284 0.683931 0.078431
0.677784 0.689671 0.078431
0.703921 0.694853 0.078431
0.727083 0.699399 0.075257
0.746324 0.704411 0.074510
0.763726 0.704411 0.073418
0.779167 0.704411 0.070588
0.789740 0.704411 0.067613
0.798407 0.702941 0.062745
0.806128 0.695221 0.058824
0.813848 0.687500 0.054902
0.821569 0.679779 0.050980
0.828891 0.671477 0.047059
0.835417 0.661501 0.044382
0.840510 0.649931 0.042700
0.846572 0.635784 0.039216
0.850444 0.624265 0.039216
0.854316 0.608823 0.039216
0.855760 0.593628 0.039216
0.855760 0.581985 0.039216
0.858088 0.570343 0.039216
0.334804 0.729902 0.145098
0.346324 0.726103 0.137378
0.361765 0.719761 0.125735
0.380760 0.714354 0.114231
0.403922 0.708333 0.106372
0.428554 0.703921 0.098652
0.458824 0.703921 0.090931
0.492770 0.703921 0.083211
0.527451 0.703921 0.082353
0.566054 0.706740 0.082353
0.600736 0.710539 0.082353
0.632843 0.714338 0.080744
0.663726 0.718137 0.078983
0.694608 0.721936 0.078431
0.719363 0.727451 0.078431
0.742524 0.731372 0.078431
0.763726 0.735294 0.076470
0.779167 0.735294 0.074510
0.794608 0.735294 0.073438
0.808456 0.735294 0.068995
0.816176 0.734375 0.065196
0.823897 0.730530 0.059789
0.831618 0.723774 0.055913
0.839338 0.716054 0.052037
0.847059 0.708334 0.048162
0.854243 0.700291 0.046523
0.858579 0.688971 0.043137
0.863618 0.680638 0.040457
0.869608 0.666973 0.039216
0.873529 0.655147 0.039216
0.873621 0.639706 0.039216
0.875000 0.628263 0.039216
0.875000 0.616667 0.039216
0.342524 0.753064 0.145098
0.354044 0.749142 0.137378
0.369485 0.745220 0.125735
0.388722 0.741299 0.114093
0.411642 0.735126 0.106372
0.442034 0.734804 0.098652
0.472917 0.734804 0.090931
0.507158 0.734804 0.083211
0.542892 0.734804 0.082353
0.578297 0.738725 0.082353
0.615250 0.741422 0.082353
0.648284 0.745220 0.082353
0.679167 0.749019 0.082353
0.707721 0.752819 0.078979
0.734804 0.757743 0.078431
0.757966 0.761623 0.078431
0.779167 0.763542 0.078431
0.794608 0.766176 0.075226
0.810049 0.766176 0.074510
0.824445 0.766176 0.069543
0.835539 0.766176 0.065702
0.843260 0.763944 0.062745
0.850980 0.757108 0.059751
0.858701 0.749766 0.054902
0.865778 0.743015 0.050980
0.871274 0.735294 0.047059
0.877459 0.727321 0.044232
0.881740 0.718103 0.042524
0.886719 0.707721 0.039216
0.890319 0.696201 0.039216
0.892892 0.684681 0.039216
0.892892 0.670711 0.039216
0.892892 0.662990 0.039216
0.345098 0.776226 0.143872
0.356656 0.772388 0.136152
0.373208 0.768459 0.125735
0.396201 0.764575 0.114093
0.419363 0.762102 0.106372
0.449755 0.760539 0.098652
0.484054 0.761765 0.090931
0.518505 0.763871 0.083211
0.555086 0.765380 0.082353
0.591789 0.768505 0.082353
0.626854 0.772304 0.082353
0.661573 0.776103 0.082353
0.693382 0.779902 0.082353
0.722664 0.782973 0.080752
0.750245 0.786811 0.079657
0.773407 0.790648 0.079006
0.794608 0.792524 0.078431
0.812745 0.793137 0.077167
0.827007 0.793137 0.074510
0.840931 0.793137 0.071316
0.850980 0.793137 0.067892
0.858701 0.792716 0.065740
0.866422 0.787990 0.061903
0.874142 0.781373 0.058066
0.881863 0.776470 0.054228
0.888994 0.768750 0.050390
0.893382 0.761030 0.046553
0.900490 0.752888 0.043137
0.904412 0.742892 0.040288
0.908333 0.733693 0.039216
0.908333 0.723284 0.039216
0.908333 0.711887 0.039216
0.911029 0.704167 0.039216
0.345098 0.799387 0.136152
0.356618 0.795554 0.128431
0.375912 0.791789 0.120711
0.398897 0.787990 0.110436
0.425490 0.787623 0.102451
0.456373 0.787623 0.094731
0.491544 0.787623 0.087010
0.527083 0.787623 0.083211
0.564828 0.792371 0.082353
0.601406 0.796259 0.082353
0.638457 0.802083 0.082353
0.674866 0.805883 0.082353
0.706128 0.807920 0.082353
0.737010 0.811152 0.082353
0.765686 0.813358 0.082353
0.788848 0.815660 0.082353
0.810049 0.818995 0.082353
0.825490 0.818995 0.079534
0.840931 0.820098 0.079534
0.856373 0.820098 0.075613
0.866422 0.820098 0.071691
0.874142 0.818995 0.069619
0.881863 0.818114 0.066544
0.889584 0.811945 0.062745
0.897304 0.807353 0.058119
0.905025 0.799632 0.054285
0.908823 0.791912 0.050452
0.915931 0.784191 0.044068
0.919853 0.776470 0.042647
0.923775 0.768750 0.039216
0.923775 0.758211 0.039216
0.923809 0.750490 0.039216
0.924878 0.742770 0.039216
0.345098 0.818627 0.128432
0.356618 0.818627 0.120711
0.375981 0.814706 0.112990
0.398897 0.811152 0.105269
0.425980 0.810784 0.097549
0.460294 0.810784 0.089829
0.498284 0.810784 0.083088
0.536887 0.811550 0.081587
0.572549 0.817647 0.081373
0.611152 0.821446 0.082077
0.649755 0.825245 0.082353
0.686428 0.829044 0.082353
0.720588 0.832843 0.085172
0.751471 0.834314 0.087255
0.778860 0.838235 0.087255
0.804289 0.840319 0.087255
0.825000 0.842157 0.087255
0.840931 0.846078 0.087255
0.856373 0.846078 0.087255
0.871814 0.846078 0.083334
0.881863 0.846078 0.079411
0.889584 0.845067 0.075490
0.897304 0.843137 0.071569
0.905025 0.841330 0.067372
0.912745 0.837500 0.063480
0.920466 0.830515 0.059590
0.924265 0.822794 0.055147
0.930545 0.815227 0.050521
0.934436 0.811274 0.044118
0.938327 0.803554 0.040196
0.939216 0.795833 0.039216
0.939216 0.789093 0.039216
0.942157 0.781373 0.039216
0.345098 0.837868 0.120711
0.356618 0.837868 0.112990
0.375927 0.837063 0.105269
0.398897 0.833946 0.101183
0.425980 0.833946 0.093750
0.463603 0.833946 0.086030
0.502206 0.833946 0.079006
0.541479 0.837010 0.078431
0.580270 0.840809 0.078431
0.619489 0.844608 0.078431
0.658333 0.848407 0.082353
0.696936 0.852206 0.085222
0.732230 0.856005 0.089047
0.763112 0.857476 0.091054
0.791789 0.861397 0.094976
0.815809 0.863481 0.095834
0.838113 0.865319 0.095834
0.856373 0.869240 0.095834
0.871814 0.869240 0.095834
0.886906 0.869240 0.091912
0.897304 0.869240 0.087669
0.905025 0.869240 0.083774
0.912745 0.869240 0.079879
0.920466 0.868379 0.074265
0.928186 0.865319 0.070466
0.934379 0.861397 0.066667
0.938848 0.853676 0.062868
0.943371 0.846569 0.055760
0.946063 0.842157 0.051838
0.949878 0.834437 0.047917
0.950736 0.826961 0.043995
0.950736 0.822917 0.043995
0.953799 0.815196 0.043995
0.340441 0.860295 0.112990
0.352795 0.860295 0.108356
0.375000 0.857307 0.101471
0.398162 0.857108 0.093750
0.425888 0.857108 0.086030
0.463603 0.857108 0.078929
0.502803 0.857108 0.075107
0.545305 0.860172 0.074510
0.587990 0.863971 0.074510
0.630515 0.867770 0.078960
0.669853 0.871569 0.082859
0.708456 0.875368 0.087010
0.743873 0.879167 0.093383
0.774755 0.880637 0.097480
0.803845 0.884559 0.103110
0.827329 0.886642 0.107353
0.850122 0.888481 0.111275
0.867892 0.892402 0.111275
0.883333 0.892402 0.111275
0.898775 0.892402 0.107353
0.912010 0.892402 0.101961
0.920466 0.894976 0.095589
0.928186 0.892402 0.090441
0.935907 0.892402 0.083617
0.942095 0.891605 0.079718
0.945994 0.888481 0.074387
0.949893 0.883961 0.070588
0.953676 0.876838 0.064101
0.956863 0.872396 0.060203
