public/luts/builtin/kodak_ektar_100.cube
TITLE "Kodak-Ektar-100"
LUT_3D_SIZE 9
0.000000 0.000000 0.000000
0.091177 0.007353 0.007353
0.197059 0.007843 0.007843
0.323529 0.003922 0.007843
0.466667 0.000000 0.013725
0.615196 0.003922 0.048529
0.745098 0.012745 0.079411
0.844608 0.076471 0.114706
0.894118 0.125490 0.149020
0.000000 0.072059 0.018628
0.049938 0.064216 0.004780
0.180882 0.054779 0.007843
0.318321 0.016483 0.008333
0.464951 0.000000 0.025000
0.618628 0.007537 0.059988
0.747672 0.020588 0.091176
0.848039 0.083824 0.129412
0.894118 0.129412 0.156863
0.000000 0.166666 0.042157
0.001716 0.169608 0.042157
0.149265 0.184314 0.013236
0.302451 0.171937 0.022549
0.463235 0.157843 0.049019
0.623039 0.156985 0.082843
0.755147 0.183333 0.115931
0.853309 0.220588 0.153799
0.904902 0.262745 0.187255
0.000000 0.284314 0.079412
0.000000 0.284314 0.079412
0.079779 0.296569 0.068015
0.278003 0.309375 0.048039
0.455637 0.303922 0.078921
0.626961 0.312684 0.118566
0.764706 0.332966 0.155270
0.867647 0.363235 0.195098
0.917647 0.390196 0.225980
0.015686 0.413725 0.133333
0.013725 0.411765 0.133333
0.029412 0.414706 0.131863
0.213971 0.434559 0.119608
0.437255 0.444117 0.116667
0.617157 0.447794 0.155147
0.768628 0.467647 0.197549
0.877696 0.496324 0.239706
0.931372 0.517647 0.276471
0.081373 0.548529 0.212255
0.079595 0.547059 0.212255
0.079902 0.547059 0.216176
0.161336 0.554902 0.212255
0.367647 0.565441 0.204412
0.594669 0.573590 0.193566
0.757475 0.585784 0.228064
0.883640 0.614032 0.286274
0.945098 0.634314 0.336274
0.123530 0.669608 0.321569
0.122549 0.669608 0.320588
0.122794 0.669608 0.323775
0.141054 0.670589 0.325491
0.317647 0.678432 0.315686
0.525980 0.686275 0.297549
0.732598 0.698775 0.286030
0.871569 0.712745 0.323652
0.952941 0.728431 0.391176
0.186275 0.777942 0.445098
0.185785 0.777942 0.448101
0.185785 0.777942 0.447672
0.198713 0.777942 0.451470
0.332353 0.781863 0.445588
0.499326 0.789706 0.435968
0.679779 0.801471 0.422427
0.848101 0.809314 0.414706
0.941176 0.805393 0.460294
0.266667 0.858824 0.564706
0.266667 0.858824 0.564706
0.269608 0.858824 0.567647
0.310784 0.862745 0.582843
0.427451 0.862745 0.588235
0.554902 0.870588 0.592157
0.682353 0.882353 0.592157
0.809804 0.886765 0.591667
0.929412 0.898039 0.603922
0.000000 0.000000 0.091667
0.076409 0.006924 0.103002
0.185294 0.007843 0.106985
0.307843 0.006066 0.100307
0.457353 0.000245 0.116176
0.611275 0.005209 0.136765
0.744117 0.028922 0.160171
0.851532 0.106862 0.187684
0.898039 0.155883 0.206863
0.000000 0.068566 0.072917
0.048698 0.072113 0.091292
0.169975 0.080025 0.099724
0.306556 0.067563 0.110478
0.456924 0.034161 0.120098
0.611543 0.025123 0.143321
0.745098 0.050444 0.165395
0.848905 0.116896 0.191605
0.901042 0.171078 0.217647
0.000000 0.169608 0.099632
0.008211 0.176532 0.105683
0.152328 0.191421 0.103125
0.302451 0.186780 0.117785
0.460784 0.182843 0.133333
0.621569 0.188848 0.159804
0.755147 0.211244 0.186765
0.859804 0.247549 0.217647
0.908824 0.285662 0.243750
0.000000 0.294302 0.144608
0.000000 0.291827 0.141996
0.093643 0.303799 0.149433
0.282728 0.315617 0.131311
0.458578 0.313818 0.155882
0.626961 0.324701 0.183027
0.767341 0.347855 0.214216
0.871836 0.378592 0.249288
0.923713 0.405392 0.279902
0.015932 0.423284 0.195098
0.015901 0.421569 0.195313
0.045650 0.422978 0.201532
0.219700 0.442310 0.192647
0.441912 0.449878 0.181005
0.618965 0.455545 0.209253
0.771078 0.479289 0.248836
0.879902 0.506372 0.287316
0.935294 0.528922 0.324265
0.081373 0.554902 0.269914
0.081189 0.554902 0.269914
0.081189 0.554718 0.272242
0.169983 0.562079 0.269792
0.375337 0.574418 0.258088
0.598591 0.581978 0.240985
0.759406 0.594286 0.271829
0.883824 0.620014 0.323039
0.946569 0.639706 0.369301
0.126470 0.673529 0.358824
0.126470 0.670910 0.358946
0.126379 0.673162 0.361887
0.147120 0.674510 0.364828
0.328247 0.685110 0.351716
0.533823 0.693091 0.334804
0.736397 0.704902 0.319700
0.872748 0.717095 0.354519
0.952941 0.732353 0.420956
0.186275 0.778432 0.464216
0.186267 0.778432 0.464644
0.186259 0.778432 0.467693
0.205905 0.781702 0.470588
0.341697 0.785999 0.470313
0.507008 0.793628 0.460601
0.679902 0.805025 0.448790
0.848583 0.812753 0.437630
0.944608 0.812316 0.479350
0.266667 0.862255 0.575981
0.266667 0.862255 0.575981
0.270588 0.862622 0.576471
0.318137 0.864216 0.592157
0.435049 0.866667 0.603432
0.558823 0.870588 0.603432
0.685907 0.883333 0.607353
0.810294 0.890196 0.600429
0.929412 0.898039 0.615686
0.003922 0.000000 0.203922
0.074387 0.004780 0.211397
0.174265 0.008823 0.217402
0.310294 0.005392 0.223529
0.459314 0.000000 0.223529
0.610907 0.007230 0.233211
0.741177 0.083333 0.261765
0.852451 0.163726 0.287745
0.901961 0.210785 0.303921
0.000000 0.079044 0.191299
0.053110 0.086887 0.200858
0.168811 0.085540 0.209835
0.306556 0.073897 0.219730
0.453431 0.055638 0.223468
0.607353 0.072947 0.242065
0.744025 0.139215 0.270558
0.855453 0.193612 0.295588
0.902819 0.229412 0.311642
0.000000 0.181128 0.188971
0.019118 0.188113 0.196078
0.158762 0.199816 0.212500
0.304105 0.208946 0.227727
0.455270 0.210784 0.239216
0.612163 0.224908 0.261183
0.752942 0.252267 0.286520
0.863725 0.291054 0.311642
0.915931 0.323775 0.333333
0.000000 0.305760 0.233334
0.000000 0.303922 0.230744
0.125276 0.319363 0.246936
0.297380 0.329672 0.243198
0.462561 0.331740 0.258395
0.623039 0.347549 0.282491
0.767157 0.374510 0.308854
0.872059 0.403784 0.335647
0.927328 0.428431 0.360294
0.017647 0.436275 0.285784
0.017647 0.434804 0.283333
0.080025 0.442157 0.290931
0.237255 0.458456 0.301042
0.452206 0.466912 0.282843
0.623039 0.471691 0.301961
0.772549 0.498039 0.337132
0.886826 0.527022 0.368321
0.941176 0.548039 0.399020
0.092770 0.566299 0.349020
0.092815 0.566345 0.346829
0.092770 0.565012 0.345098
0.194118 0.574142 0.360784
0.390196 0.583824 0.346752
0.605653 0.593367 0.326179
0.761949 0.606495 0.352451
0.887746 0.635294 0.397733
0.952941 0.655392 0.438113
0.137500 0.681372 0.415931
0.137285 0.681372 0.415686
0.137500 0.681556 0.416666
0.174357 0.685018 0.427635
0.351348 0.693995 0.424019
0.542126 0.704167 0.405086
0.737071 0.714032 0.388235
0.876348 0.728676 0.421814
0.952206 0.743872 0.474510
0.193628 0.785784 0.501593
0.193628 0.785784 0.505024
0.193628 0.785570 0.505392
0.221078 0.788587 0.513848
0.362990 0.793811 0.522855
0.521568 0.800934 0.510340
0.686121 0.810263 0.500981
0.852451 0.820864 0.486704
0.945098 0.820956 0.528432
0.266667 0.866667 0.599020
0.267647 0.866667 0.599020
0.273529 0.866667 0.602206
0.328921 0.868137 0.617157
0.447059 0.870588 0.628432
0.571691 0.877818 0.633333
0.689951 0.886275 0.630392
0.814216 0.894118 0.629044
0.933333 0.905882 0.642157
0.000000 0.007843 0.323529
0.058334 0.011765 0.327451
0.182843 0.008823 0.337745
0.309375 0.007843 0.342586
0.460784 0.015441 0.354902
0.611275 0.056434 0.365196
0.745098 0.117034 0.367647
0.856373 0.187745 0.386765
0.905882 0.223529 0.400981
0.000000 0.092464 0.307843
0.047893 0.098713 0.316115
0.180071 0.100889 0.327864
0.307843 0.100000 0.339522
0.456863 0.094424 0.354902
0.611275 0.103247 0.365004
0.745098 0.136719 0.371798
0.859804 0.196407 0.393850
0.911948 0.248346 0.412071
0.000000 0.196691 0.302083
0.023039 0.202543 0.311765
0.174265 0.214216 0.328830
0.312362 0.220956 0.344976
0.462622 0.223100 0.357047
0.615196 0.238848 0.369669
0.753401 0.268015 0.387194
0.867647 0.325858 0.420098
0.921201 0.360294 0.442034
0.001532 0.322978 0.326899
0.000000 0.322174 0.326095
0.159804 0.338848 0.348759
0.312952 0.347426 0.360930
0.468627 0.356434 0.375276
0.623039 0.376003 0.394118
0.765318 0.405392 0.420466
0.877627 0.436274 0.445588
0.933333 0.458701 0.466176
0.017647 0.455392 0.378431
0.017647 0.455392 0.376287
0.126838 0.465748 0.390135
0.276716 0.475276 0.403462
0.462377 0.484804 0.397427
0.630606 0.495037 0.414737
0.772549 0.521814 0.440931
0.887746 0.550735 0.469700
0.946324 0.571078 0.495588
0.103431 0.585723 0.433823
0.102451 0.584804 0.433823
0.107062 0.584804 0.433042
0.243137 0.594524 0.450429
0.409283 0.603676 0.453922
0.615235 0.613174 0.435723
0.768214 0.628554 0.456694
0.890748 0.654894 0.491858
0.956863 0.677451 0.528002
0.152819 0.699510 0.487132
0.152819 0.698269 0.485524
0.152819 0.699510 0.490594
0.221630 0.701593 0.502512
0.380147 0.709436 0.515380
0.556863 0.719255 0.499479
0.744362 0.729595 0.480361
0.879948 0.745849 0.510156
0.956863 0.762745 0.558456
0.200980 0.793934 0.544608
0.201019 0.794363 0.547243
0.200980 0.797227 0.556419
0.246500 0.800000 0.569186
0.393137 0.805209 0.585202
0.541107 0.810907 0.578370
0.694608 0.818091 0.566176
0.856373 0.829190 0.551899
0.945098 0.832353 0.586274
0.266667 0.870588 0.615686
0.266667 0.873039 0.621752
0.277451 0.871201 0.633211
0.340135 0.874510 0.646507
0.462745 0.878431 0.663235
0.582353 0.882353 0.673039
0.700980 0.891177 0.672672
0.817647 0.898345 0.665196
0.929412 0.909804 0.676961
0.000000 0.029412 0.445098
0.050980 0.033088 0.450981
0.189706 0.039216 0.458823
0.320833 0.050245 0.466667
0.458823 0.076470 0.479412
0.611275 0.115196 0.498774
0.746078 0.164706 0.501961
0.860049 0.226470 0.510294
0.913725 0.260784 0.513726
0.000000 0.110539 0.435784
0.049019 0.118137 0.443137
0.188236 0.122059 0.454902
0.322794 0.128768 0.467892
0.463480 0.136519 0.481495
0.609651 0.148775 0.496967
0.746446 0.182414 0.503125
0.863297 0.234038 0.513726
0.913480 0.268137 0.517647
0.000000 0.214706 0.430882
0.032843 0.222426 0.440931
0.183946 0.233333 0.454902
0.327635 0.241483 0.472426
0.469608 0.249020 0.484314
0.617647 0.264706 0.498958
0.755882 0.289216 0.509804
0.871140 0.329105 0.525858
0.921079 0.353922 0.532843
0.000000 0.344363 0.449510
0.009712 0.342402 0.449510
0.175490 0.357782 0.470220
0.327022 0.367157 0.484069
0.479657 0.375735 0.497671
0.626961 0.390165 0.508885
0.765012 0.412439 0.524693
0.879902 0.442984 0.544118
0.937255 0.466667 0.559314
0.009804 0.475490 0.477451
0.006863 0.474510 0.477451
0.165931 0.488235 0.492892
0.324632 0.496691 0.503554
0.482843 0.506372 0.516667
0.634804 0.520343 0.531127
0.772549 0.542892 0.550980
0.891299 0.569976 0.574755
0.949020 0.588235 0.592157
0.112745 0.607843 0.528922
0.112592 0.607108 0.529657
0.127635 0.606924 0.528922
0.282782 0.614675 0.540686
0.452819 0.622427 0.554412
0.622580 0.633058 0.549448
0.768628 0.649081 0.564277
0.891023 0.675980 0.591513
0.956863 0.691422 0.615196
0.165686 0.716666 0.563725
0.164215 0.714706 0.563725
0.163848 0.714706 0.563725
0.233149 0.718076 0.572059
0.422794 0.726471 0.595833
0.574326 0.733088 0.597304
0.748284 0.746078 0.579780
0.881617 0.761948 0.602451
0.954902 0.780392 0.643627
0.210784 0.810784 0.594608
0.209314 0.811029 0.596569
0.210601 0.811275 0.603493
0.231128 0.812990 0.616023
0.420098 0.816299 0.642157
0.557690 0.822794 0.651961
0.699449 0.832476 0.639767
0.859375 0.840472 0.624939
0.948530 0.848039 0.663236
0.266667 0.874510 0.627451
0.266667 0.874510 0.631373
0.270588 0.874510 0.643137
0.309069 0.879657 0.672304
0.474510 0.885295 0.701961
0.593382 0.892157 0.720343
0.707353 0.900000 0.721569
0.821569 0.905882 0.717402
0.933333 0.917647 0.725491
0.000000 0.077451 0.583824
0.052635 0.084804 0.587255
0.199388 0.097059 0.595588
0.343137 0.117585 0.607353
0.485784 0.138235 0.615196
0.619118 0.169118 0.626961
0.745098 0.207843 0.629779
0.863725 0.260968 0.636949
0.905882 0.287745 0.629412
0.000000 0.141176 0.572059
0.050574 0.148752 0.580009
0.197503 0.158012 0.591667
0.343252 0.171745 0.605193
0.487745 0.182108 0.615196
0.620405 0.198468 0.626961
0.746875 0.222626 0.629917
0.862439 0.269754 0.637255
0.909620 0.298836 0.633149
0.000000 0.240686 0.566667
0.042295 0.248529 0.575796
0.195741 0.260294 0.589583
0.346277 0.270956 0.602880
0.493628 0.283088 0.616422
0.629044 0.296737 0.626961
0.756862 0.319822 0.637255
0.869746 0.355882 0.644118
0.917647 0.375980 0.641176
0.000000 0.364216 0.579350
0.014706 0.364216 0.583042
0.184804 0.381740 0.602650
0.343137 0.392624 0.612806
0.500000 0.403431 0.625490
0.639683 0.415770 0.640257
0.764706 0.431863 0.645328
0.879902 0.460486 0.657054
0.933333 0.478860 0.658395
0.001226 0.497549 0.601471
0.003830 0.497733 0.603768
0.179412 0.511275 0.619302
0.333823 0.518106 0.627451
0.498775 0.527574 0.637868
0.643566 0.540502 0.651256
0.773529 0.552696 0.660539
0.889706 0.573774 0.673284
0.947059 0.585784 0.679657
0.103983 0.629963 0.630882
0.102336 0.627267 0.630400
0.157414 0.631893 0.633793
0.321163 0.635379 0.639875
0.485080 0.642371 0.647794
0.634459 0.651984 0.658908
0.772089 0.668689 0.672610
0.888167 0.687255 0.691774
0.956311 0.702451 0.709375
0.167770 0.734436 0.655760
0.169378 0.736642 0.657338
0.167494 0.734896 0.656372
0.256373 0.737745 0.660294
0.439216 0.741667 0.671753
0.600000 0.751992 0.687745
0.752206 0.763266 0.683578
0.880269 0.776409 0.697181
0.954779 0.794118 0.724878
0.216666 0.828431 0.675000
0.214522 0.826470 0.675000
0.215763 0.828615 0.675000
0.217471 0.828615 0.675191
0.385263 0.829412 0.691575
0.582905 0.837316 0.721262
0.711627 0.848039 0.725567
0.863725 0.856066 0.710784
0.945098 0.864706 0.741667
0.274510 0.879902 0.667157
0.274510 0.879902 0.669302
0.274510 0.879902 0.668995
0.275429 0.883885 0.679902
0.393137 0.890196 0.719608
0.608885 0.900429 0.766115
0.714828 0.905882 0.777941
0.825183 0.917647 0.775000
0.933333 0.929412 0.781863
0.003922 0.135294 0.725491
0.058211 0.146691 0.730392
0.219608 0.163725 0.742157
0.369731 0.185172 0.747916
0.520098 0.219608 0.752942
0.650000 0.243627 0.762255
0.768628 0.270588 0.765441
0.861030 0.300490 0.753799
0.901961 0.318628 0.748039
0.001471 0.181372 0.718995
0.056878 0.192647 0.726348
0.215686 0.206832 0.738296
0.370098 0.222733 0.745220
0.519056 0.244301 0.752942
0.650000 0.260310 0.761688
0.770802 0.279902 0.767892
0.859483 0.307828 0.756051
0.904902 0.326961 0.748039
0.000245 0.272549 0.710784
0.047212 0.281250 0.718627
0.213971 0.298468 0.733885
0.370098 0.311948 0.741789
0.521691 0.330392 0.752574
0.655025 0.348040 0.761887
0.775184 0.358517 0.768628
0.867004 0.383916 0.759651
0.913725 0.399755 0.752942
0.000000 0.387255 0.718259
0.023973 0.392463 0.724158
0.200215 0.410172 0.737714
0.362944 0.419240 0.744684
0.521507 0.436458 0.754718
0.661765 0.454933 0.765625
0.782751 0.466207 0.774540
0.877589 0.484942 0.767080
0.925490 0.494240 0.762255
0.003922 0.522059 0.733333
0.007353 0.518627 0.733150
0.175490 0.532598 0.747059
0.340686 0.538235 0.752942
0.512255 0.550980 0.760784
0.662561 0.569608 0.772242
0.787500 0.579779 0.780393
0.885111 0.591360 0.779412
0.940686 0.602451 0.777451
0.060907 0.647917 0.749020
0.060907 0.646079 0.750123
0.156526 0.653554 0.756771
0.323453 0.657843 0.761474
0.490686 0.660846 0.764522
0.647549 0.675368 0.772319
0.779289 0.687286 0.783578
0.889629 0.695818 0.790855
0.950123 0.704534 0.789338
0.160049 0.756863 0.756127
0.160294 0.756863 0.756862
0.157843 0.756863 0.756495
0.287408 0.760784 0.760539
0.468873 0.760784 0.763725
0.625031 0.766176 0.769363
0.760784 0.779596 0.780392
0.882935 0.791176 0.794608
0.949755 0.799755 0.807598
0.211765 0.849020 0.768628
0.209191 0.849387 0.767647
0.211121 0.849020 0.768566
0.217065 0.848484 0.770603
0.399510 0.845466 0.771568
0.573208 0.846553 0.780515
0.727635 0.859835 0.797518
0.863618 0.865395 0.792846
0.943750 0.875490 0.818137
0.277451 0.899020 0.755882
0.277451 0.899020 0.755882
0.277451 0.899020 0.758824
0.277451 0.899020 0.757353
0.286274 0.899020 0.759804
0.512622 0.903431 0.780025
0.734804 0.917892 0.825490
0.829289 0.925613 0.833334
0.933333 0.937255 0.849020
0.031863 0.213236 0.872549
0.085723 0.224081 0.876042
0.249142 0.243137 0.882966
0.398836 0.264032 0.880392
0.547549 0.297549 0.880392
0.676961 0.334130 0.885784
0.792524 0.359681 0.893015
0.883333 0.385356 0.895160
0.898039 0.370588 0.861275
0.035784 0.247059 0.868628
0.084429 0.254956 0.872602
0.245818 0.267372 0.876532
0.398935 0.288419 0.878799
0.545588 0.312469 0.883824
0.678998 0.343627 0.888197
0.792861 0.363128 0.892601
0.882529 0.384980 0.895588
0.898039 0.377451 0.861765
0.031863 0.326103 0.860785
0.075322 0.331372 0.864706
0.243781 0.346845 0.869026
0.400980 0.361642 0.875368
0.547549 0.385294 0.876961
0.680882 0.415273 0.885601
0.798070 0.428769 0.891697
0.886826 0.441176 0.895588
0.905882 0.438236 0.861275
0.012439 0.423836 0.860785
0.048200 0.431640 0.860946
0.230407 0.447503 0.872549
0.395466 0.460585 0.873889
0.547396 0.480791 0.876471
0.684314 0.507353 0.885654
0.799372 0.518138 0.891667
0.891176 0.523506 0.896714
0.919792 0.523345 0.865196
0.032108 0.539706 0.866912
0.034253 0.541207 0.868413
0.171814 0.552267 0.877757
0.366177 0.564461 0.877114
0.534804 0.580882 0.880392
0.678768 0.603278 0.886673
0.801777 0.618137 0.895589
0.895589 0.622059 0.899081
0.931127 0.619853 0.874510
0.063419 0.667341 0.876471
0.064706 0.665196 0.874594
0.135784 0.674203 0.883104
0.320948 0.674380 0.883211
0.496232 0.680055 0.880392
0.659689 0.696569 0.884314
0.794792 0.711719 0.891789
0.895696 0.718627 0.899510
0.942463 0.718137 0.885111
0.111765 0.772916 0.872426
0.114491 0.775276 0.872549
0.112132 0.772916 0.872457
0.278799 0.779458 0.877436
0.466360 0.779412 0.875123
0.626057 0.784880 0.879366
0.770833 0.798070 0.883916
0.884299 0.803431 0.892157
0.947672 0.809926 0.891299
0.197549 0.868138 0.863787
0.197495 0.868138 0.863787
0.200551 0.870818 0.866897
0.222978 0.868245 0.864484
0.434314 0.864645 0.860938
0.602512 0.865633 0.864376
0.744301 0.868566 0.872288
0.867326 0.879519 0.883448
0.940257 0.884253 0.895160
0.270588 0.921569 0.848039
0.270588 0.921569 0.848468
0.270588 0.921692 0.848530
0.270588 0.921753 0.848530
0.299265 0.919853 0.848530
0.524816 0.918137 0.850000
0.698162 0.925980 0.865074
0.840258 0.941176 0.894669
0.929412 0.949020 0.918627
0.086275 0.301961 0.976471
0.135784 0.313725 0.976471
0.294118 0.329412 0.973529
0.443627 0.351471 0.976471
0.578431 0.382353 0.972549
0.702451 0.425000 0.975000
0.810784 0.455882 0.968627
0.891176 0.478431 0.972549
0.901961 0.482353 0.972549
0.093628 0.328432 0.976471
0.135355 0.332782 0.976471
0.289216 0.344485 0.976471
0.439400 0.362255 0.976165
0.572794 0.385784 0.972549
0.696569 0.425000 0.972549
0.810784 0.458824 0.971569
0.894118 0.478002 0.972120
0.901961 0.478921 0.972549
0.090196 0.397059 0.979412
0.132720 0.401961 0.980269
0.293137 0.413725 0.980392
0.439706 0.427329 0.976471
0.576470 0.450000 0.976471
0.700000 0.477941 0.972549
0.808579 0.500000 0.969362
0.895098 0.507843 0.969975
0.905882 0.503921 0.972549
0.095588 0.481863 0.980392
0.125980 0.485784 0.980392
0.284681 0.500490 0.983211
0.435784 0.509313 0.975552
0.576470 0.527696 0.972549
0.696630 0.551471 0.968627
0.810784 0.573039 0.968627
0.895098 0.581373 0.968627
0.913725 0.577451 0.972549
0.076470 0.564706 0.982353
0.095588 0.570588 0.980392
0.228432 0.585294 0.983824
0.410784 0.597304 0.977941
0.565686 0.616667 0.971569
0.696078 0.634804 0.969853
0.810784 0.655392 0.968627
0.899019 0.662500 0.968627
0.925490 0.658824 0.968627
0.086275 0.680392 0.986765
0.087562 0.682537 0.984314
0.128799 0.682230 0.984314
0.338787 0.690686 0.980392
0.526471 0.702451 0.972549
0.679473 0.721140 0.968627
0.803554 0.736642 0.967524
0.897733 0.748039 0.968627
0.929412 0.745588 0.968627
0.110784 0.787255 0.983334
0.110784 0.787255 0.980392
0.110049 0.787255 0.980392
0.273652 0.788235 0.977941
0.473530 0.791176 0.972549
0.634804 0.796569 0.965686
0.779657 0.813971 0.968627
0.887746 0.829412 0.968627
0.933333 0.822549 0.964706
0.193628 0.879412 0.968137
0.193628 0.876471 0.968566
0.193628 0.878554 0.968137
0.193628 0.878125 0.968137
0.416177 0.875981 0.964706
0.602634 0.877267 0.960784
0.748039 0.883333 0.964216
0.867647 0.895098 0.968137
0.936765 0.898529 0.972059
0.286275 0.945098 0.952941
0.286275 0.945098 0.952941
0.286275 0.945098 0.952941
0.286275 0.945098 0.952941
0.300000 0.945098 0.952941
0.534314 0.941176 0.949020
0.706863 0.942157 0.950000
0.837255 0.949020 0.956863
0.929412 0.952941 0.968627
