public/luts/builtin/kodak_ektar_100.cube
TITLE "Kodak-Ektar-100"
LUT_3D_SIZE 5
0.000000 0.000000 0.000000
0.197059 0.007843 0.007843
0.466667 0.000000 0.013725
0.745098 0.012745 0.079411
0.894118 0.125490 0.149020
0.000000 0.166666 0.042157
0.149265 0.184314 0.013236
0.463235 0.157843 0.049019
0.755147 0.183333 0.115931
0.904902 0.262745 0.187255
0.015686 0.413725 0.133333
0.029412 0.414706 0.131863
0.437255 0.444117 0.116667
0.768628 0.467647 0.197549
0.931372 0.517647 0.276471
0.123530 0.669608 0.321569
0.122794 0.669608 0.323775
0.317647 0.678432 0.315686
0.732598 0.698775 0.286030
0.952941 0.728431 0.391176
0.266667 0.858824 0.564706
0.269608 0.858824 0.567647
0.427451 0.862745 0.588235
0.682353 0.882353 0.592157
0.929412 0.898039 0.603922
0.003922 0.000000 0.203922
0.174265 0.008823 0.217402
0.459314 0.000000 0.223529
0.741177 0.083333 0.261765
0.901961 0.210785 0.303921
0.000000 0.181128 0.188971
0.158762 0.199816 0.212500
0.455270 0.210784 0.239216
0.752942 0.252267 0.286520
0.915931 0.323775 0.333333
0.017647 0.436275 0.285784
0.080025 0.442157 0.290931
0.452206 0.466912 0.282843
0.772549 0.498039 0.337132
0.941176 0.548039 0.399020
0.137500 0.681372 0.415931
0.137500 0.681556 0.416666
0.351348 0.693995 0.424019
0.737071 0.714032 0.388235
0.952206 0.743872 0.474510
0.266667 0.866667 0.599020
0.273529 0.866667 0.602206
0.447059 0.870588 0.628432
0.689951 0.886275 0.630392
0.933333 0.905882 0.642157
0.000000 0.029412 0.445098
0.189706 0.039216 0.458823
0.458823 0.076470 0.479412
0.746078 0.164706 0.501961
0.913725 0.260784 0.513726
0.000000 0.214706 0.430882
0.183946 0.233333 0.454902
0.469608 0.249020 0.484314
0.755882 0.289216 0.509804
0.921079 0.353922 0.532843
0.009804 0.475490 0.477451
0.165931 0.488235 0.492892
0.482843 0.506372 0.516667
0.772549 0.542892 0.550980
0.949020 0.588235 0.592157
0.165686 0.716666 0.563725
0.163848 0.714706 0.563725
0.422794 0.726471 0.595833
0.748284 0.746078 0.579780
0.954902 0.780392 0.643627
0.266667 0.874510 0.627451
0.270588 0.874510 0.643137
0.474510 0.885295 0.701961
0.707353 0.900000 0.721569
0.933333 0.917647 0.725491
0.003922 0.135294 0.725491
0.219608 0.163725 0.742157
0.520098 0.219608 0.752942
0.768628 0.270588 0.765441
0.901961 0.318628 0.748039
0.000245 0.272549 0.710784
0.213971 0.298468 0.733885
0.521691 0.330392 0.752574
0.775184 0.358517 0.768628
0.913725 0.399755 0.752942
0.003922 0.522059 0.733333
0.175490 0.532598 0.747059
0.512255 0.550980 0.760784
0.787500 0.579779 0.780393
0.940686 0.602451 0.777451
0.160049 0.756863 0.756127
0.157843 0.756863 0.756495
0.468873 0.760784 0.763725
0.760784 0.779596 0.780392
0.949755 0.799755 0.807598
0.277451 0.899020 0.755882
0.277451 0.899020 0.758824
0.286274 0.899020 0.759804
0.734804 0.917892 0.825490
0.933333 0.937255 0.849020
0.086275 0.301961 0.976471
0.294118 0.329412 0.973529
0.578431 0.382353 0.972549
0.810784 0.455882 0.968627
0.901961 0.482353 0.972549
0.090196 0.397059 0.979412
0.293137 0.413725 0.980392
0.576470 0.450000 0.976471
0.808579 0.500000 0.969362
0.905882 0.503921 0.972549
0.076470 0.564706 0.982353
0.228432 0.585294 0.983824
0.565686 0.616667 0.971569
0.810784 0.655392 0.968627
0.925490 0.658824 0.968627
0.110784 0.787255 0.983334
0.110049 0.787255 0.980392
0.473530 0.791176 0.972549
0.779657 0.813971 0.968627
0.933333 0.822549 0.964706
0.286275 0.945098 0.952941
0.286275 0.945098 0.952941
0.300000 0.945098 0.952941
0.706863 0.942157 0.950000
0.929412 0.952941 0.968627
