public/luts/builtin/kodak_portra_400.cube
TITLE "Kodak-Portra-400"
LUT_3D_SIZE 9
0.035294 0.039216 0.039216
0.065687 0.039216 0.039216
0.130392 0.042157 0.043137
0.273530 0.030392 0.047059
0.466666 0.000000 0.047059
0.630882 0.000000 0.054902
0.759804 0.000000 0.084314
0.864216 0.022059 0.138235
0.945098 0.180392 0.203922
0.031373 0.069608 0.046569
0.062194 0.073101 0.043566
0.160294 0.091789 0.039216
0.319608 0.096262 0.035784
0.503186 0.067892 0.035784
0.656372 0.025000 0.052451
0.772426 0.037255 0.088236
0.871140 0.124571 0.142156
0.949020 0.223039 0.207843
0.000000 0.159804 0.058824
0.018627 0.156005 0.062745
0.137990 0.190196 0.043137
0.372549 0.240686 0.000000
0.568137 0.239216 0.000000
0.696936 0.220098 0.023529
0.798039 0.219608 0.088236
0.883701 0.251471 0.150368
0.955882 0.310784 0.219608
0.000000 0.320588 0.076961
0.000000 0.314216 0.084314
0.030883 0.321569 0.084314
0.305821 0.371569 0.025613
0.564951 0.405147 0.000000
0.733762 0.403860 0.000000
0.828921 0.387255 0.081740
0.901654 0.392831 0.165993
0.960784 0.421569 0.239216
0.000000 0.460784 0.143138
0.000000 0.457108 0.147058
0.000000 0.447059 0.156863
0.232108 0.471078 0.149755
0.469608 0.514706 0.121568
0.691667 0.539215 0.106617
0.821569 0.541176 0.142157
0.914705 0.539216 0.193382
0.964706 0.541176 0.268628
0.000000 0.566667 0.231863
0.000000 0.565196 0.234008
0.101348 0.557353 0.239706
0.244179 0.551961 0.247549
0.410294 0.585294 0.243627
0.598958 0.620098 0.237255
0.781372 0.647549 0.244608
0.881863 0.651471 0.279902
0.951471 0.655392 0.324510
0.183334 0.657843 0.320588
0.209314 0.656863 0.324510
0.261030 0.650735 0.324510
0.328309 0.642157 0.332353
0.424510 0.653431 0.336274
0.556373 0.681863 0.344117
0.704902 0.708823 0.349020
0.842769 0.732353 0.367647
0.916667 0.739216 0.410784
0.359314 0.738726 0.421569
0.370159 0.738726 0.421569
0.393627 0.735662 0.425000
0.434007 0.730882 0.428922
0.483824 0.726961 0.433334
0.571385 0.743627 0.444791
0.674877 0.765319 0.456495
0.781863 0.781801 0.469057
0.885785 0.800490 0.491667
0.513725 0.811765 0.545098
0.517647 0.811765 0.549020
0.532353 0.811765 0.549020
0.555392 0.807843 0.552941
0.586275 0.807843 0.560784
0.634314 0.807843 0.568627
0.700000 0.823529 0.580392
0.773529 0.839216 0.592157
0.850980 0.854902 0.603922
0.035294 0.039216 0.069608
0.065687 0.039216 0.066177
0.130392 0.043137 0.076593
0.277451 0.016483 0.087745
0.462745 0.000000 0.103186
0.623039 0.000000 0.129228
0.749387 0.016912 0.157353
0.852451 0.121569 0.199510
0.933823 0.230393 0.253922
0.028370 0.077451 0.077022
0.069232 0.081319 0.080944
0.155882 0.088725 0.087546
0.308494 0.092341 0.096408
0.491881 0.075949 0.108333
0.644631 0.066544 0.129412
0.760999 0.108716 0.160294
0.859490 0.178983 0.203378
0.937745 0.264706 0.257844
0.000000 0.182965 0.100123
0.025659 0.180224 0.101302
0.152543 0.201593 0.096661
0.383793 0.240150 0.080392
0.556005 0.233579 0.096385
0.683701 0.230132 0.128922
0.786765 0.242647 0.167126
0.874786 0.278876 0.211596
0.945098 0.334681 0.268260
0.000000 0.341177 0.130698
0.000000 0.337255 0.134620
0.079473 0.332858 0.140947
0.322120 0.379220 0.118513
0.568719 0.408333 0.103094
0.727084 0.406863 0.123039
0.817524 0.396385 0.176149
0.893651 0.406150 0.229144
0.952941 0.436765 0.285111
0.000000 0.472304 0.191176
0.000000 0.468597 0.194608
0.055576 0.459069 0.201777
0.259222 0.474908 0.201470
0.481127 0.516666 0.187745
0.691667 0.542984 0.187347
0.819118 0.545527 0.213235
0.906648 0.546814 0.256373
0.956863 0.549019 0.314706
0.000000 0.573039 0.264890
0.042892 0.570672 0.266483
0.172074 0.564828 0.270404
0.278431 0.557284 0.277650
0.425153 0.585294 0.278248
0.606503 0.621568 0.277941
0.778922 0.648483 0.289216
0.878270 0.655392 0.321569
0.947549 0.659314 0.360600
0.227451 0.661642 0.343627
0.246568 0.660417 0.346523
0.291299 0.654565 0.347549
0.351333 0.647043 0.351471
0.435846 0.653431 0.359253
0.563710 0.681863 0.367157
0.707567 0.711029 0.375000
0.842647 0.734972 0.395359
0.916667 0.739216 0.436765
0.374510 0.742156 0.436336
0.385356 0.742156 0.436336
0.408333 0.738343 0.440196
0.446607 0.734045 0.442992
0.493168 0.726961 0.448070
0.577183 0.743627 0.457928
0.678309 0.765319 0.471691
0.785294 0.781801 0.487263
0.885356 0.800919 0.510294
0.521079 0.815686 0.556373
0.525429 0.811765 0.556373
0.539828 0.811765 0.556863
0.562745 0.809314 0.560784
0.593627 0.807843 0.568382
0.634314 0.807843 0.576165
0.700980 0.820956 0.588235
0.774020 0.839216 0.600000
0.850980 0.854902 0.611765
0.028431 0.046078 0.149019
0.076593 0.043505 0.149019
0.149019 0.047059 0.152941
0.289216 0.026471 0.179902
0.477941 0.000000 0.198039
0.628799 0.000000 0.211764
0.740931 0.068628 0.242157
0.828922 0.209314 0.289216
0.910784 0.296078 0.334314
0.001961 0.089216 0.172059
0.066560 0.089200 0.175751
0.167157 0.095711 0.175245
0.316054 0.097059 0.194700
0.492034 0.077696 0.207598
0.632353 0.099954 0.225490
0.737500 0.185172 0.261275
0.830760 0.256863 0.299510
0.914705 0.322671 0.338235
0.000000 0.209804 0.191176
0.000000 0.213726 0.197978
0.183885 0.221385 0.210784
0.359834 0.234222 0.221814
0.519730 0.246691 0.236029
0.651134 0.265073 0.256005
0.756127 0.290932 0.279963
0.848254 0.329136 0.311029
0.924755 0.379657 0.350000
0.000000 0.372059 0.223652
0.000000 0.375751 0.234191
0.180239 0.367954 0.245496
0.356924 0.391207 0.245220
0.574571 0.418198 0.252451
0.702573 0.415395 0.272840
0.791146 0.417739 0.297549
0.870542 0.434130 0.329412
0.934314 0.465196 0.368137
0.041177 0.499020 0.288235
0.101409 0.495343 0.284804
0.209681 0.487255 0.288358
0.319608 0.481801 0.292647
0.504167 0.523529 0.294118
0.690931 0.549265 0.304657
0.813358 0.558824 0.324877
0.888236 0.556863 0.355944
0.941176 0.565686 0.395098
0.187132 0.590563 0.335784
0.214798 0.587745 0.335922
0.272396 0.580147 0.337714
0.342999 0.569424 0.341789
0.456801 0.589216 0.348468
0.618199 0.624709 0.354412
0.778554 0.653738 0.373162
0.871446 0.662914 0.400490
0.939706 0.670098 0.434191
0.302206 0.669608 0.396078
0.317402 0.669363 0.396078
0.350674 0.664338 0.397058
0.399142 0.656679 0.400000
0.464583 0.654534 0.405882
0.578186 0.681863 0.417157
0.713297 0.712745 0.430821
0.839706 0.735294 0.455668
0.912745 0.743137 0.490196
0.411397 0.746078 0.471078
0.419669 0.746078 0.471078
0.439767 0.742248 0.474020
0.473529 0.738235 0.475000
0.513971 0.730637 0.478921
0.588235 0.743627 0.489844
0.685294 0.762745 0.505637
0.785294 0.781847 0.522427
0.885417 0.804412 0.548897
0.533333 0.815686 0.575490
0.539828 0.815686 0.575490
0.552696 0.812500 0.579412
0.574387 0.811765 0.580392
0.601961 0.807843 0.587255
0.642157 0.807843 0.593260
0.703922 0.820588 0.606863
0.777451 0.835784 0.619118
0.850980 0.854902 0.631373
0.000000 0.047059 0.298529
0.065870 0.045772 0.298529
0.198530 0.039216 0.305392
0.337807 0.010784 0.310294
0.491422 0.000000 0.317647
0.639706 0.072488 0.331373
0.748039 0.147549 0.343505
0.836765 0.225797 0.364706
0.913725 0.296569 0.393137
0.000000 0.099203 0.315503
0.043827 0.100797 0.317647
0.206679 0.106786 0.321569
0.355392 0.106373 0.325490
0.502788 0.125153 0.329902
0.641176 0.169118 0.342716
0.747074 0.215288 0.354856
0.833272 0.270811 0.374426
0.909804 0.332353 0.404412
0.000000 0.226471 0.333211
0.000000 0.228922 0.338634
0.207598 0.236611 0.346078
0.377742 0.254289 0.348667
0.518382 0.277941 0.356618
0.642708 0.295650 0.364537
0.743014 0.317770 0.375153
0.827328 0.355928 0.396569
0.898039 0.412745 0.431373
0.000000 0.399571 0.351593
0.000000 0.402022 0.355254
0.206970 0.405944 0.364277
0.400529 0.411129 0.380308
0.541544 0.418015 0.388266
0.652390 0.426065 0.396546
0.748958 0.441789 0.410784
0.833326 0.461275 0.429902
0.905882 0.492157 0.457414
0.070833 0.522794 0.366176
0.178370 0.522059 0.373774
0.307843 0.522059 0.389951
0.410325 0.513297 0.403156
0.534436 0.534559 0.410172
0.690196 0.559743 0.426226
0.790380 0.564706 0.443505
0.859314 0.568781 0.460784
0.916421 0.580882 0.487745
0.296997 0.610784 0.419608
0.329105 0.609865 0.426961
0.382843 0.606863 0.432966
0.429412 0.597319 0.432353
0.498254 0.594669 0.436275
0.636359 0.631863 0.451042
0.775000 0.659513 0.472549
0.864032 0.672725 0.499395
0.923039 0.678003 0.523100
0.397549 0.684927 0.475000
0.405040 0.684927 0.473392
0.424020 0.681005 0.471446
0.462133 0.672472 0.471446
0.507843 0.662500 0.471998
0.599050 0.684804 0.485754
0.721048 0.715686 0.505086
0.835784 0.739216 0.534314
0.904902 0.750981 0.563358
0.457353 0.754228 0.524020
0.464622 0.753921 0.525306
0.483517 0.750307 0.527451
0.511765 0.746078 0.527451
0.547641 0.738389 0.527635
0.600980 0.739706 0.535846
0.693137 0.762745 0.553110
0.789215 0.784865 0.575000
0.881863 0.804902 0.605392
0.555392 0.819608 0.606373
0.559314 0.819608 0.608824
0.571078 0.815686 0.610294
0.591605 0.815686 0.610294
0.617647 0.811765 0.614216
0.650980 0.807843 0.619608
0.707843 0.819608 0.633824
0.777451 0.835784 0.649510
0.853431 0.854902 0.661275
0.000000 0.056863 0.437255
0.030147 0.056863 0.439216
0.214216 0.052941 0.443137
0.379412 0.054167 0.450981
0.525490 0.040196 0.454902
0.641176 0.113725 0.445833
0.751961 0.225490 0.457843
0.836765 0.291177 0.472794
0.909804 0.352942 0.492157
0.000000 0.118383 0.447059
0.027022 0.122059 0.450276
0.223775 0.129779 0.453554
0.389706 0.145833 0.458640
0.532230 0.152941 0.462745
0.645098 0.200000 0.453432
0.748162 0.278431 0.466973
0.836274 0.328983 0.480392
0.906127 0.375980 0.497794
0.000000 0.244608 0.460784
0.012010 0.245833 0.464032
0.238480 0.257721 0.467770
0.407659 0.280392 0.472059
0.542892 0.297059 0.476716
0.645098 0.328248 0.471936
0.744117 0.370098 0.485417
0.828554 0.396078 0.495159
0.900490 0.427941 0.509314
0.000000 0.391912 0.469853
0.000000 0.393719 0.471814
0.240992 0.401042 0.479167
0.420405 0.417095 0.491146
0.550858 0.435294 0.496569
0.647549 0.453677 0.502451
0.740196 0.464216 0.507108
0.820772 0.473836 0.512990
0.891667 0.491667 0.524755
0.015686 0.540196 0.486274
0.146568 0.540196 0.489093
0.295343 0.542157 0.495833
0.436887 0.545098 0.507721
0.563235 0.549019 0.524020
0.659926 0.554289 0.529412
0.745588 0.558333 0.535539
0.821814 0.569731 0.545343
0.887255 0.586275 0.562745
0.304657 0.632353 0.497549
0.338235 0.632353 0.501471
0.405392 0.630208 0.510784
0.491177 0.628431 0.526226
0.561397 0.619975 0.536029
0.653891 0.640165 0.548529
0.774019 0.666360 0.571262
0.849847 0.675000 0.587990
0.900000 0.678922 0.601471
0.418627 0.701961 0.538235
0.436826 0.701961 0.541789
0.475000 0.700000 0.549265
0.529289 0.696263 0.559804
0.565196 0.686275 0.555882
0.621078 0.685478 0.560049
0.731373 0.719608 0.583824
0.832108 0.743321 0.613174
0.899510 0.758333 0.636275
0.501471 0.765686 0.589216
0.514491 0.765686 0.591176
0.535539 0.763542 0.595282
0.555882 0.759651 0.592647
0.586765 0.751961 0.589216
0.623529 0.742310 0.589216
0.700919 0.762622 0.609314
0.793137 0.785294 0.632567
0.881863 0.808823 0.663236
0.586275 0.825490 0.654902
0.590196 0.823529 0.654902
0.597549 0.823529 0.650980
0.612990 0.820343 0.652206
0.639216 0.816666 0.653922
0.668137 0.811765 0.656863
0.711765 0.816176 0.665686
0.781372 0.835784 0.684314
0.854902 0.858824 0.700000
0.000000 0.087745 0.558823
0.030699 0.089216 0.558823
0.226961 0.097059 0.562745
0.387806 0.115196 0.570037
0.543872 0.159804 0.575735
0.663787 0.179902 0.578431
0.748039 0.240319 0.561642
0.836274 0.334804 0.576961
0.904412 0.410784 0.596569
0.000000 0.152941 0.562745
0.080515 0.156863 0.564890
0.243949 0.165809 0.568275
0.400184 0.186765 0.572924
0.549755 0.226225 0.578431
0.665625 0.246078 0.582238
0.748039 0.291544 0.567203
0.832683 0.369010 0.581373
0.900674 0.433824 0.600490
0.006250 0.268137 0.572426
0.137439 0.272059 0.573039
0.277757 0.284651 0.575888
0.421890 0.305882 0.580653
0.560478 0.337071 0.587010
0.665625 0.352328 0.589829
0.744117 0.383333 0.580147
0.825858 0.437623 0.596615
0.894118 0.478309 0.611642
0.036152 0.395588 0.574510
0.168260 0.402321 0.576961
0.308073 0.414829 0.584804
0.440257 0.428493 0.591521
0.568627 0.451532 0.597794
0.666238 0.466728 0.603493
0.740196 0.486765 0.600459
0.818444 0.518811 0.616483
0.885356 0.534252 0.624020
0.153431 0.525490 0.586765
0.215349 0.527941 0.588480
0.321017 0.530331 0.592157
0.440227 0.536060 0.599295
0.569608 0.550368 0.612868
0.667157 0.566942 0.619638
0.740196 0.579106 0.626287
0.812990 0.585784 0.630637
0.877696 0.589706 0.631863
0.280698 0.643628 0.604044
0.315318 0.643628 0.604963
0.387163 0.643628 0.608885
0.478837 0.645711 0.616521
0.576899 0.647549 0.627481
0.673736 0.651815 0.643260
0.748897 0.656311 0.646017
0.814469 0.659429 0.651356
0.871507 0.669608 0.660233
0.422549 0.721078 0.612868
0.440809 0.721078 0.614844
0.479412 0.719975 0.620282
0.539215 0.717157 0.628140
0.607414 0.714154 0.640870
0.663235 0.706082 0.647779
0.740870 0.727451 0.664216
0.830408 0.750123 0.689798
0.889093 0.759191 0.704779
0.507353 0.778738 0.642647
0.518359 0.777451 0.645014
0.544562 0.777145 0.649632
0.583709 0.773529 0.656174
0.634651 0.770251 0.667984
0.664346 0.760845 0.663059
0.711535 0.762255 0.667157
0.797058 0.789215 0.697549
0.878431 0.814032 0.724510
0.588235 0.835294 0.691667
0.595772 0.832843 0.693137
0.610785 0.831741 0.695588
0.644118 0.831373 0.705882
0.665441 0.827451 0.704902
0.690748 0.821078 0.703431
0.720711 0.815686 0.704902
0.781372 0.835784 0.723039
0.854902 0.858824 0.738725
0.008823 0.143137 0.673529
0.134926 0.147917 0.673529
0.271569 0.162010 0.674510
0.413235 0.188725 0.678432
0.553431 0.227941 0.682353
0.679289 0.282843 0.687378
0.770833 0.302696 0.689216
0.831495 0.346569 0.669608
0.898039 0.431373 0.680392
0.098530 0.204412 0.673529
0.176746 0.208333 0.674494
0.292616 0.220190 0.677451
0.426057 0.242647 0.680269
0.560600 0.278738 0.685294
0.680867 0.327405 0.689216
0.768382 0.342494 0.689216
0.828431 0.380407 0.673208
0.894118 0.454412 0.684314
0.179412 0.307108 0.677451
0.234835 0.311673 0.677451
0.331127 0.322181 0.678003
0.449112 0.341207 0.681372
0.571814 0.368627 0.685662
0.683119 0.407353 0.693137
0.764461 0.418627 0.693137
0.822580 0.445313 0.680484
0.887010 0.501716 0.692157
0.242402 0.425858 0.677451
0.278998 0.426471 0.681372
0.361642 0.431771 0.681372
0.468689 0.446768 0.685294
0.580882 0.467586 0.691912
0.683594 0.496078 0.697059
0.760080 0.506464 0.700980
0.816666 0.525536 0.691268
0.878431 0.565686 0.704534
0.229412 0.523529 0.677451
0.271079 0.525490 0.677451
0.356372 0.529534 0.681372
0.471936 0.542586 0.689216
0.580637 0.555882 0.697794
0.682843 0.577941 0.705453
0.755882 0.590686 0.710294
0.812745 0.604228 0.708088
0.868627 0.631373 0.720098
0.309804 0.633333 0.689216
0.336764 0.633333 0.690319
0.395404 0.635172 0.692524
0.473958 0.635172 0.696308
0.564522 0.635784 0.701225
0.674081 0.650552 0.715824
0.754167 0.667770 0.723438
0.808823 0.678263 0.727635
0.862745 0.682966 0.731373
0.392647 0.729902 0.703431
0.411765 0.729902 0.704902
0.456373 0.729902 0.707353
0.519976 0.727696 0.711734
0.596201 0.730637 0.719240
0.678094 0.731373 0.727543
0.754963 0.735723 0.741850
0.809467 0.739951 0.743872
0.862745 0.742402 0.744853
0.515196 0.792770 0.708333
0.526470 0.792770 0.709191
0.552941 0.790073 0.712255
0.593888 0.788986 0.718643
0.644118 0.786152 0.725735
0.701057 0.782230 0.735478
0.743780 0.775031 0.739951
0.804856 0.793137 0.755392
0.882353 0.820221 0.774877
0.592157 0.844118 0.738235
0.599510 0.844118 0.739216
0.614706 0.844118 0.742156
0.641667 0.843137 0.746079
0.676470 0.840196 0.750981
0.719118 0.836275 0.758211
0.743137 0.828431 0.754902
0.785294 0.831863 0.761764
0.858824 0.862745 0.781373
0.226470 0.229412 0.773529
0.271568 0.236336 0.774020
0.355760 0.248897 0.774020
0.465686 0.274510 0.774020
0.580882 0.307108 0.777451
0.690686 0.352941 0.777942
0.782475 0.401103 0.777942
0.851961 0.413726 0.777942
0.894118 0.444117 0.758824
0.260294 0.275000 0.770098
0.298154 0.281924 0.773529
0.374525 0.293628 0.773575
0.477145 0.312745 0.774020
0.586550 0.343198 0.775950
0.691177 0.383640 0.777451
0.782368 0.428064 0.777942
0.848039 0.440143 0.777942
0.890686 0.466667 0.761826
0.306863 0.358946 0.770098
0.337469 0.362745 0.770098
0.405116 0.373560 0.772886
0.496217 0.389047 0.773529
0.596262 0.412623 0.774020
0.694608 0.444592 0.777451
0.779136 0.482139 0.781372
0.844117 0.489384 0.780193
0.883701 0.511887 0.762255
0.337745 0.454902 0.770098
0.365794 0.455354 0.770098
0.426379 0.462883 0.770098
0.510294 0.475620 0.773529
0.602604 0.494853 0.774020
0.695098 0.519233 0.777451
0.776823 0.551149 0.781372
0.836006 0.554902 0.781372
0.874510 0.570098 0.769607
0.341176 0.541667 0.766177
0.371354 0.543628 0.767678
0.432537 0.549448 0.769853
0.508823 0.555147 0.773529
0.602451 0.569853 0.776593
0.691085 0.589859 0.779228
0.770588 0.616238 0.783824
0.827972 0.622304 0.785294
0.866667 0.635294 0.777451
0.345098 0.627941 0.766177
0.366521 0.627941 0.767463
0.412087 0.627941 0.767463
0.484069 0.629588 0.769607
0.585294 0.638480 0.775644
0.681556 0.654105 0.781372
0.763358 0.677574 0.787163
0.819010 0.689706 0.789215
0.858824 0.700980 0.788909
0.410294 0.720588 0.773529
0.425490 0.720588 0.773529
0.462224 0.720588 0.774510
0.518643 0.720466 0.777451
0.587684 0.719240 0.777880
0.663772 0.719240 0.781372
0.754167 0.732353 0.792770
0.812745 0.750123 0.798039
0.858947 0.757843 0.804535
0.485110 0.800123 0.781434
0.499502 0.796637 0.781434
0.526409 0.796630 0.784865
0.572572 0.796630 0.785294
0.630362 0.796630 0.789215
0.693604 0.796201 0.793137
0.754902 0.797059 0.800659
0.816613 0.804527 0.812370
0.867586 0.805331 0.813603
0.595588 0.858824 0.789215
0.603003 0.858824 0.792647
0.618627 0.858824 0.793137
0.645588 0.858824 0.796875
0.680392 0.855392 0.800735
0.719118 0.855392 0.804902
0.761764 0.851470 0.808823
0.800980 0.847059 0.809252
0.866667 0.867157 0.827941
0.400000 0.345098 0.850980
0.423039 0.349020 0.850980
0.472549 0.360784 0.850980
0.544608 0.378922 0.847059
0.629412 0.405883 0.847059
0.716667 0.440686 0.847059
0.794118 0.480392 0.847059
0.859314 0.514215 0.847059
0.909804 0.521569 0.847059
0.415196 0.375981 0.847059
0.434804 0.379841 0.847059
0.483824 0.390319 0.847059
0.552451 0.405882 0.847059
0.633333 0.428922 0.847059
0.718137 0.459804 0.847059
0.794118 0.498529 0.847059
0.855882 0.529841 0.847059
0.905882 0.537255 0.847059
0.438236 0.436275 0.847059
0.457353 0.437255 0.847059
0.500000 0.445098 0.847059
0.565318 0.459314 0.847059
0.641177 0.478431 0.847059
0.720588 0.505392 0.847059
0.794118 0.536520 0.847059
0.852818 0.566666 0.847059
0.901961 0.570588 0.847059
0.457353 0.506863 0.843137
0.474020 0.509007 0.843137
0.514583 0.514706 0.843137
0.573530 0.525000 0.843137
0.647058 0.540196 0.843137
0.720588 0.560233 0.845527
0.790196 0.586274 0.847059
0.848039 0.612745 0.847059
0.894118 0.614216 0.847059
0.462745 0.578431 0.843137
0.474020 0.576470 0.843137
0.512255 0.580392 0.843137
0.569608 0.588236 0.843137
0.642157 0.600000 0.843137
0.716667 0.616422 0.843137
0.786275 0.637745 0.847059
0.843872 0.662991 0.847059
0.888235 0.664706 0.847059
0.422059 0.642157 0.839216
0.441176 0.642157 0.839216
0.485294 0.646078 0.839216
0.551900 0.650000 0.842586
0.624020 0.655147 0.843137
0.703983 0.670527 0.847059
0.777329 0.689829 0.847059
0.836274 0.713051 0.850980
0.882353 0.716667 0.852451
0.451960 0.724510 0.840196
0.463358 0.723530 0.840196
0.490196 0.721324 0.840196
0.535294 0.720588 0.843137
0.594608 0.718137 0.843137
0.681863 0.724633 0.847059
0.762010 0.738480 0.850980
0.831005 0.757966 0.855025
0.878431 0.765686 0.858824
0.502941 0.801471 0.847059
0.514215 0.801471 0.847059
0.537255 0.800980 0.847059
0.574204 0.800980 0.847059
0.624020 0.797304 0.847549
0.677941 0.793628 0.850980
0.735661 0.789706 0.851470
0.815809 0.800552 0.862745
0.878431 0.816666 0.870588
0.564706 0.870588 0.854902
0.572059 0.870588 0.854902
0.588235 0.870588 0.857843
0.618137 0.870588 0.858824
0.654902 0.870588 0.858824
0.699510 0.870588 0.862745
0.747059 0.870588 0.866667
0.808823 0.871078 0.874510
0.882353 0.882353 0.886275
