public/luts/builtin/kodak_gold_200.cube
TITLE "Kodak-Gold-200"
LUT_3D_SIZE 9
0.050980 0.047059 0.047059
0.116176 0.043627 0.043137
0.231373 0.039216 0.039216
0.354902 0.035294 0.035294
0.443137 0.035294 0.031373
0.504902 0.035294 0.031373
0.550000 0.035294 0.031373
0.580882 0.035294 0.031373
0.600000 0.035294 0.031373
0.093138 0.142647 0.058334
0.158762 0.127451 0.050551
0.277451 0.104044 0.043137
0.397243 0.078431 0.035294
0.489706 0.054167 0.031373
0.545588 0.041360 0.031373
0.575613 0.035294 0.031373
0.595588 0.035294 0.031373
0.603922 0.035294 0.031373
0.162745 0.315686 0.082353
0.212255 0.273897 0.067035
0.327451 0.250000 0.054167
0.448529 0.219117 0.043627
0.540196 0.185294 0.032843
0.597059 0.153431 0.031373
0.629412 0.116667 0.031373
0.649019 0.085907 0.031373
0.652941 0.067647 0.031373
0.232353 0.490686 0.105882
0.280576 0.432843 0.082659
0.394976 0.412255 0.069485
0.521507 0.405943 0.065196
0.607353 0.397549 0.057353
0.658824 0.377451 0.044669
0.692157 0.316789 0.034926
0.714706 0.251471 0.031373
0.721078 0.202941 0.031373
0.294118 0.631373 0.129412
0.347549 0.583088 0.098529
0.465687 0.562745 0.078921
0.600735 0.573039 0.076470
0.691177 0.594118 0.071569
0.738725 0.588725 0.060049
0.769608 0.539216 0.043137
0.790686 0.475490 0.035294
0.796079 0.417648 0.035294
0.334804 0.729902 0.145098
0.403922 0.708333 0.106372
0.527451 0.703921 0.082353
0.663726 0.718137 0.078983
0.763726 0.735294 0.076470
0.816176 0.734375 0.065196
0.847059 0.708334 0.048162
0.869608 0.666973 0.039216
0.875000 0.616667 0.039216
0.345098 0.818627 0.128432
0.425980 0.810784 0.097549
0.572549 0.817647 0.081373
0.720588 0.832843 0.085172
0.825000 0.842157 0.087255
0.881863 0.846078 0.079411
0.912745 0.837500 0.063480
0.934436 0.811274 0.044118
0.942157 0.781373 0.039216
0.328922 0.899019 0.093628
0.425490 0.899448 0.074939
0.602451 0.907230 0.077573
0.767647 0.921079 0.109314
0.875000 0.934313 0.144117
0.931373 0.938235 0.134620
0.957843 0.936887 0.107230
0.964706 0.926042 0.087255
0.968627 0.907353 0.083824
0.305882 0.949020 0.074510
0.425000 0.949020 0.062745
0.628431 0.956863 0.096078
0.809804 0.960784 0.157843
0.909803 0.964706 0.213726
0.950490 0.968627 0.210294
0.961764 0.968627 0.180392
0.968627 0.968627 0.168627
0.972549 0.968627 0.196078
0.050980 0.047059 0.123529
0.109252 0.043627 0.108333
0.209314 0.039216 0.088725
0.327941 0.035294 0.069608
0.422059 0.035294 0.057843
0.497059 0.035294 0.046569
0.542156 0.035294 0.042647
0.573468 0.035294 0.042647
0.592647 0.035294 0.042647
0.093138 0.173040 0.157843
0.154420 0.135294 0.131426
0.269669 0.105223 0.104779
0.389238 0.078431 0.078270
0.481403 0.054167 0.059804
0.541666 0.041360 0.048713
0.573039 0.035294 0.042647
0.595588 0.035294 0.042647
0.603432 0.035294 0.042647
0.176961 0.369608 0.188725
0.212730 0.312255 0.162194
0.324510 0.279902 0.135570
0.440686 0.241360 0.115548
0.530147 0.196875 0.088848
0.592249 0.156250 0.064706
0.626471 0.116667 0.048499
0.649019 0.082844 0.042647
0.652941 0.061274 0.042647
0.243811 0.548530 0.219608
0.289706 0.496752 0.190303
0.387929 0.466177 0.166054
0.508395 0.459865 0.161274
0.596078 0.427543 0.142341
0.652627 0.381855 0.111833
0.688235 0.322687 0.082705
0.711090 0.255393 0.060294
0.717341 0.197549 0.052941
0.296079 0.675490 0.250245
0.351471 0.631801 0.216146
0.451471 0.611030 0.186764
0.576961 0.616421 0.181863
0.679902 0.620221 0.177206
0.733088 0.594608 0.151471
0.765686 0.552451 0.120588
0.790196 0.490472 0.090227
0.794363 0.427451 0.073775
0.330882 0.772058 0.272059
0.400000 0.741667 0.222059
0.513189 0.733333 0.190686
0.644608 0.741360 0.187561
0.752451 0.753125 0.187163
0.812324 0.752206 0.177451
0.846446 0.725444 0.150077
0.869608 0.685233 0.116667
0.873529 0.638419 0.090503
0.325980 0.856373 0.266789
0.406694 0.834314 0.206250
0.549785 0.826470 0.189001
0.705392 0.838051 0.212913
0.813725 0.851287 0.234804
0.875796 0.856388 0.223162
0.908823 0.849265 0.194118
0.931373 0.817448 0.151838
0.938235 0.784313 0.108824
0.310233 0.922059 0.239644
0.391062 0.918198 0.206748
0.562362 0.911213 0.197534
0.738725 0.918627 0.272059
0.853922 0.932138 0.353186
0.921385 0.939522 0.350574
0.954289 0.940809 0.290089
0.962079 0.929527 0.224571
0.964706 0.907353 0.168137
0.301961 0.952451 0.216177
0.390196 0.955944 0.261275
0.570098 0.959804 0.281250
0.758333 0.960784 0.366177
0.880883 0.964706 0.463971
0.943137 0.968627 0.466667
0.960784 0.968627 0.386152
0.964706 0.968627 0.305392
0.968627 0.968627 0.260784
0.050980 0.047059 0.284314
0.101961 0.043627 0.269118
0.182353 0.039216 0.230392
0.307843 0.035294 0.196569
0.420588 0.035294 0.165686
0.503922 0.035294 0.143628
0.545343 0.035294 0.120833
0.576961 0.035294 0.106373
0.599020 0.035294 0.102941
0.085295 0.180025 0.334313
0.132230 0.135401 0.292601
0.247059 0.108824 0.245925
0.369608 0.082353 0.207843
0.471569 0.059130 0.173530
0.535784 0.041360 0.146890
0.576838 0.035294 0.124724
0.602558 0.035294 0.110187
0.611642 0.035294 0.102941
0.173530 0.418627 0.368873
0.204902 0.345527 0.328094
0.300980 0.291605 0.280392
0.417861 0.249786 0.241667
0.510049 0.204534 0.200368
0.575245 0.160171 0.162255
0.619608 0.119608 0.133640
0.643168 0.085784 0.117647
0.649019 0.060784 0.114461
0.246201 0.606372 0.388725
0.293015 0.549188 0.369608
0.369485 0.497059 0.325858
0.481434 0.469608 0.302972
0.569118 0.436029 0.275981
0.626731 0.385294 0.232414
0.665686 0.323529 0.188235
0.692525 0.257613 0.149280
0.699020 0.201471 0.125000
0.278921 0.721569 0.435294
0.346324 0.682292 0.400490
0.436274 0.643137 0.361765
0.545894 0.634988 0.342157
0.648284 0.630392 0.336029
0.710294 0.602451 0.305882
0.745098 0.556863 0.254780
0.771998 0.494914 0.206005
0.779412 0.429902 0.166666
0.296079 0.814828 0.449020
0.372059 0.784314 0.410294
0.480883 0.757353 0.388204
0.605882 0.753432 0.372059
0.712745 0.757904 0.366667
0.787944 0.756434 0.356985
0.826991 0.729779 0.320588
0.852436 0.685294 0.263726
0.858824 0.638726 0.210417
0.283333 0.891177 0.460049
0.367769 0.869087 0.416146
0.510049 0.846385 0.419792
0.660417 0.844822 0.431005
0.772794 0.851471 0.435539
0.848039 0.854381 0.416299
0.890196 0.852390 0.386336
0.916666 0.818627 0.325368
0.923530 0.780393 0.251961
0.264706 0.948162 0.480270
0.360294 0.937040 0.468137
0.534191 0.918627 0.484927
0.705254 0.918581 0.525613
0.819118 0.921079 0.563051
0.891177 0.934084 0.531863
0.939675 0.937469 0.473131
0.957460 0.926899 0.409605
0.960907 0.903922 0.332966
0.264706 0.956863 0.500981
0.370588 0.960661 0.584926
0.580637 0.960784 0.613480
0.739216 0.964706 0.634436
0.850000 0.968627 0.675490
0.921569 0.968627 0.655882
0.954657 0.968627 0.570588
0.964706 0.968627 0.487745
0.964706 0.968627 0.422549
0.047059 0.047059 0.455392
0.100981 0.043137 0.437745
0.191054 0.039216 0.397549
0.328431 0.035294 0.358824
0.447549 0.035294 0.320098
0.523039 0.035294 0.281373
0.569608 0.035294 0.250491
0.599020 0.035294 0.221569
0.615686 0.035294 0.209804
0.071385 0.173530 0.501471
0.108494 0.125574 0.445588
0.216667 0.108655 0.408823
0.357414 0.099502 0.374020
0.472059 0.078186 0.336857
0.543627 0.054971 0.296753
0.595098 0.040778 0.263235
0.623636 0.035294 0.232659
0.637745 0.035294 0.209804
0.150367 0.427451 0.558210
0.176976 0.346569 0.497013
0.263358 0.285784 0.430147
0.386152 0.257966 0.393137
0.488726 0.222059 0.354412
0.556985 0.179642 0.311765
0.610386 0.135631 0.279044
0.642279 0.098162 0.248759
0.650980 0.076470 0.236274
0.222059 0.642157 0.574020
0.270588 0.576777 0.549020
0.343137 0.512316 0.489706
0.448468 0.470159 0.445121
0.539706 0.434804 0.410815
0.599655 0.382843 0.365625
0.638312 0.319684 0.319240
0.665311 0.252390 0.278432
0.672120 0.199020 0.252390
0.249755 0.753431 0.600491
0.323529 0.714951 0.575490
0.416176 0.673100 0.533333
0.514706 0.645098 0.496814
0.613971 0.628432 0.478431
0.684528 0.598070 0.450735
0.720833 0.541177 0.397304
0.746170 0.468781 0.340196
0.752451 0.396323 0.294608
0.240686 0.846078 0.621569
0.318934 0.815196 0.597059
0.445022 0.784314 0.571569
0.574449 0.763725 0.546079
0.676961 0.761274 0.532843
0.760294 0.756434 0.527451
0.801471 0.729779 0.485294
0.831059 0.675429 0.421752
0.836703 0.615687 0.360294
0.213726 0.918137 0.640686
0.298085 0.896385 0.623713
0.463052 0.868137 0.618137
0.627865 0.851838 0.613434
0.734804 0.851838 0.602206
0.817157 0.850689 0.587684
0.867157 0.845343 0.557353
0.895726 0.815196 0.495098
0.901470 0.776471 0.425981
0.191666 0.956863 0.671569
0.284950 0.948223 0.672243
0.487255 0.927405 0.695144
0.681258 0.918627 0.705086
0.785876 0.918627 0.696416
0.860294 0.926470 0.669547
0.919118 0.930392 0.619623
0.949510 0.923001 0.561765
0.953125 0.903432 0.503922
0.205392 0.964706 0.688235
0.321569 0.964706 0.747855
0.559804 0.964706 0.788235
0.735294 0.964706 0.787745
0.825000 0.968627 0.776716
0.890687 0.968627 0.745588
0.943627 0.968627 0.686275
0.960784 0.968627 0.631066
0.964706 0.968627 0.584804
0.043137 0.047059 0.558824
0.087010 0.043137 0.550980
0.175490 0.041667 0.528431
0.318137 0.039216 0.489706
0.455882 0.035294 0.450981
0.542157 0.035294 0.410294
0.595098 0.035294 0.379412
0.625490 0.035294 0.349019
0.621568 0.035294 0.345098
0.058334 0.163725 0.612990
0.089399 0.112683 0.555821
0.178248 0.104412 0.528431
0.322059 0.104412 0.506464
0.459069 0.099510 0.476226
0.542892 0.074510 0.432047
0.604902 0.053431 0.391054
0.639706 0.040686 0.356128
0.664216 0.038971 0.329412
0.125000 0.416667 0.672549
0.147549 0.325000 0.607108
0.222059 0.263603 0.539951
0.347855 0.253677 0.516483
0.461765 0.239706 0.495098
0.538235 0.204351 0.460294
0.599510 0.161642 0.421079
0.636765 0.124020 0.382843
0.661275 0.099020 0.354412
0.191176 0.649265 0.722059
0.239706 0.568321 0.666667
0.308333 0.491667 0.600980
0.409743 0.457568 0.561274
0.510784 0.432353 0.534314
0.576471 0.392617 0.497549
0.621568 0.332353 0.454596
0.653186 0.269363 0.413725
0.669118 0.216912 0.382843
0.217647 0.774509 0.738235
0.292647 0.730392 0.706372
0.387255 0.681373 0.658334
0.483824 0.646569 0.619118
0.579412 0.623039 0.596078
0.657476 0.592280 0.568137
0.697059 0.536764 0.521569
0.726838 0.453677 0.465686
0.734314 0.376470 0.419608
0.186030 0.864461 0.743873
0.271323 0.836275 0.724020
0.405699 0.805392 0.698529
0.540655 0.774510 0.673039
0.646078 0.763971 0.657843
0.729412 0.754902 0.645037
0.778431 0.725858 0.616177
0.809007 0.662592 0.553523
0.815441 0.588726 0.494608
0.151961 0.934804 0.755882
0.236274 0.910110 0.740196
0.413358 0.881372 0.732353
0.596569 0.858946 0.725490
0.707843 0.852941 0.718628
0.786274 0.849020 0.705882
0.840686 0.841789 0.688235
0.874326 0.811029 0.636274
0.884314 0.767647 0.578431
0.139215 0.960784 0.778922
0.232353 0.953891 0.771354
0.442157 0.938297 0.776471
0.656863 0.924510 0.784651
0.764706 0.922549 0.781373
0.833977 0.926470 0.764859
0.894179 0.926470 0.739216
0.932598 0.922120 0.701961
0.943627 0.903432 0.655882
0.158824 0.968627 0.798040
0.295098 0.968627 0.819117
0.512745 0.968627 0.832843
0.716176 0.968627 0.843137
0.811764 0.968627 0.840196
0.876716 0.968627 0.818872
0.932353 0.968627 0.789216
0.956863 0.968627 0.758578
0.956863 0.968627 0.729412
0.039216 0.047059 0.646078
0.075980 0.047059 0.628247
0.156373 0.043137 0.607843
0.277451 0.040686 0.569669
0.422549 0.039216 0.535784
0.537745 0.036765 0.509742
0.609191 0.036765 0.485784
0.638726 0.036765 0.468627
0.575000 0.036765 0.464706
0.049019 0.146385 0.696263
0.076141 0.104412 0.640464
0.151608 0.095098 0.610876
0.272235 0.095098 0.584314
0.422549 0.095098 0.558487
0.533824 0.083334 0.531863
0.605270 0.061688 0.500980
0.647243 0.043934 0.466177
0.673530 0.042647 0.443628
0.102451 0.373897 0.733211
0.125490 0.295098 0.677451
0.191176 0.240686 0.618995
0.309314 0.236152 0.592279
0.435539 0.234314 0.578432
0.531434 0.216544 0.558824
0.597058 0.183456 0.527941
0.636903 0.144608 0.492693
0.668750 0.113726 0.462255
0.160294 0.600000 0.781311
0.208824 0.521568 0.725000
0.277451 0.458012 0.663235
0.373100 0.429841 0.628922
0.479902 0.419853 0.611765
0.563442 0.397549 0.594815
0.620879 0.343857 0.561274
0.653922 0.285785 0.524020
0.677880 0.237255 0.493137
0.190686 0.755392 0.815196
0.264461 0.711275 0.773682
0.356679 0.665257 0.726471
0.452390 0.634068 0.695098
0.545588 0.605147 0.674510
0.631618 0.582843 0.658609
0.686703 0.534559 0.625919
0.719209 0.457353 0.578186
0.737254 0.384313 0.533823
0.153922 0.863236 0.826470
0.234138 0.837615 0.804718
0.370711 0.809314 0.777941
0.509314 0.778431 0.755821
0.615748 0.760049 0.737255
0.702451 0.748591 0.725981
0.758165 0.721936 0.706480
0.790004 0.658823 0.655094
0.806863 0.583762 0.600981
0.115196 0.942157 0.830392
0.187868 0.919256 0.823667
0.365656 0.890686 0.811765
0.564216 0.866789 0.800368
0.684804 0.855392 0.792647
0.760294 0.848530 0.783441
0.819240 0.840349 0.768903
0.853431 0.810462 0.733839
0.872549 0.765686 0.681863
0.120588 0.964706 0.850490
0.211053 0.960784 0.847694
0.424296 0.945634 0.850490
0.630201 0.934313 0.848345
0.751961 0.930392 0.844210
0.819424 0.930392 0.836635
0.873024 0.926470 0.824418
0.913725 0.919118 0.800819
0.934130 0.903432 0.766176
0.208823 0.968627 0.869608
0.296569 0.968627 0.873345
0.517647 0.968627 0.884927
0.702451 0.968627 0.890748
0.811764 0.968627 0.891667
0.873529 0.968627 0.883824
0.921446 0.968627 0.870711
0.953431 0.968627 0.855392
0.956863 0.968627 0.839706
0.039216 0.050980 0.711765
0.065687 0.050980 0.692647
0.141176 0.047059 0.669608
0.248039 0.043137 0.632353
0.393137 0.043137 0.600000
0.531372 0.040196 0.588725
0.618627 0.040196 0.570588
0.659437 0.040196 0.559681
0.610784 0.040196 0.550000
0.039216 0.126961 0.761887
0.068750 0.096569 0.711014
0.141176 0.089093 0.673529
0.251593 0.088863 0.642157
0.394118 0.086520 0.614951
0.529902 0.081112 0.601471
0.606005 0.064706 0.580882
0.653140 0.047426 0.551471
0.681495 0.046569 0.531373
0.075490 0.328432 0.790196
0.107230 0.264675 0.730637
0.174510 0.223284 0.679657
0.285539 0.221569 0.648774
0.409927 0.225491 0.634191
0.525980 0.221078 0.622855
0.597304 0.189277 0.600980
0.643750 0.148529 0.574020
0.680147 0.118628 0.550981
0.129412 0.538235 0.819118
0.181863 0.472059 0.757353
0.247825 0.425000 0.699142
0.342448 0.398958 0.670098
0.452941 0.394118 0.662255
0.549877 0.385401 0.655024
0.619822 0.344240 0.631495
0.659054 0.287561 0.603922
0.689706 0.237255 0.581495
0.172549 0.718627 0.848039
0.243627 0.677083 0.805821
0.328309 0.635294 0.757353
0.419547 0.603860 0.727941
0.514951 0.578431 0.719118
0.608333 0.566177 0.714706
0.680392 0.530882 0.691177
0.719118 0.455637 0.656373
0.745098 0.384313 0.621568
0.134314 0.851961 0.873039
0.207307 0.829902 0.855254
0.340380 0.798407 0.828156
0.478431 0.769056 0.800000
0.588235 0.748223 0.788419
0.675858 0.735371 0.781005
0.742157 0.714093 0.767739
0.783823 0.656510 0.729595
0.806863 0.582843 0.687623
0.086030 0.941421 0.887255
0.158211 0.923928 0.884314
0.327818 0.894118 0.871140
0.529412 0.867065 0.858119
0.661765 0.853921 0.850000
0.741544 0.846078 0.842157
0.803921 0.836704 0.830392
0.849510 0.807353 0.803431
0.872549 0.765686 0.765686
0.132476 0.965196 0.903431
0.203432 0.961274 0.910294
0.418351 0.950490 0.916912
0.603615 0.940058 0.904780
0.740564 0.936765 0.900245
0.810907 0.934313 0.895711
0.865686 0.930392 0.885294
0.911275 0.922120 0.869179
0.933823 0.903922 0.846568
0.383333 0.969607 0.934314
0.312377 0.968627 0.918627
0.534068 0.968627 0.930392
0.697549 0.968627 0.934314
0.815686 0.968627 0.938235
0.877451 0.968627 0.938235
0.922549 0.968627 0.933578
0.953064 0.968627 0.926961
0.956863 0.968627 0.923530
0.039216 0.050980 0.745588
0.061765 0.050980 0.737745
0.130024 0.047059 0.715196
0.232843 0.047059 0.684314
0.380147 0.043627 0.651470
0.547242 0.043137 0.651960
0.645588 0.043137 0.647059
0.686765 0.043137 0.632353
0.698529 0.043137 0.608823
0.039216 0.107353 0.806863
0.062194 0.085180 0.769171
0.133395 0.081373 0.727451
0.237255 0.081373 0.688687
0.383854 0.081373 0.663450
0.527451 0.077451 0.659153
0.614216 0.066008 0.647059
0.671140 0.050490 0.624019
0.698468 0.047488 0.608823
0.057843 0.283824 0.831863
0.091299 0.234574 0.774020
0.157506 0.206863 0.719455
0.267647 0.206495 0.689446
0.398775 0.210539 0.675368
0.525674 0.211642 0.671446
0.601961 0.191452 0.661489
0.655454 0.152451 0.636152
0.691544 0.121691 0.615686
0.110294 0.484620 0.843443
0.160294 0.426961 0.784314
0.225889 0.391667 0.728968
0.320098 0.371078 0.700980
0.434896 0.368628 0.699020
0.544118 0.365196 0.697059
0.620404 0.340028 0.688358
0.673529 0.283640 0.665686
0.704412 0.236948 0.646569
0.162255 0.681618 0.868627
0.228370 0.639246 0.824050
0.307536 0.598346 0.781863
0.391422 0.567402 0.754075
0.487990 0.544608 0.753432
0.588480 0.536765 0.749510
0.672549 0.515747 0.744608
0.726011 0.446017 0.714216
0.753432 0.374265 0.683333
0.130392 0.832843 0.899510
0.206066 0.813725 0.885784
0.333334 0.773392 0.855040
0.455691 0.744118 0.829052
0.557537 0.722549 0.819761
0.650115 0.711458 0.815196
0.726471 0.696078 0.811274
0.786190 0.647021 0.787439
0.815196 0.578737 0.750490
0.073529 0.938235 0.922059
0.151670 0.919715 0.922059
0.328493 0.885784 0.911244
0.512255 0.854978 0.891805
0.635784 0.845711 0.884804
0.720496 0.838633 0.880882
0.789093 0.829381 0.876961
0.849510 0.807476 0.861275
0.881740 0.773652 0.835294
0.127880 0.965196 0.934252
0.184314 0.961274 0.937316
0.394608 0.950858 0.945374
0.581043 0.941398 0.942095
0.726991 0.938235 0.942095
0.808334 0.938235 0.938664
0.866544 0.934313 0.937377
0.915311 0.926532 0.926524
0.941666 0.919118 0.915686
0.326961 0.972549 0.949510
0.304840 0.972549 0.949020
0.494118 0.968627 0.952941
0.678738 0.968627 0.953431
0.825736 0.968627 0.956863
0.895772 0.968627 0.956863
0.934804 0.968627 0.956863
0.956863 0.968627 0.956863
0.956863 0.968627 0.953431
0.039216 0.050980 0.760784
0.061765 0.050980 0.756863
0.122549 0.050980 0.746079
0.219118 0.047059 0.708823
0.376470 0.047059 0.674510
0.572059 0.047059 0.703431
0.663725 0.047059 0.704902
0.694118 0.047059 0.681863
0.709804 0.047059 0.670588
0.039216 0.092647 0.814706
0.061765 0.081373 0.796078
0.122549 0.081373 0.762622
0.229412 0.081373 0.723039
0.380147 0.081373 0.694118
0.527941 0.077451 0.703431
0.622059 0.069485 0.700981
0.675919 0.054412 0.678431
0.713725 0.050980 0.667157
0.053921 0.252941 0.850980
0.084804 0.207353 0.800980
0.151961 0.192157 0.750981
0.258824 0.195098 0.720098
0.391667 0.199020 0.705882
0.519608 0.206863 0.705882
0.605883 0.194118 0.704167
0.663235 0.155024 0.681005
0.695098 0.122549 0.666667
0.099020 0.450000 0.857353
0.149019 0.398529 0.800980
0.216544 0.360416 0.746079
0.312745 0.349510 0.722488
0.429167 0.349510 0.720098
0.544118 0.347059 0.720650
0.624020 0.334313 0.720098
0.681373 0.283640 0.703921
0.708333 0.233333 0.680882
0.154902 0.647059 0.868627
0.222059 0.606863 0.826225
0.296079 0.562255 0.789216
0.375981 0.528921 0.768628
0.476471 0.513726 0.768628
0.583578 0.509804 0.772549
0.672549 0.497059 0.772549
0.729902 0.441667 0.752451
0.756862 0.370588 0.725491
0.130392 0.815196 0.908823
0.212561 0.790686 0.885784
0.334436 0.746201 0.858824
0.445588 0.714706 0.834866
0.542157 0.695098 0.834314
0.634804 0.686703 0.838235
0.723529 0.676961 0.838235
0.784313 0.639216 0.825980
0.822549 0.572549 0.800490
0.073529 0.935294 0.941176
0.169118 0.901470 0.934314
0.351961 0.862990 0.919608
0.509804 0.838235 0.900000
0.620588 0.831373 0.900000
0.705392 0.827451 0.901470
0.780393 0.823530 0.903922
0.850000 0.808334 0.903922
0.896079 0.782353 0.893137
0.131373 0.964706 0.952941
0.179902 0.961274 0.952941
0.382353 0.949633 0.953431
0.576961 0.938235 0.952941
0.723529 0.938235 0.952941
0.808824 0.938235 0.952941
0.870098 0.937377 0.953431
0.923040 0.934313 0.953431
0.949510 0.934313 0.953431
0.239216 0.972549 0.952941
0.288725 0.972549 0.956373
0.459804 0.968627 0.959804
0.672059 0.968627 0.963235
0.837255 0.968627 0.964706
0.911274 0.968627 0.964706
0.946079 0.968627 0.964706
0.956863 0.968627 0.964706
0.956863 0.968627 0.964706
