public/luts/builtin/kodak_ektar_100.cube
TITLE "Kodak-Ektar-100"
LUT_3D_SIZE 33
0.000000 0.000000 0.000000
0.000000 0.000000 0.000000
0.015196 0.003677 0.003677
0.049509 0.003922 0.003922
0.091177 0.007353 0.007353
0.123039 0.007843 0.007843
0.146814 0.007843 0.007843
0.173897 0.007843 0.007843
0.197059 0.007843 0.007843
0.226961 0.007843 0.007843
0.257843 0.007843 0.007843
0.291299 0.007843 0.007843
0.323529 0.003922 0.007843
0.360662 0.003922 0.007843
0.393137 0.003922 0.011765
0.430025 0.001838 0.011765
0.466667 0.000000 0.013725
0.499387 0.000000 0.021446
0.536275 0.000000 0.029167
0.572672 0.000000 0.036887
0.615196 0.003922 0.048529
0.652451 0.005270 0.056250
0.687255 0.009069 0.063971
0.717034 0.011765 0.071691
0.745098 0.012745 0.079411
0.771201 0.021324 0.087991
0.799019 0.036765 0.099510
0.825367 0.056127 0.109804
0.844608 0.076471 0.114706
0.867035 0.102329 0.129780
0.878921 0.114215 0.137500
0.894118 0.125490 0.141299
0.894118 0.125490 0.149020
0.000000 0.000000 0.000000
0.000000 0.000000 0.000000
0.007713 0.000000 0.000000
0.037979 0.003922 0.003922
0.087377 0.007828 0.007828
0.119118 0.007843 0.011049
0.146102 0.010930 0.011642
0.170071 0.007843 0.007843
0.197059 0.007843 0.007843
0.224142 0.007843 0.007843
0.254006 0.007843 0.007843
0.291299 0.007843 0.007843
0.325980 0.005392 0.007843
0.360662 0.003922 0.010099
0.393137 0.003922 0.011765
0.430025 0.001838 0.011765
0.466667 0.000000 0.015625
0.499387 0.001838 0.021446
0.534137 0.003868 0.032966
0.574215 0.001544 0.040809
0.615196 0.003922 0.052328
0.652451 0.006415 0.058744
0.683371 0.005232 0.063971
0.717034 0.011765 0.075490
0.745098 0.016636 0.083211
0.772059 0.024291 0.090958
0.798284 0.037500 0.099510
0.825367 0.059946 0.113622
0.847932 0.079902 0.118030
0.867035 0.102329 0.129780
0.878921 0.114215 0.137500
0.894118 0.125490 0.145217
0.894118 0.125490 0.149020
0.000000 0.007598 0.000000
0.000000 0.004037 0.000000
0.004152 0.003922 0.000000
0.034069 0.011175 0.003922
0.072519 0.008303 0.004136
0.110945 0.011727 0.007843
0.138526 0.011765 0.007843
0.165441 0.011765 0.007843
0.192402 0.008762 0.007843
0.223039 0.007843 0.010731
0.256449 0.007843 0.011520
0.288726 0.007843 0.011681
0.323529 0.005392 0.009222
0.356840 0.003922 0.010172
0.395344 0.003922 0.011765
0.428071 0.001724 0.011765
0.464706 0.000000 0.017647
0.499387 0.001838 0.026961
0.534068 0.002206 0.035156
0.572771 0.001593 0.042402
0.615196 0.003922 0.052451
0.652451 0.004083 0.060172
0.684558 0.007675 0.067892
0.717034 0.011765 0.075613
0.745098 0.016667 0.083334
0.774877 0.024387 0.094731
0.799019 0.037500 0.103386
0.825367 0.060049 0.114338
0.848039 0.079902 0.121845
0.863702 0.099364 0.130124
0.878921 0.117662 0.141406
0.894118 0.125605 0.145221
0.894118 0.129167 0.152941
0.000000 0.034191 0.007475
0.000000 0.033835 0.007475
0.000345 0.026570 0.007475
0.023127 0.030603 0.004255
0.067739 0.030316 0.007399
0.099878 0.023659 0.007843
0.130760 0.029902 0.007843
0.158578 0.030270 0.007843
0.184681 0.023774 0.007843
0.215564 0.016318 0.007843
0.250253 0.012875 0.008211
0.287504 0.009065 0.010543
0.322059 0.007613 0.011765
0.356740 0.003922 0.011765
0.391422 0.003922 0.011765
0.430025 0.000172 0.015686
0.466483 0.000000 0.021201
0.503136 0.000000 0.029094
0.537990 0.000207 0.037010
0.574782 0.001593 0.046174
0.612975 0.003922 0.056373
0.652451 0.007843 0.066426
0.684444 0.007843 0.071814
0.717137 0.012764 0.079534
0.745098 0.016667 0.087255
0.774265 0.025164 0.094976
0.795397 0.037500 0.103432
0.825367 0.060662 0.117337
0.848039 0.083012 0.122503
0.866701 0.102363 0.133701
0.878921 0.117892 0.144753
0.894118 0.125613 0.149143
0.898039 0.129412 0.156495
0.000000 0.072059 0.018628
0.000000 0.072059 0.018628
0.000000 0.067678 0.018628
0.012286 0.068091 0.014752
0.049938 0.064216 0.004780
0.091621 0.064216 0.007307
0.123039 0.060692 0.007843
0.153539 0.063465 0.007843
0.180882 0.054779 0.007843
0.211765 0.049632 0.007843
0.246415 0.036121 0.005484
0.281204 0.025076 0.007843
0.318321 0.016483 0.008333
0.354703 0.009237 0.011765
0.391422 0.005423 0.015686
0.426593 0.001838 0.019378
0.464951 0.000000 0.025000
0.501471 0.000000 0.032951
0.537990 0.001501 0.044363
0.580024 0.003631 0.052083
0.618628 0.007537 0.059988
0.653631 0.009023 0.068015
0.687255 0.012837 0.075735
0.718137 0.016299 0.083104
0.747672 0.020588 0.091176
0.772442 0.029059 0.099647
0.798284 0.044209 0.110049
0.822472 0.063557 0.118796
0.848039 0.083824 0.129412
0.867035 0.105806 0.137178
0.875705 0.118137 0.145343
0.894118 0.129412 0.152573
0.894118 0.129412 0.156863
0.000000 0.099510 0.026838
0.000000 0.100104 0.026838
0.000000 0.099510 0.026838
0.004477 0.095646 0.019918
0.038404 0.095588 0.015027
0.079385 0.095588 0.008264
0.118007 0.099012 0.010532
0.146201 0.096312 0.007843
0.177083 0.088726 0.007843
0.204975 0.084314 0.007843
0.241123 0.076593 0.007843
0.279535 0.068470 0.010015
0.316069 0.060156 0.013833
0.352818 0.044355 0.015437
0.387768 0.032430 0.019340
0.428186 0.023529 0.025000
0.468321 0.019730 0.032721
0.503022 0.014461 0.040116
0.541299 0.011152 0.048162
0.580515 0.012745 0.056131
0.619118 0.015073 0.064216
0.653799 0.018593 0.071936
0.687255 0.022495 0.079657
0.718137 0.027329 0.087378
0.748866 0.031740 0.098407
0.775368 0.043627 0.106127
0.802206 0.059069 0.115081
0.828159 0.078948 0.125490
0.848530 0.098284 0.137132
0.867035 0.118080 0.147852
0.875245 0.139828 0.152573
0.894118 0.158333 0.156966
0.894118 0.158333 0.164093
0.000000 0.123284 0.034559
0.000000 0.123284 0.034559
0.000000 0.123284 0.031373
0.003922 0.122618 0.029971
0.030055 0.122549 0.026072
0.068260 0.123284 0.015564
0.103676 0.123284 0.008440
0.137783 0.126632 0.008004
0.166973 0.119608 0.007843
0.202535 0.118628 0.010869
0.237239 0.114200 0.011030
0.272426 0.107475 0.011765
0.311029 0.101746 0.017678
0.349196 0.094784 0.021500
0.385708 0.082843 0.025321
0.424609 0.071201 0.029144
0.467034 0.063848 0.036520
0.506886 0.060026 0.044240
0.541911 0.054412 0.051961
0.582108 0.054412 0.060417
0.621569 0.055883 0.071323
0.656372 0.058333 0.079044
0.690441 0.063480 0.086765
0.721323 0.070466 0.094485
0.751226 0.078186 0.102206
0.775283 0.088197 0.110087
0.802941 0.105530 0.121569
0.829289 0.118995 0.130523
0.851317 0.138235 0.141421
0.871254 0.157177 0.152573
0.884850 0.176271 0.160294
0.891031 0.189338 0.164093
0.894118 0.193137 0.171814
0.000000 0.146446 0.038358
0.000000 0.146446 0.038358
0.000000 0.146446 0.038358
0.000778 0.146446 0.038358
0.016314 0.146446 0.034436
0.050356 0.146446 0.023897
0.085746 0.150367 0.015564
0.125498 0.153431 0.012435
0.157935 0.152788 0.008609
0.193141 0.147308 0.008460
0.232399 0.147963 0.011765
0.268065 0.145026 0.015391
0.304458 0.138358 0.015686
0.344975 0.133314 0.021936
0.383578 0.128561 0.031380
0.424265 0.122181 0.036520
0.466666 0.114032 0.044240
0.507230 0.111642 0.051961
0.545833 0.109926 0.059682
0.583927 0.107720 0.067402
0.623039 0.111106 0.075123
0.657720 0.115001 0.082843
0.691177 0.119853 0.090832
0.724261 0.126712 0.099142
0.751961 0.132996 0.107628
0.779715 0.143203 0.117647
0.805270 0.155675 0.126103
0.829289 0.167904 0.137010
0.855132 0.184068 0.148652
0.871611 0.199591 0.160294
0.889637 0.215809 0.170887
0.900150 0.230051 0.174782
0.897181 0.227941 0.179534
0.000000 0.166666 0.042157
0.000000 0.169608 0.042157
0.000000 0.169608 0.042157
0.000000 0.166666 0.043045
0.001716 0.169608 0.042157
0.031710 0.172917 0.037408
0.069056 0.179657 0.030147
0.107476 0.183456 0.022426
0.149265 0.184314 0.013236
0.186918 0.183609 0.013879
0.222304 0.177390 0.015380
0.261244 0.174541 0.018627
0.302451 0.171937 0.022549
0.341636 0.168045 0.027053
0.382292 0.164706 0.035233
0.422182 0.161642 0.042678
0.463235 0.157843 0.049019
0.504289 0.155882 0.056740
0.545833 0.155882 0.065747
0.584436 0.154902 0.073928
0.623039 0.156985 0.082843
0.660294 0.162745 0.090564
0.694424 0.167892 0.098284
0.725981 0.175613 0.109651
0.755147 0.183333 0.115931
0.782200 0.191054 0.123070
0.806679 0.198959 0.133088
0.832231 0.207629 0.144730
0.853309 0.220588 0.153799
0.874357 0.235938 0.168014
0.890441 0.250306 0.176655
0.901961 0.262745 0.180484
0.904902 0.262745 0.187255
0.000000 0.192769 0.047059
0.000000 0.192769 0.049877
0.000000 0.192769 0.049877
0.000000 0.192769 0.049877
0.000000 0.195236 0.049877
0.013503 0.199070 0.048947
0.047220 0.203799 0.039377
0.091418 0.208456 0.033946
0.130637 0.208456 0.024111
0.175188 0.212067 0.019298
0.214928 0.214438 0.019608
0.256729 0.208322 0.025000
0.295711 0.204488 0.028799
0.339909 0.202776 0.036520
0.378071 0.199510 0.041552
0.420860 0.201007 0.050640
0.464154 0.198407 0.058579
0.506127 0.197304 0.066299
0.545833 0.198407 0.074502
0.586684 0.198407 0.082843
0.625858 0.201639 0.091621
0.663492 0.206495 0.101103
0.697917 0.211397 0.109926
0.728799 0.219118 0.117647
0.758977 0.225031 0.127482
0.786026 0.230637 0.133088
0.812868 0.238358 0.141544
0.836029 0.246519 0.152891
0.856373 0.258211 0.164583
0.877799 0.273388 0.178290
0.890686 0.284995 0.183456
0.901961 0.293627 0.187255
0.903064 0.290809 0.192157
0.000000 0.222549 0.057598
0.000000 0.222549 0.057598
0.000000 0.222549 0.057598
0.000000 0.222549 0.057598
0.000000 0.222549 0.057598
0.002068 0.223583 0.057598
0.027957 0.227696 0.052681
0.071814 0.234682 0.045466
0.114522 0.238235 0.038052
0.156617 0.241054 0.030906
0.206020 0.244853 0.027068
0.251157 0.245274 0.028799
0.293597 0.244087 0.033824
0.333938 0.238603 0.041544
0.374556 0.235493 0.050092
0.416422 0.233739 0.055760
0.460049 0.234314 0.064706
0.505798 0.233663 0.075122
0.545833 0.235493 0.082843
0.587630 0.237009 0.091659
0.626961 0.242402 0.101440
0.664216 0.246201 0.109926
0.699020 0.250000 0.118489
0.729902 0.256962 0.129289
0.760784 0.262439 0.137010
0.789851 0.269240 0.143505
0.816667 0.276961 0.152956
0.839829 0.284873 0.164093
0.862500 0.296324 0.174663
0.879166 0.305637 0.187377
0.897059 0.316912 0.193704
0.905882 0.324510 0.197587
0.908578 0.324510 0.202696
0.000000 0.253432 0.067892
0.002493 0.253432 0.067892
0.000000 0.253432 0.067892
0.000000 0.253432 0.067892
0.000000 0.251180 0.065640
0.000000 0.253432 0.065319
0.012485 0.254527 0.067892
0.052451 0.263775 0.060907
0.096844 0.268474 0.051256
0.141177 0.270087 0.045466
0.193191 0.275735 0.040441
0.241667 0.275272 0.034831
0.287148 0.276961 0.037745
0.329289 0.274632 0.045466
0.371446 0.271691 0.055760
0.414338 0.270324 0.063481
0.457537 0.269118 0.071201
0.501941 0.269118 0.079553
0.545833 0.271691 0.090564
0.587557 0.275613 0.099877
0.626961 0.277926 0.109926
0.664216 0.281767 0.117647
0.699824 0.286029 0.129289
0.733824 0.292402 0.137010
0.764369 0.296201 0.144730
0.791667 0.303922 0.155025
0.818375 0.311642 0.164576
0.843627 0.320711 0.175736
0.865977 0.330683 0.186029
0.879166 0.336519 0.195098
0.898529 0.350207 0.202819
0.909884 0.355472 0.206618
0.912377 0.357966 0.212990
0.000000 0.284314 0.079412
0.001425 0.284314 0.076961
0.002390 0.284314 0.079504
0.000000 0.284314 0.080744
0.000000 0.284314 0.079412
0.000000 0.282016 0.076961
0.004381 0.284314 0.078952
0.035631 0.288848 0.073897
0.079779 0.296569 0.068015
0.125735 0.300000 0.060907
0.174755 0.304933 0.055883
0.226226 0.307843 0.049387
0.278003 0.309375 0.048039
0.327298 0.310891 0.051838
0.368720 0.310294 0.060386
0.411198 0.305070 0.071201
0.455637 0.303922 0.078921
0.500076 0.303922 0.090564
0.543627 0.307016 0.099356
0.586903 0.308839 0.109926
0.626961 0.312684 0.118566
0.664216 0.316529 0.128324
0.700245 0.320833 0.137010
0.733824 0.328140 0.148652
0.764706 0.332966 0.155270
0.795267 0.339752 0.166544
0.824265 0.346323 0.174541
0.847427 0.355515 0.186136
0.867647 0.363235 0.195098
0.883088 0.368735 0.202819
0.898529 0.382598 0.210539
0.913802 0.390196 0.218260
0.917647 0.390196 0.225980
0.000000 0.315196 0.088603
0.000000 0.315196 0.087060
0.000000 0.315196 0.088603
0.000000 0.315196 0.090932
0.000000 0.313159 0.088603
0.000000 0.311523 0.088603
0.000000 0.315196 0.088603
0.023445 0.318260 0.089687
0.066299 0.325980 0.081342
0.112623 0.329780 0.076348
0.160041 0.334076 0.069723
0.209436 0.335849 0.064829
0.263480 0.341177 0.063481
0.317524 0.342647 0.062098
0.366874 0.343957 0.067279
0.409325 0.341801 0.077830
0.452574 0.341054 0.086642
0.496213 0.339963 0.098284
0.541299 0.341054 0.109926
0.584436 0.343593 0.119975
0.623636 0.345573 0.128294
0.664036 0.350245 0.138358
0.699518 0.355637 0.148652
0.734479 0.362910 0.156373
0.768628 0.369486 0.166820
0.797917 0.376697 0.178064
0.825735 0.382598 0.187377
0.850862 0.390318 0.195462
0.871568 0.397840 0.205147
0.885566 0.404167 0.214461
0.904634 0.413481 0.224364
0.917647 0.421079 0.229902
0.917647 0.421079 0.237623
0.000000 0.346078 0.102451
0.000000 0.348284 0.102451
0.000000 0.346078 0.100383
0.000000 0.346078 0.102451
0.000000 0.346078 0.102451
0.000000 0.346078 0.102451
0.000000 0.346078 0.102451
0.011390 0.347419 0.102451
0.052451 0.354657 0.099510
0.098775 0.361144 0.093375
0.145098 0.364461 0.084758
0.192547 0.365686 0.080270
0.245833 0.372059 0.078922
0.302083 0.373529 0.078922
0.356127 0.377451 0.079887
0.405461 0.377451 0.084666
0.449878 0.374632 0.094363
0.493382 0.375736 0.107039
0.538741 0.376486 0.117647
0.581212 0.378347 0.129289
0.623039 0.380300 0.137837
0.661642 0.382721 0.147526
0.700245 0.390441 0.157062
0.734927 0.397679 0.168015
0.770282 0.403615 0.177941
0.799510 0.409681 0.187377
0.828263 0.417402 0.195512
0.852818 0.425123 0.207085
0.873989 0.432629 0.216881
0.890931 0.438641 0.228309
0.906372 0.444362 0.235892
0.919853 0.451961 0.241491
0.921569 0.451961 0.247549
0.003922 0.376961 0.113971
0.003922 0.380882 0.117892
0.005875 0.379159 0.116169
0.005810 0.380710 0.117720
0.006005 0.380882 0.117892
0.003922 0.379331 0.117892
0.003922 0.379044 0.119585
0.006985 0.376961 0.117892
0.037531 0.383824 0.114951
0.087255 0.391544 0.108551
0.133578 0.396569 0.104864
0.179902 0.397936 0.099001
0.228676 0.402941 0.097136
0.285796 0.406740 0.096446
0.340687 0.408333 0.097480
0.396699 0.408333 0.098285
0.444976 0.408333 0.103125
0.488484 0.408333 0.113725
0.533701 0.412255 0.125368
0.579278 0.413101 0.137010
0.619118 0.414338 0.146201
0.659559 0.417524 0.157089
0.696323 0.423407 0.166751
0.734341 0.429044 0.178336
0.770986 0.436765 0.187898
0.803029 0.444485 0.197181
0.830392 0.450368 0.207131
0.856453 0.457763 0.216832
0.875490 0.463725 0.230025
0.893187 0.471446 0.237745
0.912132 0.478922 0.249272
0.921692 0.482843 0.251406
0.927574 0.482843 0.259069
0.015686 0.413725 0.133333
0.015686 0.411765 0.133333
0.015564 0.411765 0.133333
0.013725 0.411765 0.133333
0.013725 0.411765 0.133333
0.015380 0.411765 0.133333
0.014093 0.411765 0.136519
0.013725 0.411765 0.133762
0.029412 0.414706 0.131863
0.073774 0.422427 0.128002
0.120711 0.428799 0.123530
0.166422 0.431372 0.120282
0.213971 0.434559 0.119608
0.268444 0.438419 0.119608
0.325245 0.439216 0.119608
0.381372 0.443137 0.115686
0.437255 0.444117 0.116667
0.485539 0.445098 0.123407
0.527941 0.445098 0.133088
0.572304 0.445895 0.144730
0.617157 0.447794 0.155147
0.654473 0.449694 0.165441
0.696323 0.456127 0.176961
0.734927 0.463297 0.187929
0.768628 0.467647 0.197549
0.803431 0.475368 0.207169
0.830392 0.483088 0.216789
0.860049 0.490809 0.230025
0.877696 0.496324 0.239706
0.894853 0.502145 0.247610
0.914215 0.508211 0.257231
0.927512 0.513787 0.268750
0.931372 0.517647 0.276471
0.031127 0.448407 0.148774
0.032908 0.448407 0.148774
0.032966 0.448407 0.148774
0.029239 0.448407 0.148774
0.029044 0.448407 0.148774
0.032679 0.448407 0.148774
0.031127 0.448407 0.151004
0.031127 0.448407 0.149177
0.032690 0.448407 0.150613
0.065985 0.453309 0.147277
0.110463 0.457759 0.142157
0.154779 0.464829 0.140931
0.199265 0.466177 0.140931
0.247917 0.470098 0.142023
0.305078 0.473215 0.139759
0.364955 0.474020 0.138848
0.422856 0.475061 0.137929
0.478803 0.477941 0.137009
0.526103 0.477941 0.141843
0.569596 0.479779 0.152451
0.612056 0.480561 0.162791
0.653799 0.483211 0.173162
0.692402 0.487010 0.184107
0.731005 0.494214 0.195098
0.769148 0.500092 0.206740
0.799510 0.506250 0.218382
0.830392 0.513971 0.228332
0.860337 0.521404 0.239909
0.879902 0.527803 0.251486
0.898947 0.534877 0.262868
0.916054 0.538848 0.270834
0.931315 0.548529 0.286152
0.935171 0.548529 0.293872
0.050490 0.485294 0.168137
0.050490 0.481495 0.168137
0.050490 0.481373 0.166069
0.050490 0.484926 0.168137
0.046568 0.481373 0.166207
0.049877 0.484681 0.168137
0.050490 0.483502 0.168137
0.048767 0.483088 0.169853
0.048284 0.483088 0.169853
0.064805 0.484674 0.169853
0.101961 0.487990 0.164415
0.142011 0.492548 0.163726
0.184467 0.496415 0.162010
0.230147 0.500284 0.162010
0.286520 0.503186 0.162010
0.345657 0.504902 0.161098
0.405514 0.504902 0.159191
0.461450 0.505936 0.156250
0.517417 0.508824 0.155132
0.564706 0.511726 0.161887
0.608180 0.513388 0.171814
0.649877 0.516667 0.182330
0.688480 0.517892 0.192402
0.727083 0.525130 0.202819
0.765686 0.529412 0.214461
0.799510 0.535417 0.226103
0.830070 0.543137 0.238067
0.859214 0.550513 0.250000
0.883548 0.556373 0.263236
0.902696 0.566299 0.276754
0.918137 0.571706 0.286275
0.933456 0.577696 0.297672
0.941176 0.577696 0.307598
0.065931 0.516176 0.189093
0.065931 0.516176 0.189093
0.065931 0.516176 0.189093
0.065931 0.516176 0.189093
0.063894 0.514139 0.189093
0.065567 0.515813 0.189093
0.065931 0.516176 0.189093
0.065931 0.516176 0.192157
0.065931 0.516176 0.193015
0.067605 0.516176 0.193015
0.091314 0.517777 0.190319
0.131250 0.521626 0.189093
0.174770 0.526471 0.187638
0.216299 0.529324 0.185172
0.270060 0.531862 0.185172
0.327206 0.531862 0.183088
0.385049 0.535784 0.181250
0.444129 0.537768 0.179412
0.500735 0.538396 0.172710
0.556039 0.541299 0.174353
0.605362 0.544500 0.181128
0.645956 0.547549 0.188301
0.685286 0.548774 0.200122
0.725490 0.554247 0.210539
0.763511 0.558701 0.220987
0.798265 0.564093 0.233824
0.830392 0.571814 0.246201
0.857353 0.579534 0.261642
0.883824 0.583625 0.274555
0.906617 0.593382 0.288603
0.921914 0.600957 0.301715
0.933456 0.604829 0.313113
0.941176 0.606372 0.320833
0.081373 0.548529 0.212255
0.079948 0.548529 0.212255
0.077604 0.547059 0.212255
0.077451 0.548529 0.212255
0.079595 0.547059 0.212255
0.081143 0.548299 0.213496
0.081373 0.548529 0.214247
0.079902 0.547059 0.216176
0.079902 0.547059 0.216176
0.080959 0.547059 0.216176
0.089890 0.547059 0.216176
0.121201 0.550475 0.212760
0.161336 0.554902 0.212255
0.205652 0.558823 0.212255
0.255637 0.562102 0.209804
0.310463 0.562745 0.207031
0.367647 0.565441 0.204412
0.426302 0.568505 0.201271
0.483579 0.570588 0.199418
0.541544 0.571584 0.193520
0.594669 0.573590 0.193566
0.641912 0.577466 0.200368
0.683088 0.579657 0.208854
0.721691 0.582353 0.218260
0.757475 0.585784 0.228064
0.794118 0.592969 0.241544
0.828921 0.598775 0.253921
0.859421 0.608563 0.269593
0.883640 0.614032 0.286274
0.903064 0.620098 0.300245
0.922059 0.624265 0.315533
0.937378 0.631863 0.328554
0.945098 0.634314 0.336274
0.091544 0.580515 0.235417
0.091544 0.581863 0.235417
0.091544 0.578102 0.236765
0.091544 0.580274 0.237749
0.089293 0.578263 0.237087
0.091142 0.580113 0.238936
0.091544 0.580515 0.239338
0.091544 0.577941 0.239338
0.091544 0.577941 0.239338
0.091544 0.577941 0.240307
0.094662 0.577941 0.242456
0.115292 0.580515 0.241571
0.149770 0.583471 0.239338
0.194061 0.589158 0.236765
0.242670 0.591912 0.236007
0.296955 0.593627 0.234050
0.352205 0.596201 0.230208
0.407456 0.597549 0.226367
0.467379 0.600712 0.223652
0.525302 0.601470 0.219485
0.580147 0.602436 0.213695
0.631959 0.606277 0.215809
0.674441 0.610118 0.219608
0.716199 0.613614 0.228052
0.753585 0.615227 0.238633
0.788308 0.618015 0.247254
0.822549 0.625483 0.261642
0.855392 0.631897 0.277083
0.882154 0.638159 0.296446
0.903064 0.643628 0.311887
0.922059 0.648690 0.324755
0.937378 0.655024 0.340074
0.946446 0.656372 0.347794
0.100490 0.608824 0.259804
0.103064 0.611435 0.262416
0.103186 0.608824 0.262500
0.100743 0.608824 0.260057
0.102849 0.608824 0.262500
0.100490 0.608824 0.262500
0.100490 0.608824 0.263726
0.102596 0.608824 0.262768
0.101164 0.608824 0.263726
0.100490 0.608824 0.265663
0.103186 0.608824 0.267264
0.114951 0.610593 0.267647
0.142678 0.612745 0.267647
0.181870 0.616169 0.263726
0.231419 0.620052 0.263036
0.286642 0.623285 0.261068
0.339338 0.624510 0.257230
0.390809 0.624510 0.253393
0.446569 0.625689 0.250736
0.507835 0.629527 0.245718
0.564706 0.631587 0.241881
0.617823 0.636275 0.235854
0.664568 0.637117 0.235892
0.707353 0.641299 0.240832
0.749081 0.647120 0.250490
0.786520 0.647771 0.258801
0.818857 0.651471 0.270588
0.850544 0.656495 0.286029
0.877390 0.660141 0.301807
0.901586 0.666789 0.321086
0.922059 0.673116 0.338971
0.937500 0.678187 0.354289
0.950245 0.682108 0.363235
0.110907 0.639706 0.287868
0.112010 0.639706 0.290687
0.112010 0.639706 0.290687
0.111010 0.639706 0.290687
0.110907 0.639706 0.290687
0.112010 0.639706 0.290687
0.114300 0.639706 0.293872
0.112010 0.639706 0.290928
0.110907 0.639706 0.293627
0.110907 0.639706 0.294608
0.113603 0.639706 0.294608
0.117402 0.639706 0.297181
0.138526 0.641468 0.295665
0.175900 0.645301 0.292280
0.222664 0.647549 0.290687
0.274728 0.649047 0.288603
0.325796 0.651471 0.286213
0.380392 0.654289 0.282843
0.431748 0.655392 0.278439
0.488522 0.655392 0.273407
0.546400 0.658211 0.269976
0.601237 0.663481 0.265085
0.652551 0.666399 0.259314
0.699632 0.667950 0.260107
0.741054 0.673897 0.266759
0.781859 0.677202 0.273652
0.815235 0.675529 0.282108
0.851715 0.682353 0.300368
0.878447 0.689584 0.315809
0.899142 0.690951 0.332353
0.920780 0.694784 0.347725
0.933701 0.697549 0.362132
0.952941 0.705270 0.374755
0.123530 0.669608 0.321569
0.122549 0.669608 0.320588
0.123530 0.669608 0.321507
0.123530 0.670497 0.321569
0.122549 0.669608 0.320588
0.123377 0.669608 0.321415
0.123530 0.670405 0.323958
0.123530 0.669608 0.322212
0.122794 0.669608 0.323775
0.122549 0.669608 0.324510
0.122549 0.667586 0.324510
0.126103 0.668597 0.325153
0.141054 0.670589 0.325491
0.172426 0.670589 0.321967
0.218812 0.676164 0.321569
0.268964 0.677972 0.318106
0.317647 0.678432 0.315686
0.368750 0.679810 0.310325
0.422365 0.682353 0.308088
0.474265 0.685294 0.304289
0.525980 0.686275 0.297549
0.580025 0.687623 0.294118
0.634988 0.693444 0.290196
0.689400 0.697335 0.285999
0.732598 0.698775 0.286030
0.771936 0.701960 0.290074
0.809804 0.702512 0.297610
0.844148 0.706342 0.309068
0.871569 0.712745 0.323652
0.899050 0.716666 0.342984
0.918137 0.720588 0.359314
0.933701 0.721660 0.371905
0.952941 0.728431 0.391176
0.135049 0.693627 0.348529
0.135049 0.693627 0.348529
0.134995 0.693627 0.348529
0.135049 0.696691 0.348529
0.135049 0.696691 0.348529
0.135049 0.696691 0.348529
0.137538 0.697388 0.351019
0.138113 0.696879 0.352451
0.134405 0.696691 0.351808
0.134191 0.696691 0.352451
0.135049 0.696691 0.352451
0.137622 0.697254 0.355024
0.147258 0.697549 0.356372
0.173284 0.700613 0.356372
0.217640 0.703194 0.352451
0.267402 0.704534 0.350368
0.313725 0.706924 0.346568
0.363515 0.708456 0.342769
0.413358 0.709314 0.339346
0.461274 0.712378 0.336765
0.511397 0.714384 0.331694
0.565147 0.718210 0.325858
0.618628 0.720489 0.321936
0.670952 0.724384 0.320217
0.720404 0.728278 0.313879
0.763358 0.729592 0.313905
0.802819 0.732843 0.320381
0.836887 0.732843 0.325234
0.867770 0.735907 0.337270
0.894363 0.739829 0.355392
0.917333 0.742945 0.374755
0.936642 0.746814 0.390196
0.952083 0.750736 0.408701
0.150491 0.724510 0.379412
0.147404 0.724510 0.379412
0.147304 0.724510 0.376425
0.150192 0.724510 0.379412
0.150491 0.724510 0.380055
0.150491 0.724510 0.382100
0.147901 0.724510 0.380745
0.149633 0.724510 0.382636
0.146752 0.724510 0.380944
0.147097 0.724510 0.382437
0.147304 0.724510 0.383333
0.153064 0.724510 0.385424
0.160784 0.724510 0.387255
0.179412 0.727696 0.387255
0.221814 0.729902 0.383655
0.268137 0.732008 0.381641
0.314461 0.732353 0.376225
0.360049 0.735539 0.375490
0.408501 0.737668 0.372304
0.456319 0.739461 0.370274
0.502482 0.740931 0.366452
0.553546 0.743635 0.362630
0.603691 0.747304 0.358808
0.653309 0.751226 0.354986
0.702635 0.752758 0.351716
0.751999 0.759069 0.344692
0.791176 0.759069 0.344715
0.829167 0.759069 0.349150
0.862929 0.759161 0.359559
