public/luts/builtin/kodak_portra_400.cube
TITLE "Kodak-Portra-400"
LUT_3D_SIZE 5
0.035294 0.039216 0.039216
0.130392 0.042157 0.043137
0.466666 0.000000 0.047059
0.759804 0.000000 0.084314
0.945098 0.180392 0.203922
0.000000 0.159804 0.058824
0.137990 0.190196 0.043137
0.568137 0.239216 0.000000
0.798039 0.219608 0.088236
0.955882 0.310784 0.219608
0.000000 0.460784 0.143138
0.000000 0.447059 0.156863
0.469608 0.514706 0.121568
0.821569 0.541176 0.142157
0.964706 0.541176 0.268628
0.183334 0.657843 0.320588
0.261030 0.650735 0.324510
0.424510 0.653431 0.336274
0.704902 0.708823 0.349020
0.916667 0.739216 0.410784
0.513725 0.811765 0.545098
0.532353 0.811765 0.549020
0.586275 0.807843 0.560784
0.700000 0.823529 0.580392
0.850980 0.854902 0.603922
0.028431 0.046078 0.149019
0.149019 0.047059 0.152941
0.477941 0.000000 0.198039
0.740931 0.068628 0.242157
0.910784 0.296078 0.334314
0.000000 0.209804 0.191176
0.183885 0.221385 0.210784
0.519730 0.246691 0.236029
0.756127 0.290932 0.279963
0.924755 0.379657 0.350000
0.041177 0.499020 0.288235
0.209681 0.487255 0.288358
0.504167 0.523529 0.294118
0.813358 0.558824 0.324877
0.941176 0.565686 0.395098
0.302206 0.669608 0.396078
0.350674 0.664338 0.397058
0.464583 0.654534 0.405882
0.713297 0.712745 0.430821
0.912745 0.743137 0.490196
0.533333 0.815686 0.575490
0.552696 0.812500 0.579412
0.601961 0.807843 0.587255
0.703922 0.820588 0.606863
0.850980 0.854902 0.631373
0.000000 0.056863 0.437255
0.214216 0.052941 0.443137
0.525490 0.040196 0.454902
0.751961 0.225490 0.457843
0.909804 0.352942 0.492157
0.000000 0.244608 0.460784
0.238480 0.257721 0.467770
0.542892 0.297059 0.476716
0.744117 0.370098 0.485417
0.900490 0.427941 0.509314
0.015686 0.540196 0.486274
0.295343 0.542157 0.495833
0.563235 0.549019 0.524020
0.745588 0.558333 0.535539
0.887255 0.586275 0.562745
0.418627 0.701961 0.538235
0.475000 0.700000 0.549265
0.565196 0.686275 0.555882
0.731373 0.719608 0.583824
0.899510 0.758333 0.636275
0.586275 0.825490 0.654902
0.597549 0.823529 0.650980
0.639216 0.816666 0.653922
0.711765 0.816176 0.665686
0.854902 0.858824 0.700000
0.008823 0.143137 0.673529
0.271569 0.162010 0.674510
0.553431 0.227941 0.682353
0.770833 0.302696 0.689216
0.898039 0.431373 0.680392
0.179412 0.307108 0.677451
0.331127 0.322181 0.678003
0.571814 0.368627 0.685662
0.764461 0.418627 0.693137
0.887010 0.501716 0.692157
0.229412 0.523529 0.677451
0.356372 0.529534 0.681372
0.580637 0.555882 0.697794
0.755882 0.590686 0.710294
0.868627 0.631373 0.720098
0.392647 0.729902 0.703431
0.456373 0.729902 0.707353
0.596201 0.730637 0.719240
0.754963 0.735723 0.741850
0.862745 0.742402 0.744853
0.592157 0.844118 0.738235
0.614706 0.844118 0.742156
0.676470 0.840196 0.750981
0.743137 0.828431 0.754902
0.858824 0.862745 0.781373
0.400000 0.345098 0.850980
0.472549 0.360784 0.850980
0.629412 0.405883 0.847059
0.794118 0.480392 0.847059
0.909804 0.521569 0.847059
0.438236 0.436275 0.847059
0.500000 0.445098 0.847059
0.641177 0.478431 0.847059
0.794118 0.536520 0.847059
0.901961 0.570588 0.847059
0.462745 0.578431 0.843137
0.512255 0.580392 0.843137
0.642157 0.600000 0.843137
0.786275 0.637745 0.847059
0.888235 0.664706 0.847059
0.451960 0.724510 0.840196
0.490196 0.721324 0.840196
0.594608 0.718137 0.843137
0.762010 0.738480 0.850980
0.878431 0.765686 0.858824
0.564706 0.870588 0.854902
0.588235 0.870588 0.857843
0.654902 0.870588 0.858824
0.747059 0.870588 0.866667
0.882353 0.882353 0.886275
