public/luts/builtin/kodak_portra_400.cube
TITLE "Kodak-Portra-400"
LUT_3D_SIZE 33
0.035294 0.039216 0.039216
0.039093 0.039216 0.039216
0.042892 0.039216 0.039216
0.054167 0.039216 0.039216
0.065687 0.039216 0.039216
0.077206 0.039216 0.039216
0.091912 0.039216 0.039216
0.108088 0.039216 0.043137
0.130392 0.042157 0.043137
0.157475 0.043137 0.045956
0.191176 0.040441 0.047059
0.231128 0.036642 0.047059
0.273530 0.030392 0.047059
0.322181 0.018872 0.047059
0.372304 0.003431 0.047059
0.420343 0.000000 0.047059
0.466666 0.000000 0.047059
0.512990 0.000000 0.047059
0.555392 0.000000 0.047059
0.596201 0.000000 0.050980
0.630882 0.000000 0.054902
0.668137 0.000000 0.060172
0.699020 0.000000 0.067892
0.729902 0.000000 0.075613
0.759804 0.000000 0.084314
0.786887 0.000000 0.095834
0.813971 0.000735 0.110539
0.837745 0.004535 0.122794
0.864216 0.022059 0.138235
0.887010 0.064951 0.153676
0.906617 0.111030 0.169117
0.925858 0.145711 0.188480
0.945098 0.180392 0.203922
0.035294 0.039216 0.039216
0.039093 0.042896 0.039216
0.046814 0.043014 0.039216
0.054534 0.043126 0.039216
0.066161 0.043137 0.039216
0.077799 0.046936 0.039216
0.092647 0.046936 0.042402
0.111983 0.046936 0.043137
0.134283 0.049908 0.043137
0.164093 0.050857 0.045956
0.197672 0.048162 0.047059
0.236355 0.046856 0.047059
0.281250 0.040564 0.047059
0.329901 0.030465 0.047059
0.380025 0.014951 0.047059
0.428064 0.005580 0.047059
0.474387 0.000000 0.045159
0.518930 0.000000 0.047059
0.561397 0.000000 0.047059
0.600000 0.000000 0.048725
0.637179 0.000000 0.054902
0.671937 0.000000 0.060172
0.702818 0.000000 0.067892
0.733701 0.000000 0.075613
0.760784 0.000000 0.087255
0.790713 0.000000 0.098801
0.814683 0.000735 0.111275
0.841054 0.008333 0.125999
0.864216 0.027297 0.138235
0.887366 0.083946 0.153676
0.906617 0.122664 0.169355
0.925858 0.157231 0.188480
0.945098 0.188112 0.203922
0.035294 0.050735 0.039216
0.039093 0.050620 0.039216
0.043367 0.050735 0.039216
0.054534 0.050735 0.039216
0.069393 0.050949 0.039216
0.081128 0.054657 0.039216
0.099556 0.054657 0.039216
0.118750 0.054657 0.043137
0.141912 0.058579 0.043137
0.171814 0.058579 0.043137
0.205392 0.058579 0.043306
0.246569 0.058418 0.043382
0.291269 0.052206 0.043229
0.339216 0.044340 0.043382
0.387745 0.032568 0.043137
0.435784 0.015081 0.043137
0.482108 0.005637 0.043137
0.526593 0.000000 0.043252
0.565304 0.000000 0.047059
0.604044 0.000000 0.048652
0.641023 0.000000 0.052604
0.675735 0.000000 0.060172
0.706618 0.000000 0.067892
0.736466 0.000000 0.075613
0.764644 0.000000 0.087255
0.791613 0.004535 0.098897
0.817892 0.009068 0.111275
0.841629 0.027328 0.126715
0.867433 0.052757 0.141452
0.887378 0.102941 0.153676
0.910064 0.137745 0.172809
0.929420 0.168627 0.188480
0.945098 0.199510 0.207598
0.031741 0.058456 0.043137
0.035650 0.058456 0.043137
0.042892 0.058456 0.043137
0.050946 0.061677 0.042769
0.065687 0.062377 0.039660
0.081128 0.065376 0.039216
0.103378 0.066299 0.039216
0.126471 0.069853 0.039503
0.149632 0.072794 0.042249
0.179534 0.073775 0.043137
0.216781 0.073775 0.043137
0.257970 0.073775 0.043137
0.304166 0.071186 0.043137
0.350490 0.067157 0.043137
0.399181 0.056863 0.039584
0.447059 0.041422 0.039584
0.491606 0.027941 0.043137
0.534314 0.014829 0.043137
0.572917 0.003554 0.044853
0.611520 0.000000 0.048652
0.648652 0.000000 0.052451
0.679534 0.000000 0.060172
0.710669 0.000000 0.067892
0.741299 0.000000 0.076612
0.768536 0.000889 0.088144
0.794731 0.009111 0.099755
0.821515 0.021079 0.111275
0.844975 0.053741 0.126715
0.868138 0.091498 0.142111
0.890598 0.125524 0.157265
0.910294 0.153186 0.173039
0.929657 0.180147 0.188591
0.948652 0.211030 0.207843
0.031373 0.069608 0.046569
0.035294 0.069608 0.047059
0.042892 0.069608 0.047059
0.050291 0.070052 0.046569
0.062194 0.073101 0.043566
0.080591 0.076915 0.042723
0.103676 0.081373 0.039859
0.129902 0.087975 0.039216
0.160294 0.091789 0.039216
0.194608 0.095466 0.039216
0.232108 0.096569 0.039216
0.273284 0.096569 0.039216
0.319608 0.096262 0.035784
0.365931 0.092356 0.035784
0.412255 0.086030 0.035784
0.458578 0.078048 0.035784
0.503186 0.067892 0.035784
0.545466 0.054075 0.039446
0.584559 0.034559 0.041207
0.621278 0.027329 0.045021
0.656372 0.025000 0.052451
0.687255 0.025000 0.060172
0.718137 0.025490 0.067892
0.745450 0.029060 0.076716
0.772426 0.037255 0.088236
0.798652 0.049908 0.099755
0.825245 0.072304 0.114460
0.848407 0.100107 0.126715
0.871140 0.124571 0.142156
0.891253 0.148652 0.157598
0.910539 0.172518 0.173254
0.929764 0.199387 0.192402
0.949020 0.223039 0.207843
0.028064 0.084437 0.050367
0.035191 0.081128 0.050980
0.039009 0.081128 0.050980
0.046691 0.084992 0.050425
0.055025 0.085586 0.050367
0.073801 0.092280 0.046542
0.099135 0.096078 0.043757
0.127317 0.107108 0.039940
0.163725 0.114828 0.036734
0.207085 0.121936 0.032916
0.247549 0.126769 0.031986
0.292245 0.126961 0.031986
0.338358 0.126578 0.028294
0.384681 0.124383 0.028064
0.431005 0.120221 0.028064
0.474020 0.114583 0.028064
0.516422 0.108701 0.030025
0.556985 0.100368 0.031986
0.595588 0.092647 0.035907
0.630633 0.084927 0.041422
0.664093 0.080515 0.048529
0.694975 0.077853 0.056461
0.724632 0.077642 0.067892
0.751888 0.082158 0.076716
0.778799 0.088480 0.088236
0.803297 0.103198 0.102340
0.829044 0.116674 0.115196
0.852206 0.135512 0.130025
0.872059 0.154856 0.145466
0.894298 0.175123 0.160964
0.914215 0.198078 0.176961
0.932985 0.218157 0.192506
0.949020 0.241912 0.211765
0.021079 0.103676 0.054167
0.024977 0.103676 0.054167
0.031863 0.100490 0.054856
0.039584 0.100490 0.054167
0.050735 0.103676 0.054167
0.066177 0.110907 0.051478
0.089323 0.118030 0.047656
0.122097 0.126348 0.043260
0.160539 0.137806 0.036275
0.205676 0.148001 0.032476
0.258318 0.156618 0.025260
0.308824 0.163603 0.021691
0.361520 0.164491 0.017157
0.404220 0.162324 0.017157
0.450245 0.158823 0.017157
0.492992 0.154680 0.017157
0.533456 0.148897 0.020711
0.572427 0.143114 0.024264
0.607521 0.138970 0.028186
0.640931 0.132843 0.033701
0.675000 0.128921 0.042617
0.702696 0.128921 0.053064
0.732353 0.128921 0.064200
0.759436 0.130553 0.076716
0.784130 0.137745 0.088236
0.809681 0.145627 0.102819
0.832843 0.157843 0.115196
0.856005 0.170098 0.130637
0.875981 0.186274 0.146078
0.898108 0.201785 0.161519
0.917448 0.222013 0.180147
0.933678 0.241299 0.196323
0.952206 0.264461 0.211765
0.005638 0.126838 0.054902
0.010390 0.126007 0.057966
0.017210 0.125980 0.057966
0.028512 0.125980 0.058824
0.039951 0.126731 0.058073
0.055392 0.133345 0.055381
0.080431 0.140931 0.051555
0.111152 0.149322 0.047059
0.152696 0.161152 0.039338
0.204286 0.174996 0.028554
0.257131 0.187500 0.021691
0.315001 0.198579 0.013971
0.373698 0.203554 0.003799
0.427083 0.206618 0.001716
0.469861 0.202696 0.001716
0.510662 0.196691 0.001716
0.549264 0.192892 0.004106
0.586029 0.187010 0.011397
0.620833 0.181748 0.015196
0.655637 0.177922 0.024161
0.683456 0.175245 0.034023
0.714043 0.172182 0.046691
0.740074 0.172182 0.060317
0.767157 0.175486 0.073410
0.790318 0.179381 0.088236
0.814338 0.184804 0.103677
0.837339 0.193260 0.119118
0.859804 0.205503 0.134424
0.879794 0.217157 0.150000
0.899062 0.232598 0.165441
0.918329 0.248897 0.180882
0.937500 0.267429 0.199414
0.952941 0.283701 0.215686
0.000000 0.159804 0.058824
0.000000 0.156954 0.058824
0.000919 0.156863 0.058824
0.003738 0.156863 0.061765
0.018627 0.156005 0.062745
0.040319 0.160172 0.061918
0.063480 0.167892 0.058027
0.099632 0.178677 0.050858
0.137990 0.190196 0.043137
0.194240 0.205637 0.031771
0.251226 0.218382 0.017892
0.311122 0.231955 0.007261
0.372549 0.240686 0.000000
0.431373 0.246078 0.000000
0.485784 0.247365 0.000000
0.528646 0.244577 0.000000
0.568137 0.239216 0.000000
0.603309 0.233333 0.000460
0.636275 0.227696 0.001838
0.667157 0.223897 0.012592
0.696936 0.220098 0.023529
0.723989 0.217647 0.039982
0.748713 0.217647 0.057353
0.774877 0.217923 0.072794
0.798039 0.219608 0.088236
0.821201 0.225705 0.103677
0.843811 0.231127 0.119118
0.864430 0.240288 0.134558
0.883701 0.251471 0.150368
0.902972 0.263481 0.168382
0.922059 0.278738 0.184804
0.940441 0.294363 0.200337
0.955882 0.310784 0.219608
0.000000 0.194485 0.061642
0.000000 0.194485 0.061642
0.000000 0.194485 0.062745
0.000000 0.194485 0.065300
0.000000 0.191528 0.065564
0.008307 0.194485 0.065564
0.039951 0.198775 0.062378
0.077451 0.209559 0.058579
0.122641 0.221079 0.047917
0.172852 0.236519 0.036397
0.238580 0.251961 0.019018
0.304044 0.264449 0.002696
0.365809 0.276471 0.000000
0.427574 0.283536 0.000000
0.483211 0.288603 0.000000
0.535566 0.288017 0.000000
0.582659 0.286949 0.000000
0.618750 0.281740 0.000000
0.651716 0.274020 0.000000
0.681005 0.270220 0.000448
0.708502 0.263970 0.010815
0.733322 0.262623 0.029400
0.759436 0.260049 0.050613
0.782598 0.260049 0.069976
0.805760 0.261152 0.088236
0.828922 0.265073 0.103677
0.848162 0.269730 0.122143
0.870711 0.277451 0.138480
0.890074 0.285309 0.153921
0.906882 0.294363 0.169627
0.925980 0.305883 0.187691
0.941421 0.321323 0.206985
0.956863 0.336764 0.223529
0.000000 0.237009 0.065441
0.000000 0.235822 0.065441
0.000000 0.233257 0.066667
0.000000 0.233089 0.069110
0.000000 0.232016 0.070435
0.000000 0.229166 0.072863
0.004979 0.236274 0.069592
0.046592 0.243405 0.066299
0.099755 0.254963 0.058579
0.155637 0.267402 0.046056
0.215166 0.282843 0.028677
0.288235 0.298284 0.006740
0.357077 0.311274 0.000000
0.419853 0.321691 0.000000
0.477696 0.325490 0.000000
0.531372 0.327857 0.000000
0.581617 0.329902 0.000000
0.628225 0.329328 0.000000
0.663772 0.324265 0.000000
0.693022 0.317639 0.000000
0.720067 0.312745 0.000460
0.743995 0.306372 0.012952
0.767157 0.303294 0.041421
0.790319 0.302451 0.065296
0.813480 0.302758 0.085294
0.835784 0.303677 0.104266
0.855377 0.308333 0.123040
0.874701 0.312132 0.138902
0.894026 0.319853 0.156771
0.910792 0.328799 0.175981
0.928677 0.339292 0.191498
0.944117 0.349471 0.210784
0.956863 0.363725 0.227451
0.000000 0.278187 0.069240
0.000000 0.278187 0.070588
0.000000 0.275613 0.073001
0.000000 0.275613 0.073162
0.000000 0.272013 0.076762
0.000000 0.270554 0.078220
0.000000 0.268865 0.081005
0.006319 0.276103 0.076030
0.069761 0.287408 0.069209
0.132476 0.301237 0.059303
0.194240 0.313725 0.043696
0.260348 0.329167 0.023993
0.337393 0.344608 0.001930
0.405637 0.356372 0.000000
0.468528 0.362645 0.000000
0.521814 0.365809 0.000000
0.573897 0.369731 0.000000
0.620937 0.369731 0.000000
0.664239 0.369141 0.000000
0.701536 0.364461 0.000000
0.731633 0.359068 0.000000
0.755637 0.352696 0.003623
0.778799 0.348775 0.030706
0.800858 0.345822 0.059559
0.821201 0.344853 0.082720
0.840441 0.345148 0.104534
0.860777 0.346201 0.123522
0.880059 0.350735 0.142804
0.897840 0.355714 0.161764
0.914460 0.362381 0.179779
0.929902 0.371324 0.196729
0.945343 0.379167 0.214625
0.960784 0.390686 0.233946
0.000000 0.320588 0.076961
0.000000 0.318137 0.076961
0.000000 0.318137 0.080637
0.000000 0.316804 0.080882
0.000000 0.314216 0.084314
0.000000 0.312975 0.084804
0.000000 0.310754 0.088726
0.000000 0.311443 0.090641
0.030883 0.321569 0.084314
0.105760 0.333088 0.076593
0.172763 0.344608 0.063940
0.237531 0.360049 0.048300
0.305821 0.371569 0.025613
0.382108 0.385554 0.002987
0.450888 0.396324 0.000000
0.512944 0.403263 0.000000
0.564951 0.405147 0.000000
0.612500 0.407031 0.000000
0.655729 0.408333 0.000000
0.695711 0.404412 0.000000
0.733762 0.403860 0.000000
0.763358 0.399020 0.000000
0.786520 0.393873 0.018597
0.808578 0.390487 0.053631
0.828921 0.387255 0.081740
0.848162 0.384804 0.106449
0.866943 0.387530 0.127420
0.886030 0.388725 0.146706
0.901654 0.392831 0.165993
0.918382 0.396937 0.183716
0.933823 0.402206 0.202941
0.949143 0.409926 0.222304
0.960784 0.421569 0.239216
0.000000 0.360662 0.088603
0.000000 0.356863 0.090932
0.000000 0.356740 0.090932
0.000000 0.356740 0.092375
0.000000 0.353309 0.094853
0.000000 0.352818 0.098411
0.000000 0.349334 0.100069
0.000000 0.348897 0.102696
0.001195 0.353615 0.101501
0.077612 0.363971 0.094363
0.150613 0.375490 0.086642
0.215931 0.387557 0.075800
0.281740 0.399127 0.062240
0.350789 0.412588 0.041334
0.424510 0.424181 0.014086
0.492034 0.434926 0.000000
0.552206 0.438726 0.000000
0.601704 0.441778 0.000000
0.646163 0.443015 0.000000
0.686608 0.443015 0.000000
0.723667 0.442142 0.000000
0.759926 0.439093 0.003929
0.788488 0.437868 0.022924
0.814626 0.434723 0.050325
0.835662 0.430852 0.082353
0.855024 0.427328 0.108456
0.872495 0.427328 0.131319
0.889829 0.427328 0.152574
0.906862 0.429213 0.171936
0.922304 0.433061 0.191299
0.936152 0.437010 0.208479
0.949265 0.443064 0.226225
0.960784 0.448530 0.245466
0.000000 0.395344 0.106373
0.000000 0.395344 0.106373
0.000000 0.395344 0.106373
0.000000 0.393137 0.108371
0.000000 0.391422 0.110294
0.000000 0.389560 0.113603
0.000000 0.387500 0.116008
0.000000 0.385294 0.118137
0.000000 0.385294 0.118689
0.046323 0.392034 0.116904
0.130193 0.402987 0.111320
0.197695 0.413113 0.104289
0.260049 0.424755 0.094118
0.324839 0.436397 0.080883
0.392386 0.448039 0.065717
0.464829 0.459681 0.040020
0.530637 0.469608 0.019363
0.589760 0.474318 0.012201
0.634574 0.476456 0.013986
0.676348 0.477697 0.020466
0.714124 0.476869 0.029013
0.748874 0.475490 0.040587
0.783088 0.475490 0.053233
0.812868 0.473774 0.069853
0.838235 0.473346 0.087868
0.859199 0.469853 0.114101
0.878186 0.465931 0.133823
0.893628 0.465931 0.156985
0.909068 0.465931 0.176226
0.924303 0.467854 0.195466
0.937745 0.471568 0.214706
0.949265 0.475544 0.233893
0.964706 0.479412 0.253186
0.000000 0.427941 0.123897
0.000000 0.427941 0.123897
0.000000 0.427941 0.125621
0.000000 0.427941 0.125736
0.000000 0.424280 0.127819
0.000000 0.424020 0.129657
0.000000 0.420489 0.133234
0.000000 0.418662 0.136642
0.000000 0.416176 0.139062
0.030829 0.420833 0.138086
0.116299 0.428554 0.135662
0.183211 0.438848 0.129167
0.243673 0.447917 0.123529
0.304657 0.459559 0.115809
0.368260 0.471201 0.105078
0.433084 0.482843 0.093631
0.501471 0.493444 0.074326
0.565319 0.502206 0.062619
0.621676 0.507177 0.059559
0.664706 0.510294 0.062990
0.702528 0.510294 0.070711
0.737990 0.510294 0.080270
0.771446 0.510294 0.090648
0.802328 0.509777 0.100735
0.832690 0.508456 0.112255
0.858912 0.508456 0.126015
0.879902 0.506028 0.143237
0.897426 0.504534 0.164706
0.910784 0.504534 0.183946
0.926225 0.502451 0.205074
0.937745 0.504649 0.224380
0.953064 0.506495 0.241667
0.964706 0.510294 0.260907
0.000000 0.460784 0.143138
0.000000 0.458823 0.143138
0.000000 0.458823 0.145098
0.000000 0.458823 0.146875
0.000000 0.457108 0.147058
0.000000 0.454902 0.149019
0.000000 0.451716 0.150981
0.000000 0.450981 0.154473
0.000000 0.447059 0.156863
0.025368 0.447059 0.158824
0.109927 0.451716 0.158824
0.172243 0.460723 0.154902
0.232108 0.471078 0.149755
0.290012 0.481924 0.145894
0.347059 0.492402 0.138971
0.406863 0.503125 0.131250
0.469608 0.514706 0.121568
0.535233 0.524326 0.109008
0.596324 0.533088 0.102206
0.650735 0.538051 0.100797
0.691667 0.539215 0.106617
0.727635 0.541176 0.113113
0.760417 0.541176 0.122794
0.792647 0.541176 0.131066
0.821569 0.541176 0.142157
0.848529 0.541176 0.152267
0.874755 0.541176 0.163848
0.897610 0.541176 0.177696
0.914705 0.539216 0.193382
0.926225 0.539032 0.214461
0.941421 0.537255 0.233824
0.953064 0.537378 0.251287
0.964706 0.541176 0.268628
0.000000 0.489706 0.166299
0.000000 0.489706 0.166299
0.000000 0.487868 0.166299
0.000000 0.487868 0.166299
0.000000 0.485784 0.168122
0.000000 0.484233 0.170221
0.000000 0.482253 0.171913
0.000000 0.480427 0.174142
0.000000 0.476562 0.177604
0.040142 0.476103 0.178064
0.113526 0.475452 0.181411
0.172162 0.482598 0.178064
0.225000 0.491621 0.176762
0.281128 0.501961 0.172905
0.333333 0.511765 0.169049
0.389216 0.522430 0.164216
0.445466 0.532046 0.158333
0.506369 0.542770 0.151474
0.566245 0.552329 0.140809
0.625000 0.560049 0.137856
0.677727 0.566988 0.137546
0.716073 0.568137 0.144118
0.750245 0.570221 0.151838
0.782449 0.570221 0.159559
0.811489 0.570680 0.169638
0.838515 0.572059 0.179324
0.865196 0.572059 0.188871
0.888032 0.572059 0.198897
0.908946 0.572059 0.210417
0.926225 0.572059 0.227941
0.939698 0.572059 0.243513
0.953064 0.572059 0.260965
0.960784 0.572059 0.280269
0.000000 0.516667 0.185539
0.000000 0.515005 0.187676
0.000000 0.514951 0.189354
0.000000 0.514951 0.189461
0.000000 0.513021 0.189461
0.000000 0.511297 0.191322
0.000000 0.509237 0.193382
0.000000 0.507483 0.195106
0.002573 0.504902 0.197304
0.070688 0.501601 0.199510
0.129902 0.503186 0.201225
0.178531 0.505760 0.201225
0.227543 0.511765 0.201225
0.275820 0.521201 0.197304
0.325245 0.531127 0.196063
0.376662 0.540564 0.192210
0.429902 0.550490 0.189216
0.483035 0.560960 0.185417
0.538205 0.569853 0.179412
0.595136 0.578271 0.174594
0.650491 0.587010 0.171569
0.702260 0.593972 0.172327
0.739262 0.597304 0.178922
0.771323 0.597304 0.186642
0.801777 0.599020 0.196078
0.828791 0.599020 0.204281
0.855392 0.599433 0.214047
0.878554 0.601225 0.225368
0.899724 0.601225 0.235080
0.919033 0.601225 0.245098
0.936029 0.601332 0.258824
0.949265 0.602941 0.274264
0.960784 0.602941 0.289706
0.000000 0.542035 0.208701
0.000000 0.542035 0.208701
0.000000 0.542035 0.208701
0.000000 0.539924 0.210811
0.000000 0.538312 0.212623
0.000000 0.538113 0.212623
0.000000 0.536221 0.214515
0.000000 0.534191 0.216544
0.045496 0.531862 0.218290
0.106575 0.528596 0.220466
0.150866 0.526348 0.222067
0.192525 0.527876 0.224388
0.233456 0.532721 0.224388
0.277363 0.540441 0.223005
0.323039 0.549472 0.220466
0.369363 0.558211 0.220466
0.418015 0.568689 0.218137
0.466667 0.577574 0.215453
0.517931 0.585991 0.212500
0.571078 0.596936 0.209348
0.622656 0.604657 0.205499
0.676226 0.612377 0.202451
0.725015 0.619370 0.207100
0.760336 0.621569 0.213725
0.790564 0.624388 0.221446
0.819344 0.624388 0.229166
0.844187 0.625980 0.237623
0.868876 0.628309 0.248529
0.890074 0.628309 0.260172
0.909164 0.628309 0.268260
0.928309 0.628309 0.279680
0.943750 0.628309 0.291299
0.959191 0.629902 0.302819
0.000000 0.566667 0.231863
0.000000 0.565196 0.231863
0.000000 0.565196 0.231863
0.000000 0.565196 0.231863
0.000000 0.565196 0.234008
0.000000 0.562745 0.235785
0.004779 0.561275 0.235785
0.046308 0.559359 0.237699
0.101348 0.557353 0.239706
0.143014 0.553845 0.239706
0.177451 0.551746 0.243168
0.208977 0.549510 0.245236
0.244179 0.551961 0.247549
0.283701 0.559681 0.246676
0.323682 0.567402 0.243627
0.366131 0.576425 0.243627
0.410294 0.585294 0.243627
0.456618 0.593015 0.242478
0.502941 0.603278 0.241176
0.551716 0.612377 0.239583
0.598958 0.620098 0.237255
0.649770 0.627819 0.234298
0.699510 0.635999 0.234099
0.745925 0.644730 0.237944
0.781372 0.647549 0.244608
0.809482 0.648085 0.252329
0.836029 0.651471 0.260784
0.859191 0.651471 0.271691
0.881863 0.651471 0.279902
0.901226 0.651471 0.291054
0.919210 0.651471 0.302696
0.936029 0.651593 0.314338
0.951471 0.655392 0.324510
0.000000 0.592279 0.255024
0.000000 0.589786 0.255024
0.000000 0.588358 0.255024
0.000000 0.588358 0.255024
0.008594 0.588358 0.255024
0.031897 0.588358 0.258333
0.078332 0.584689 0.258946
0.115246 0.584436 0.258946
0.149265 0.581495 0.260877
0.177830 0.580515 0.262868
0.205637 0.577014 0.264637
0.233946 0.574904 0.266789
0.260064 0.572671 0.266789
0.293815 0.577574 0.266789
0.330024 0.585294 0.270711
0.368628 0.593015 0.268137
0.408517 0.601409 0.268137
0.449613 0.611010 0.268137
0.492057 0.620098 0.268137
0.537075 0.627819 0.267590
0.582598 0.635539 0.266789
0.628458 0.643260 0.265905
0.673897 0.650980 0.264216
0.720944 0.659425 0.264216
0.765257 0.668352 0.267770
0.798162 0.670711 0.275490
0.825122 0.673284 0.283693
0.851260 0.674632 0.294853
0.870711 0.674632 0.302895
0.889951 0.674632 0.314216
0.908946 0.674632 0.324594
0.927003 0.674713 0.333701
0.943750 0.678554 0.345220
0.020833 0.614216 0.278187
0.032307 0.611604 0.278187
0.049096 0.611520 0.278187
0.072542 0.611520 0.278187
0.095650 0.611520 0.278187
0.117961 0.611520 0.278187
0.143122 0.608104 0.280377
0.165564 0.607598 0.282108
0.189828 0.604657 0.282108
0.213358 0.603677 0.284046
0.236519 0.600980 0.286030
0.258456 0.599755 0.286030
0.281618 0.595834 0.289492
0.308203 0.598659 0.289951
0.339461 0.604657 0.289951
0.374265 0.612378 0.291383
0.410417 0.620098 0.293873
0.448407 0.627819 0.293873
0.487009 0.635539 0.293873
0.528309 0.643260 0.293873
0.570068 0.650980 0.293873
0.612554 0.658701 0.293873
0.655499 0.666422 0.293873
0.697940 0.674142 0.293873
0.742402 0.681863 0.294179
0.784337 0.689584 0.298384
0.815671 0.692877 0.306372
0.839829 0.693873 0.316981
0.862990 0.696569 0.325735
0.882115 0.696569 0.336267
0.901226 0.696646 0.345266
0.916666 0.697794 0.356740
0.936029 0.700490 0.368383
0.123652 0.634682 0.300245
0.130270 0.634682 0.301348
0.137990 0.634682 0.301348
0.148265 0.634682 0.301348
0.159819 0.634682 0.301348
0.174192 0.633751 0.301348
0.189461 0.630760 0.301348
0.207721 0.630760 0.303550
0.226807 0.627818 0.305270
0.245343 0.626838 0.305270
0.264706 0.624142 0.307207
0.283690 0.622917 0.309191
0.304779 0.618995 0.309191
0.326838 0.620669 0.312665
0.352206 0.622434 0.313113
0.381985 0.627819 0.313113
0.416789 0.635539 0.315073
0.448993 0.643260 0.317034
0.486527 0.650980 0.317034
0.521691 0.658701 0.317034
0.560294 0.666422 0.318137
0.601336 0.674142 0.319106
0.639560 0.681863 0.320956
0.679714 0.689584 0.320956
0.720343 0.697304 0.322059
0.761765 0.703922 0.322675
0.800735 0.711114 0.327038
0.831177 0.713113 0.336324
0.854779 0.715931 0.347932
0.874142 0.715931 0.356882
0.893505 0.716000 0.368260
0.908946 0.717122 0.379902
0.927206 0.719853 0.390441
0.183334 0.657843 0.320588
0.187255 0.657843 0.320588
0.193934 0.657843 0.324265
0.201593 0.656955 0.324510
0.209314 0.656863 0.324510
0.220343 0.653921 0.324510
0.232414 0.653921 0.324510
0.246323 0.653921 0.324510
0.261030 0.650735 0.324510
0.276226 0.650000 0.328431
0.293689 0.647304 0.328431
0.310049 0.646078 0.330362
0.328309 0.642157 0.332353
0.346600 0.641575 0.332353
0.369363 0.643382 0.334559
0.394087 0.647181 0.336274
0.424510 0.653431 0.336274
0.455392 0.658701 0.339675
0.487561 0.666422 0.340196
0.521293 0.674142 0.341789
0.556373 0.681863 0.344117
0.592984 0.689584 0.344117
0.628676 0.697304 0.346017
0.667004 0.704044 0.348039
0.704902 0.708823 0.349020
0.743290 0.716544 0.349663
0.780576 0.724081 0.352145
0.816176 0.730545 0.356495
0.842769 0.732353 0.367647
0.866422 0.735294 0.379780
0.885785 0.735294 0.387745
0.901226 0.735324 0.399234
0.916667 0.739216 0.410784
0.232598 0.680147 0.344608
0.236520 0.677084 0.344608
0.240388 0.677084 0.347672
0.247139 0.677084 0.347672
0.254779 0.677084 0.347672
0.262500 0.677084 0.347672
0.272710 0.676387 0.347672
0.281863 0.673832 0.347672
0.295803 0.673162 0.348315
0.307349 0.672545 0.351593
0.322549 0.669240 0.351593
0.337990 0.669240 0.351593
0.352895 0.665319 0.355515
0.368014 0.662990 0.355515
0.385179 0.661397 0.355515
0.407966 0.664916 0.359436
0.433088 0.670343 0.359436
0.463113 0.678064 0.363358
0.493620 0.682345 0.363358
0.524019 0.689584 0.365460
0.554902 0.697304 0.367280
0.589143 0.705024 0.369190
0.623652 0.710930 0.371469
0.656254 0.716544 0.372920
0.692616 0.724265 0.375337
0.727206 0.730457 0.376651
0.762010 0.735784 0.379902
0.796090 0.742647 0.383100
0.830484 0.749985 0.387378
0.855147 0.750736 0.398529
0.878064 0.750789 0.410662
0.893505 0.754657 0.422304
0.912867 0.754657 0.433089
0.278187 0.700245 0.370833
0.282008 0.700245 0.370833
0.282797 0.699510 0.370833
0.289584 0.699510 0.370833
0.293382 0.699510 0.370833
0.301103 0.696324 0.370833
0.308823 0.696324 0.370833
0.319033 0.696324 0.370833
0.328002 0.695589 0.373958
0.339093 0.692402 0.374755
0.352926 0.692402 0.374755
0.364951 0.689576 0.374755
0.379657 0.688481 0.378677
0.391912 0.685854 0.378677
0.406618 0.684559 0.379090
0.423751 0.684559 0.382598
0.446569 0.688113 0.382598
0.473261 0.693505 0.386520
0.500000 0.701225 0.386841
0.528677 0.705024 0.390441
0.558823 0.712745 0.391912
0.587615 0.720213 0.394363
0.620588 0.724265 0.398284
0.650735 0.731985 0.398491
0.681618 0.738174 0.402390
0.716421 0.743344 0.403638
0.747304 0.747304 0.406863
0.778072 0.753791 0.410164
0.811520 0.758732 0.414063
