public/luts/builtin/kodachrome.cube
TITLE "Kodachrome-Generic"
LUT_3D_SIZE 33
0.066667 0.047059 0.047059
0.070465 0.043260 0.047059
0.078186 0.043137 0.047059
0.093383 0.043137 0.047059
0.108824 0.043137 0.043627
0.124265 0.039829 0.043137
0.139705 0.039216 0.039216
0.159068 0.036152 0.036152
0.178431 0.035294 0.035294
0.196691 0.031373 0.031373
0.217157 0.028677 0.027451
0.239093 0.024877 0.023529
0.258333 0.023529 0.021078
0.281495 0.019608 0.019608
0.304657 0.019608 0.019608
0.323897 0.017524 0.015686
0.347058 0.015686 0.015686
0.370221 0.015686 0.013848
0.393382 0.013971 0.011765
0.412623 0.011765 0.011765
0.435785 0.011765 0.011765
0.458946 0.011765 0.007843
0.482108 0.007843 0.007843
0.504167 0.007843 0.007843
0.524510 0.007843 0.007843
0.547672 0.007843 0.007843
0.566912 0.007843 0.007843
0.589460 0.007843 0.007843
0.608823 0.007843 0.007843
0.628554 0.007843 0.007843
0.647549 0.007843 0.007843
0.662868 0.007843 0.007843
0.674510 0.007843 0.007843
0.066667 0.050857 0.047059
0.070465 0.050857 0.047059
0.078186 0.050857 0.047059
0.093383 0.047415 0.047059
0.108824 0.046936 0.043627
0.124265 0.043731 0.043137
0.142892 0.043014 0.039216
0.162037 0.039120 0.036152
0.181281 0.035294 0.035294
0.197794 0.032476 0.031373
0.217157 0.028677 0.027451
0.239093 0.024877 0.023529
0.258333 0.023529 0.021078
0.281495 0.019608 0.019608
0.302451 0.019608 0.019608
0.323897 0.017524 0.015686
0.347058 0.015686 0.015686
0.370221 0.015686 0.013848
0.393382 0.013971 0.011765
0.412623 0.011765 0.011765
0.435785 0.011765 0.011765
0.458946 0.011765 0.007843
0.482108 0.007843 0.007843
0.504167 0.007843 0.007843
0.524510 0.007843 0.007843
0.547672 0.007843 0.007843
0.566912 0.007843 0.007843
0.589460 0.007843 0.007843
0.608823 0.007843 0.007843
0.628554 0.007843 0.007843
0.647549 0.007843 0.007843
0.662868 0.007843 0.007843
0.674510 0.007843 0.007843
0.066667 0.062500 0.054657
0.070588 0.062500 0.054657
0.082108 0.062500 0.050980
0.097304 0.058923 0.047059
0.112745 0.058334 0.043627
0.128148 0.054450 0.043137
0.146615 0.050735 0.039905
0.162990 0.046814 0.036152
0.182292 0.042892 0.035294
0.201647 0.039040 0.031373
0.219853 0.035126 0.027451
0.240357 0.028715 0.023529
0.262102 0.024908 0.021078
0.281495 0.021201 0.019608
0.304519 0.019608 0.019608
0.323897 0.017524 0.015686
0.347058 0.015686 0.015686
0.370221 0.015686 0.013848
0.393382 0.013971 0.011765
0.412623 0.011765 0.011765
0.435785 0.011765 0.011765
0.458946 0.011765 0.007843
0.482108 0.007843 0.007843
0.504167 0.007843 0.007843
0.524510 0.007843 0.007843
0.546867 0.007843 0.007843
0.566912 0.007843 0.007843
0.589460 0.007843 0.007843
0.608823 0.007843 0.007843
0.628186 0.007843 0.007843
0.647549 0.007843 0.007843
0.662868 0.007843 0.007843
0.674510 0.007843 0.007843
0.066667 0.077696 0.062377
0.070588 0.074253 0.062377
0.085440 0.073798 0.058678
0.097637 0.073809 0.054534
0.112745 0.073775 0.047503
0.131740 0.066855 0.043692
0.147549 0.063044 0.039951
0.166831 0.058946 0.036152
0.185018 0.051593 0.035294
0.201716 0.047794 0.031373
0.221078 0.043880 0.027451
0.242773 0.038848 0.024751
0.262255 0.032476 0.021078
0.283088 0.028677 0.019608
0.304657 0.025084 0.019608
0.325563 0.021274 0.015686
0.347058 0.019240 0.015686
0.370221 0.017574 0.013848
0.389668 0.015686 0.011765
0.412623 0.011765 0.011765
0.435785 0.011765 0.011765
0.455392 0.011765 0.007843
0.478439 0.007843 0.007843
0.501348 0.007843 0.007843
0.520864 0.007843 0.007843
0.543750 0.007843 0.007843
0.563358 0.007843 0.007843
0.585597 0.007843 0.007843
0.604948 0.007843 0.007843
0.624965 0.007843 0.007843
0.643627 0.007843 0.007843
0.658958 0.007843 0.007843
0.670588 0.007843 0.007843
0.066667 0.093138 0.070098
0.074387 0.089216 0.070098
0.085785 0.089216 0.066177
0.100781 0.089216 0.059146
0.116605 0.089216 0.054902
0.132108 0.081985 0.047595
0.151379 0.078186 0.043137
0.169592 0.074387 0.038833
0.186274 0.069608 0.035294
0.205499 0.062868 0.031373
0.224847 0.059069 0.028523
0.243015 0.051670 0.024877
0.263542 0.047549 0.021078
0.285416 0.042356 0.019608
0.304657 0.038236 0.019608
0.327558 0.032491 0.015686
0.347058 0.028677 0.015686
0.368382 0.025122 0.013848
0.389461 0.021323 0.011765
0.411228 0.019118 0.011765
0.431863 0.015686 0.011765
0.453845 0.015196 0.007843
0.474755 0.011765 0.007843
0.497427 0.010310 0.007843
0.517157 0.007843 0.007843
0.539829 0.007843 0.007843
0.559559 0.007843 0.007843
0.581694 0.007843 0.007843
0.601042 0.007843 0.007843
0.621155 0.007843 0.007843
0.639706 0.007843 0.007843
0.655040 0.007843 0.007843
0.666667 0.007843 0.007843
0.073897 0.105269 0.077818
0.078412 0.104657 0.077818
0.089338 0.104657 0.073897
0.101536 0.104657 0.066422
0.116667 0.101762 0.062623
0.135417 0.097426 0.054902
0.151470 0.093628 0.047181
0.170833 0.089828 0.042658
0.189216 0.085876 0.036275
0.208456 0.078309 0.032303
0.225000 0.074510 0.028677
0.244363 0.069363 0.024877
0.265794 0.062990 0.023146
0.285416 0.058942 0.019608
0.306373 0.053677 0.019608
0.327819 0.047671 0.015686
0.347058 0.043873 0.015686
0.368382 0.038316 0.013848
0.389461 0.034069 0.011765
0.411029 0.030147 0.011765
0.431863 0.026608 0.011765
0.453676 0.022916 0.007843
0.474265 0.018995 0.007843
0.493945 0.017892 0.007843
0.515839 0.015073 0.007843
0.535907 0.011765 0.007843
0.555645 0.011152 0.007843
0.575000 0.007843 0.007843
0.597135 0.007843 0.007843
0.616479 0.007843 0.007843
0.632476 0.007843 0.007843
0.647917 0.007843 0.007843
0.659437 0.007843 0.007843
0.078431 0.123284 0.085540
0.082330 0.120098 0.085540
0.089951 0.120098 0.081863
0.105147 0.120098 0.074142
0.120589 0.119455 0.070343
0.136030 0.115556 0.062623
0.154657 0.111657 0.054902
0.173323 0.107759 0.047181
0.192586 0.103860 0.040196
0.211849 0.099962 0.035294
0.228922 0.093643 0.028677
0.248031 0.089338 0.026968
0.267371 0.082353 0.023529
0.287010 0.077818 0.019608
0.308578 0.070833 0.019608
0.327819 0.066690 0.015686
0.348652 0.059314 0.015686
0.369876 0.055124 0.013848
0.389461 0.049509 0.011765
0.411029 0.045588 0.011765
0.431863 0.041666 0.011765
0.453676 0.036650 0.007843
0.474265 0.032828 0.007843
0.493505 0.029006 0.007843
0.515686 0.025184 0.007843
0.535907 0.021936 0.007843
0.555147 0.018873 0.007843
0.574387 0.014951 0.007843
0.593628 0.014951 0.007843
0.612500 0.014951 0.007843
0.628677 0.014951 0.007843
0.644094 0.014951 0.007843
0.655637 0.014951 0.007843
0.085417 0.139460 0.097181
0.089216 0.138629 0.096350
0.096936 0.135539 0.092456
0.105434 0.135539 0.084927
0.120589 0.135539 0.078064
0.136030 0.132230 0.070343
0.155232 0.130920 0.062623
0.174567 0.127026 0.054902
0.193903 0.123897 0.047181
0.213239 0.119237 0.039461
0.232575 0.115342 0.034704
0.251911 0.109141 0.028504
0.271247 0.103630 0.024678
0.290583 0.097568 0.020852
0.309918 0.093260 0.019608
0.331284 0.085995 0.015686
0.350981 0.081740 0.015686
0.370221 0.074422 0.013848
0.391184 0.070221 0.011765
0.412623 0.064603 0.011765
0.431863 0.059023 0.011765
0.453676 0.053186 0.007843
0.474265 0.048039 0.007843
0.493505 0.044240 0.007843
0.515686 0.040441 0.007843
0.535907 0.036642 0.007843
0.555147 0.029657 0.007843
0.574387 0.026459 0.007843
0.593628 0.022671 0.007843
0.612500 0.022671 0.007843
0.627941 0.022671 0.007843
0.643260 0.022671 0.007843
0.654902 0.022671 0.007843
0.090196 0.154902 0.107843
0.094087 0.154902 0.107843
0.101716 0.153983 0.103983
0.109436 0.151256 0.096446
0.124510 0.150980 0.088725
0.139951 0.150980 0.081005
0.155392 0.150000 0.070894
0.174755 0.146293 0.062623
0.196323 0.143873 0.054902
0.216299 0.138511 0.047181
0.235539 0.134620 0.040135
0.255791 0.130729 0.035662
0.275122 0.126471 0.027941
0.294455 0.120221 0.022947
0.315441 0.115135 0.019608
0.335141 0.108701 0.017065
0.354412 0.104902 0.015686
0.375705 0.097181 0.013848
0.395037 0.093382 0.011765
0.415564 0.085662 0.011765
0.435785 0.081863 0.011765
0.456955 0.074479 0.007843
0.476287 0.070343 0.007843
0.496324 0.063726 0.007843
0.516666 0.059069 0.007843
0.535907 0.052727 0.007843
0.555147 0.047488 0.007843
0.574387 0.041176 0.007843
0.593628 0.037255 0.007843
0.612500 0.034222 0.007843
0.627941 0.033333 0.007843
0.643260 0.033333 0.007843
0.654902 0.033333 0.007843
0.096936 0.170343 0.116544
0.100823 0.170343 0.116544
0.108456 0.170343 0.115510
0.116176 0.170343 0.107966
0.124862 0.169378 0.100245
0.139951 0.169240 0.092525
0.157682 0.166950 0.081985
0.174755 0.165560 0.073403
0.197059 0.162500 0.065441
0.216299 0.159371 0.057721
0.236765 0.155538 0.050000
0.258701 0.151704 0.043003
0.278998 0.147181 0.035662
0.298327 0.142237 0.027941
0.319240 0.137867 0.021323
0.338997 0.131863 0.019022
0.358823 0.126655 0.015686
0.379561 0.120343 0.015169
0.400122 0.116544 0.011765
0.420017 0.108823 0.011765
0.441468 0.105024 0.011765
0.460796 0.097304 0.007843
0.481005 0.093505 0.007843
0.500245 0.085784 0.007843
0.519485 0.081986 0.007843
0.539587 0.074265 0.007843
0.558334 0.070466 0.007843
0.577696 0.063358 0.007843
0.593628 0.059436 0.007843
0.612500 0.055147 0.007843
0.627941 0.048774 0.007843
0.643348 0.048774 0.007843
0.654902 0.048774 0.007843
0.104657 0.185784 0.128186
0.108456 0.185784 0.128186
0.112500 0.185784 0.127038
0.119976 0.185784 0.119485
0.128769 0.185784 0.111764
0.142647 0.185784 0.104044
0.159084 0.185784 0.094133
0.176861 0.184827 0.084682
0.197059 0.181863 0.074265
0.216299 0.180637 0.066544
0.238618 0.177098 0.058824
0.258701 0.173216 0.051103
0.281097 0.169332 0.043382
0.301103 0.164951 0.035662
0.321522 0.161029 0.027941
0.342854 0.155025 0.020872
0.364093 0.150613 0.017034
0.383417 0.143505 0.015686
0.403922 0.139706 0.011765
0.424388 0.131985 0.011765
0.445312 0.128186 0.011765
0.464637 0.120466 0.007843
0.484804 0.116667 0.007843
0.504925 0.108946 0.007843
0.524204 0.105147 0.007843
0.543482 0.098016 0.007843
0.562760 0.093628 0.007843
0.580584 0.086519 0.007843
0.599755 0.082598 0.007843
0.616421 0.078309 0.007843
0.631863 0.070833 0.007843
0.647266 0.070833 0.007843
0.657598 0.070833 0.007843
0.112377 0.205147 0.139828
0.116176 0.205147 0.139828
0.120060 0.205147 0.139828
0.127696 0.205147 0.132353
0.135417 0.205147 0.124632
0.144275 0.204009 0.116912
0.159313 0.203799 0.108096
0.177818 0.203799 0.096496
0.197059 0.201226 0.085539
0.216299 0.199878 0.074989
0.239461 0.196377 0.066544
0.258701 0.194267 0.058824
0.281863 0.192034 0.051103
0.302148 0.188113 0.043382
0.324265 0.182744 0.035662
0.344711 0.178186 0.027941
0.366667 0.174387 0.020895
0.387274 0.166667 0.015686
0.408479 0.162868 0.013212
0.428309 0.156740 0.011765
0.450123 0.151348 0.011765
0.470248 0.144976 0.007843
0.489530 0.139828 0.007843
0.510662 0.132832 0.007843
0.530025 0.128309 0.007843
0.549387 0.120588 0.007843
0.568750 0.116789 0.007843
0.585942 0.109681 0.007843
0.604044 0.105760 0.007843
0.622916 0.101470 0.007843
0.638358 0.093995 0.007843
0.653676 0.093995 0.007843
0.665319 0.093995 0.007843
0.120098 0.220588 0.153922
0.123897 0.223039 0.153922
0.127788 0.224510 0.153922
0.131863 0.224510 0.146446
0.139215 0.224510 0.138725
0.148177 0.224510 0.131005
0.161765 0.224510 0.123284
0.178355 0.223039 0.111642
0.197059 0.221201 0.100000
0.216299 0.219118 0.086597
0.239461 0.217433 0.075031
0.258701 0.215196 0.066544
0.281863 0.211826 0.058824
0.305024 0.209819 0.051103
0.325337 0.205147 0.043382
0.347426 0.201348 0.035662
0.369853 0.197549 0.027941
0.389828 0.191667 0.020220
0.412347 0.186029 0.015686
0.432231 0.181357 0.013220
0.453921 0.175429 0.011765
0.474127 0.170711 0.009452
0.495558 0.163756 0.007843
0.515564 0.159191 0.007843
0.534804 0.152083 0.007843
0.554044 0.146523 0.007843
0.573284 0.139951 0.007843
0.592142 0.132843 0.007843
0.611275 0.128921 0.007843
0.630638 0.124632 0.007843
0.646078 0.117157 0.007843
0.661397 0.117157 0.007843
0.673039 0.117157 0.007843
0.127819 0.242279 0.165441
0.131618 0.242279 0.165441
0.135662 0.246201 0.165441
0.139583 0.246201 0.157965
0.146936 0.246201 0.150245
0.154657 0.246201 0.142525
0.163672 0.246201 0.134804
0.178676 0.242628 0.127084
0.197641 0.240533 0.115441
0.216299 0.238806 0.100981
0.237860 0.238358 0.088733
0.258701 0.234984 0.075065
0.281863 0.234436 0.066544
0.305024 0.231162 0.058824
0.328186 0.227290 0.051103
0.348518 0.224510 0.043382
0.370588 0.220711 0.035662
0.393750 0.216912 0.027941
0.415319 0.212217 0.021936
0.436152 0.206338 0.017069
0.457721 0.201593 0.013220
0.478554 0.196749 0.010417
0.499395 0.190073 0.007843
0.520508 0.183456 0.007843
0.539798 0.178554 0.007843
0.560907 0.171343 0.007843
0.580568 0.165441 0.007843
0.599632 0.159314 0.007843
0.618995 0.152083 0.007843
0.638358 0.147794 0.007843
0.653799 0.140318 0.007843
0.669118 0.140318 0.007843
0.680760 0.140318 0.007843
0.135539 0.261520 0.178677
0.139338 0.265372 0.178677
0.143382 0.269118 0.178677
0.147097 0.269363 0.173407
0.152727 0.269363 0.165686
0.160171 0.269363 0.157966
0.167892 0.267570 0.150245
0.182598 0.263718 0.142525
0.198039 0.259865 0.130882
0.216299 0.258080 0.116422
0.236765 0.257598 0.103676
0.258701 0.256150 0.089461
0.281863 0.253677 0.076470
0.305024 0.252367 0.066544
0.328186 0.249755 0.058824
0.351348 0.245833 0.051103
0.373652 0.243873 0.043382
0.394922 0.241108 0.035662
0.416912 0.236275 0.029657
0.440074 0.232476 0.024142
0.461520 0.227604 0.018965
0.483923 0.221714 0.013971
0.505101 0.217157 0.009360
0.525980 0.211642 0.007843
0.546323 0.205637 0.007843
0.565564 0.198399 0.007843
0.584804 0.192402 0.007843
0.605492 0.184950 0.007843
0.624785 0.178952 0.007843
0.646078 0.173323 0.007843
0.661520 0.167295 0.007843
0.676838 0.163480 0.007843
0.688481 0.163480 0.007843
0.143260 0.284681 0.192402
0.147124 0.284681 0.192402
0.151103 0.288603 0.192402
0.154657 0.290442 0.188481
0.158686 0.290442 0.181128
0.166176 0.290442 0.173407
0.173897 0.288948 0.165686
0.183054 0.285539 0.157966
0.198039 0.281220 0.146323
0.216885 0.277355 0.131862
0.235539 0.276838 0.119118
0.258701 0.275471 0.104902
0.281863 0.273606 0.090610
0.305024 0.272917 0.077941
0.328186 0.272917 0.067456
0.351348 0.268995 0.058824
0.374509 0.268076 0.051103
0.397672 0.265074 0.043382
0.420833 0.262324 0.037378
0.443248 0.258467 0.031863
0.465319 0.254611 0.025613
0.488481 0.250123 0.020343
0.508984 0.244891 0.015112
0.530882 0.238603 0.009927
0.551502 0.233242 0.007843
0.572828 0.227083 0.007843
0.592525 0.221201 0.007843
0.611765 0.215564 0.007843
0.631005 0.207843 0.007843
0.653799 0.202156 0.007843
0.669240 0.196569 0.007843
0.684559 0.192647 0.007843
0.694118 0.192647 0.007843
0.154902 0.307843 0.207844
0.154902 0.307843 0.207844
0.158824 0.311519 0.207844
0.162377 0.311764 0.203922
0.166176 0.311764 0.196569
0.173897 0.311764 0.188848
0.181618 0.311764 0.181128
0.189338 0.308272 0.173407
0.201961 0.303922 0.161765
0.217402 0.298591 0.147304
0.235539 0.296079 0.134559
0.258701 0.296079 0.120343
0.281863 0.296079 0.104902
0.305024 0.292953 0.091789
0.328186 0.292157 0.079044
0.351348 0.292157 0.066544
0.374509 0.292157 0.058824
0.398591 0.289277 0.051103
0.423897 0.288235 0.045098
0.445956 0.284313 0.039583
0.468383 0.281618 0.033334
0.490319 0.277757 0.028064
0.513481 0.271936 0.021569
0.534681 0.268076 0.016544
0.557843 0.261765 0.011275
0.577083 0.256434 0.007843
0.599510 0.250245 0.007843
0.619179 0.243137 0.007843
0.638481 0.238726 0.007843
0.657966 0.231373 0.007843
0.676961 0.227451 0.007843
0.692280 0.223529 0.007843
0.700000 0.223529 0.007843
0.162622 0.331005 0.223284
0.162622 0.331005 0.223284
0.166544 0.334681 0.223284
0.170098 0.334926 0.219362
0.173897 0.334926 0.212010
0.181618 0.334926 0.204289
0.189338 0.334926 0.196569
0.197059 0.331863 0.188848
0.206342 0.327083 0.177665
0.219240 0.320343 0.162745
0.236765 0.316544 0.150574
0.258701 0.315319 0.135784
0.281863 0.315319 0.120343
0.305024 0.315319 0.106139
0.328186 0.315319 0.093383
0.351348 0.315319 0.079048
0.378432 0.315319 0.068382
0.401593 0.314342 0.060662
0.424755 0.312431 0.053853
0.447917 0.310551 0.047304
0.472917 0.307475 0.041054
0.496078 0.304760 0.035784
0.517402 0.300896 0.029289
0.540564 0.296446 0.024265
0.561642 0.291268 0.017524
0.584402 0.284926 0.013201
0.604044 0.281128 0.009337
0.625042 0.273733 0.007843
0.645956 0.269608 0.007843
0.665319 0.262255 0.007843
0.684682 0.258333 0.007843
0.700000 0.254412 0.007843
0.707720 0.254412 0.007843
0.170343 0.354167 0.234804
0.174196 0.354167 0.234804
0.174265 0.357843 0.234804
0.178186 0.358088 0.232805
0.181618 0.358088 0.227451
0.187890 0.358088 0.219730
0.195343 0.358088 0.212010
0.204780 0.355025 0.204289
0.212500 0.350245 0.193627
0.225728 0.343505 0.182108
0.240686 0.339706 0.166666
0.259291 0.334559 0.151225
0.281863 0.334559 0.138879
0.305024 0.334559 0.124265
0.328186 0.335799 0.108824
0.351348 0.337676 0.093383
0.378432 0.338480 0.080760
0.401593 0.338480 0.072181
0.428676 0.338480 0.064461
0.451839 0.336275 0.056740
0.475000 0.334559 0.049847
0.498752 0.332353 0.043505
0.523039 0.329948 0.037010
0.545718 0.326095 0.031985
0.567647 0.320159 0.025245
0.590326 0.315809 0.020466
0.611351 0.308824 0.016667
0.631005 0.304289 0.009559
0.652175 0.298989 0.007843
0.673039 0.293138 0.007843
0.688481 0.289108 0.007843
0.703922 0.285294 0.007843
0.715441 0.285294 0.007843
0.181985 0.375735 0.250245
0.181985 0.377329 0.250245
0.185662 0.381005 0.250245
0.185907 0.381250 0.250245
0.189828 0.381250 0.242892
0.195094 0.381250 0.235172
0.200858 0.381250 0.227451
0.210398 0.379431 0.219730
0.220221 0.374387 0.209069
0.230760 0.367812 0.198694
0.246201 0.362868 0.186029
0.261642 0.358268 0.170588
0.281863 0.356725 0.155147
0.305024 0.356127 0.142681
0.328186 0.357721 0.128187
0.352194 0.357721 0.112745
0.378432 0.360846 0.097304
0.402340 0.361642 0.085785
0.428676 0.361642 0.075980
0.455760 0.361642 0.068260
0.478922 0.361642 0.060539
0.502083 0.359313 0.052819
0.526838 0.356993 0.045825
0.550000 0.354289 0.039706
0.572763 0.350490 0.032966
0.594731 0.345446 0.028186
0.617455 0.339407 0.024387
0.638726 0.335172 0.017279
0.657966 0.327941 0.013358
0.680760 0.324019 0.009436
0.696201 0.319853 0.007843
0.711519 0.316176 0.007843
0.723162 0.316176 0.007843
0.189706 0.396569 0.265686
0.189706 0.400367 0.265686
0.193382 0.404167 0.265686
0.194960 0.404412 0.265686
0.197549 0.404412 0.258333
0.204780 0.404412 0.250613
0.212500 0.404412 0.242892
0.217769 0.404412 0.235172
0.227941 0.398652 0.227451
0.237424 0.393750 0.215809
0.250766 0.387500 0.205392
0.265441 0.383196 0.189951
0.282415 0.378431 0.175980
0.305024 0.376961 0.160539
0.328186 0.376961 0.147549
0.353431 0.380193 0.132889
0.378432 0.382108 0.118137
0.405515 0.384804 0.103845
0.431219 0.385447 0.092249
0.456357 0.386274 0.083701
0.482843 0.386274 0.075980
0.506005 0.386274 0.068260
0.529626 0.385815 0.060539
0.556250 0.382353 0.052819
0.576961 0.378431 0.045098
0.600122 0.373652 0.037913
0.623009 0.369853 0.032108
0.644592 0.364813 0.028309
0.665503 0.358823 0.021078
0.687148 0.354764 0.017157
0.703922 0.350888 0.013235
0.719240 0.347059 0.013235
0.730882 0.347059 0.013235
0.197426 0.419730 0.281127
0.198732 0.423530 0.281127
0.201348 0.427328 0.281127
0.205029 0.427573 0.281127
0.208701 0.428921 0.273774
0.212500 0.428921 0.266054
0.220221 0.428921 0.258333
0.227941 0.427573 0.250613
0.235662 0.424632 0.242892
0.243382 0.420109 0.232353
0.256794 0.413113 0.223529
0.271814 0.408429 0.210199
0.287255 0.401593 0.195220
0.305572 0.400122 0.182353
0.328186 0.400122 0.166911
0.353431 0.400122 0.152187
0.378432 0.404044 0.138664
0.405515 0.407966 0.124510
0.432598 0.411887 0.109658
0.459682 0.412435 0.099142
0.485156 0.413235 0.090916
0.509926 0.413235 0.082353
0.533510 0.413235 0.072863
0.557598 0.411164 0.066912
0.583333 0.408334 0.059191
0.603922 0.403481 0.051470
0.627083 0.397549 0.044003
0.648897 0.393627 0.037377
0.669485 0.389216 0.032231
0.692279 0.385416 0.024877
0.711642 0.380354 0.020956
0.726961 0.377941 0.020956
0.738603 0.377941 0.020956
0.206373 0.442892 0.296569
0.208984 0.445504 0.296569
0.210217 0.449341 0.296569
0.214101 0.450736 0.293015
0.216912 0.454503 0.289216
0.220412 0.454657 0.281495
0.227941 0.454657 0.273774
0.235662 0.454657 0.266054
0.243382 0.451042 0.258333
0.251103 0.444876 0.250613
0.262745 0.440196 0.238971
0.276961 0.432476 0.229481
0.292402 0.427665 0.216146
0.307843 0.423285 0.201716
0.328722 0.422595 0.187500
0.354006 0.422059 0.172059
0.378432 0.425245 0.157966
0.405515 0.430476 0.144447
0.432598 0.434360 0.129657
0.460179 0.438971 0.115311
0.487224 0.439430 0.105851
0.513848 0.440196 0.095221
0.537393 0.440196 0.087500
0.561397 0.439851 0.079779
0.584559 0.436275 0.072059
0.609827 0.432353 0.064338
0.630883 0.428201 0.056618
0.653852 0.424318 0.048897
0.675981 0.420098 0.041177
0.698889 0.412745 0.036152
0.715441 0.408824 0.029825
0.733494 0.408824 0.028677
0.745098 0.408824 0.028677
0.216789 0.466054 0.312010
0.217857 0.466054 0.312010
0.220711 0.469976 0.312010
0.224368 0.473529 0.308456
0.228064 0.474862 0.304657
0.228554 0.477819 0.296936
0.235662 0.477819 0.289216
0.243382 0.477819 0.281495
0.251103 0.477819 0.273774
0.259617 0.471078 0.266054
0.270466 0.464116 0.256395
0.283958 0.458590 0.246691
0.299020 0.451838 0.235463
0.314461 0.446446 0.221733
0.332590 0.442525 0.206740
0.355270 0.442525 0.192796
0.378432 0.444485 0.178676
0.405515 0.449782 0.164338
0.432598 0.455522 0.150130
0.461274 0.459804 0.136275
0.488235 0.465364 0.122993
0.515196 0.466054 0.111386
0.540932 0.466054 0.102941
0.564093 0.466054 0.094911
0.587255 0.465349 0.083578
0.610417 0.461516 0.075858
0.633579 0.457682 0.068137
0.656740 0.453849 0.060417
0.679902 0.450016 0.052696
0.702696 0.443628 0.045239
0.722059 0.439706 0.040074
0.738480 0.439706 0.036397
0.750123 0.439706 0.036397
0.224510 0.489216 0.327451
0.228309 0.489216 0.327451
0.232169 0.493076 0.327451
0.233242 0.496691 0.323897
0.237132 0.500490 0.319608
0.239737 0.500980 0.312377
0.244363 0.500980 0.304657
0.251317 0.500980 0.296936
0.258824 0.500980 0.289216
0.269638 0.494240 0.281495
0.278186 0.489216 0.273774
0.289829 0.482720 0.262470
0.303921 0.475613 0.254412
0.319363 0.471201 0.241023
0.334804 0.465686 0.227635
0.355270 0.465165 0.213480
0.378432 0.464706 0.198529
0.404994 0.469087 0.183579
0.432047 0.474265 0.171078
0.460876 0.480790 0.155638
0.488235 0.484681 0.141176
0.515196 0.488573 0.128677
0.540932 0.489216 0.118382
0.564093 0.489216 0.107445
0.587255 0.489216 0.098774
0.613481 0.488573 0.087378
0.633579 0.484743 0.079657
0.656740 0.480913 0.071936
0.679902 0.476961 0.064216
0.702696 0.473254 0.056495
0.722059 0.469608 0.048958
0.741299 0.469608 0.044118
0.752941 0.469608 0.044118
0.233089 0.508456 0.345956
0.236983 0.512378 0.345956
0.240878 0.516054 0.345956
0.243995 0.519853 0.339338
0.247917 0.520221 0.335049
0.248775 0.524142 0.327818
0.255025 0.524142 0.320098
0.262745 0.524142 0.312377
0.270466 0.524142 0.304657
0.278186 0.518018 0.296936
0.285907 0.512646 0.289216
0.297549 0.505882 0.279485
0.311106 0.500613 0.269853
0.323162 0.494363 0.259804
0.338603 0.488848 0.246944
0.357563 0.484927 0.232843
0.378432 0.484927 0.217831
0.401593 0.486363 0.204255
0.430017 0.491912 0.190441
0.457353 0.497427 0.175000
0.486229 0.503677 0.160416
0.514338 0.507893 0.148039
0.540932 0.511788 0.134413
0.564093 0.512378 0.125000
0.587255 0.512378 0.112837
0.612810 0.512378 0.101291
0.633579 0.508456 0.091016
0.656740 0.504534 0.082598
0.679902 0.501363 0.074877
0.703064 0.497469 0.067157
0.722304 0.496691 0.059490
0.741299 0.496691 0.052696
0.752941 0.496691 0.052696
0.244608 0.531618 0.358334
0.248507 0.534704 0.358334
0.251715 0.538526 0.358334
0.255339 0.542348 0.354779
0.259161 0.543382 0.347059
0.260295 0.546071 0.343260
0.264078 0.546569 0.335539
0.270626 0.546569 0.327819
0.278186 0.546569 0.320098
0.285907 0.543382 0.312377
0.294133 0.536765 0.304657
0.305269 0.529044 0.296936
0.316912 0.525245 0.286765
0.330446 0.517524 0.277574
0.345588 0.512010 0.264139
0.361030 0.506005 0.252206
0.380393 0.504167 0.237133
0.401593 0.504167 0.223552
0.426471 0.509068 0.209804
0.455323 0.512868 0.194362
0.482383 0.520588 0.179197
0.509444 0.524387 0.167402
0.537500 0.531112 0.151961
0.564093 0.535010 0.140441
0.587255 0.535539 0.125980
0.610577 0.535539 0.114177
0.634314 0.531618 0.102558
0.657476 0.527696 0.094240
0.680545 0.527206 0.086520
