public/luts/builtin/kodak_gold_200.cube
TITLE "Kodak-Gold-200"
LUT_3D_SIZE 5
0.050980 0.047059 0.047059
0.231373 0.039216 0.039216
0.443137 0.035294 0.031373
0.550000 0.035294 0.031373
0.600000 0.035294 0.031373
0.162745 0.315686 0.082353
0.327451 0.250000 0.054167
0.540196 0.185294 0.032843
0.629412 0.116667 0.031373
0.652941 0.067647 0.031373
0.294118 0.631373 0.129412
0.465687 0.562745 0.078921
0.691177 0.594118 0.071569
0.769608 0.539216 0.043137
0.796079 0.417648 0.035294
0.345098 0.818627 0.128432
0.572549 0.817647 0.081373
0.825000 0.842157 0.087255
0.912745 0.837500 0.063480
0.942157 0.781373 0.039216
0.305882 0.949020 0.074510
0.628431 0.956863 0.096078
0.909803 0.964706 0.213726
0.961764 0.968627 0.180392
0.972549 0.968627 0.196078
0.050980 0.047059 0.284314
0.182353 0.039216 0.230392
0.420588 0.035294 0.165686
0.545343 0.035294 0.120833
0.599020 0.035294 0.102941
0.173530 0.418627 0.368873
0.300980 0.291605 0.280392
0.510049 0.204534 0.200368
0.619608 0.119608 0.133640
0.649019 0.060784 0.114461
0.278921 0.721569 0.435294
0.436274 0.643137 0.361765
0.648284 0.630392 0.336029
0.745098 0.556863 0.254780
0.779412 0.429902 0.166666
0.283333 0.891177 0.460049
0.510049 0.846385 0.419792
0.772794 0.851471 0.435539
0.890196 0.852390 0.386336
0.923530 0.780393 0.251961
0.264706 0.956863 0.500981
0.580637 0.960784 0.613480
0.850000 0.968627 0.675490
0.954657 0.968627 0.570588
0.964706 0.968627 0.422549
0.043137 0.047059 0.558824
0.175490 0.041667 0.528431
0.455882 0.035294 0.450981
0.595098 0.035294 0.379412
0.621568 0.035294 0.345098
0.125000 0.416667 0.672549
0.222059 0.263603 0.539951
0.461765 0.239706 0.495098
0.599510 0.161642 0.421079
0.661275 0.099020 0.354412
0.217647 0.774509 0.738235
0.387255 0.681373 0.658334
0.579412 0.623039 0.596078
0.697059 0.536764 0.521569
0.734314 0.376470 0.419608
0.151961 0.934804 0.755882
0.413358 0.881372 0.732353
0.707843 0.852941 0.718628
0.840686 0.841789 0.688235
0.884314 0.767647 0.578431
0.158824 0.968627 0.798040
0.512745 0.968627 0.832843
0.811764 0.968627 0.840196
0.932353 0.968627 0.789216
0.956863 0.968627 0.729412
0.039216 0.050980 0.711765
0.141176 0.047059 0.669608
0.393137 0.043137 0.600000
0.618627 0.040196 0.570588
0.610784 0.040196 0.550000
0.075490 0.328432 0.790196
0.174510 0.223284 0.679657
0.409927 0.225491 0.634191
0.597304 0.189277 0.600980
0.680147 0.118628 0.550981
0.172549 0.718627 0.848039
0.328309 0.635294 0.757353
0.514951 0.578431 0.719118
0.680392 0.530882 0.691177
0.745098 0.384313 0.621568
0.086030 0.941421 0.887255
0.327818 0.894118 0.871140
0.661765 0.853921 0.850000
0.803921 0.836704 0.830392
0.872549 0.765686 0.765686
0.383333 0.969607 0.934314
0.534068 0.968627 0.930392
0.815686 0.968627 0.938235
0.922549 0.968627 0.933578
0.956863 0.968627 0.923530
0.039216 0.050980 0.760784
0.122549 0.050980 0.746079
0.376470 0.047059 0.674510
0.663725 0.047059 0.704902
0.709804 0.047059 0.670588
0.053921 0.252941 0.850980
0.151961 0.192157 0.750981
0.391667 0.199020 0.705882
0.605883 0.194118 0.704167
0.695098 0.122549 0.666667
0.154902 0.647059 0.868627
0.296079 0.562255 0.789216
0.476471 0.513726 0.768628
0.672549 0.497059 0.772549
0.756862 0.370588 0.725491
0.073529 0.935294 0.941176
0.351961 0.862990 0.919608
0.620588 0.831373 0.900000
0.780393 0.823530 0.903922
0.896079 0.782353 0.893137
0.239216 0.972549 0.952941
0.459804 0.968627 0.959804
0.837255 0.968627 0.964706
0.946079 0.968627 0.964706
0.956863 0.968627 0.964706
