public/luts/builtin/polaroid_600.cube
TITLE "Polaroid-600"
LUT_3D_SIZE 9
0.050980 0.082353 0.062745
0.085785 0.082353 0.059314
0.183333 0.093137 0.051960
0.351961 0.120098 0.031373
0.541176 0.180393 0.019608
0.694608 0.242157 0.019608
0.782353 0.303922 0.028431
0.848039 0.365686 0.043627
0.894118 0.415686 0.058824
0.058334 0.101471 0.066177
0.089216 0.105392 0.062745
0.173039 0.120098 0.054902
0.350674 0.164706 0.032660
0.552451 0.226471 0.015686
0.690686 0.288052 0.017157
0.779412 0.341299 0.028431
0.848039 0.392157 0.043627
0.894118 0.434804 0.058824
0.089216 0.150980 0.085294
0.112255 0.150980 0.081373
0.162500 0.161765 0.070588
0.295098 0.202941 0.040686
0.505882 0.279412 0.015686
0.678064 0.353921 0.015686
0.775490 0.406863 0.028431
0.844117 0.453431 0.043627
0.898039 0.492157 0.058824
0.130392 0.226961 0.112255
0.161275 0.230698 0.108333
0.206863 0.238725 0.097549
0.274387 0.256863 0.066667
0.419363 0.309068 0.031863
0.611765 0.392095 0.015686
0.741667 0.459314 0.028431
0.830392 0.515380 0.047059
0.895588 0.557843 0.058824
0.205883 0.341176 0.149019
0.232843 0.344608 0.149019
0.282353 0.352941 0.138235
0.338235 0.360049 0.107353
0.405882 0.369608 0.063725
0.528922 0.414216 0.022059
0.682353 0.486275 0.028431
0.789706 0.548039 0.047549
0.866667 0.594118 0.058824
0.307843 0.464706 0.216176
0.330882 0.464706 0.219914
0.377083 0.470466 0.216176
0.425000 0.476471 0.186274
0.473530 0.479657 0.132598
0.535294 0.486765 0.069608
0.628922 0.514706 0.032843
0.743811 0.573529 0.051470
0.829902 0.625000 0.072059
0.435295 0.580392 0.329411
0.450490 0.580392 0.329411
0.483579 0.582598 0.330392
0.519118 0.583333 0.316176
0.553922 0.587255 0.272549
0.593750 0.588236 0.210784
0.647059 0.592157 0.140931
0.716054 0.610662 0.087132
0.791176 0.655882 0.107843
0.562745 0.679902 0.473039
0.566605 0.679902 0.473039
0.588725 0.679902 0.476471
0.611765 0.679902 0.473039
0.638726 0.681617 0.443627
0.669608 0.685294 0.405392
0.704044 0.691667 0.350490
0.747059 0.696079 0.289216
0.793137 0.703431 0.243138
0.650980 0.752941 0.584314
0.654412 0.752941 0.584314
0.669608 0.752941 0.588235
0.688726 0.752941 0.588235
0.711765 0.756863 0.578431
0.738725 0.762255 0.555392
0.766667 0.772549 0.524510
0.812745 0.780882 0.493628
0.850980 0.788235 0.466667
0.043627 0.085785 0.112255
0.081863 0.085785 0.112255
0.162255 0.093137 0.105760
0.295405 0.108517 0.096752
0.479412 0.139951 0.078676
0.646079 0.200000 0.059988
0.755515 0.276961 0.057353
0.828922 0.346569 0.058763
0.886275 0.404412 0.066177
0.047549 0.109314 0.112255
0.085295 0.112745 0.112255
0.162148 0.121079 0.105760
0.305882 0.147488 0.096569
0.491605 0.192126 0.075000
0.653922 0.253163 0.057353
0.756372 0.315242 0.057353
0.831924 0.377390 0.058763
0.889767 0.431373 0.070098
0.074020 0.154412 0.115686
0.108333 0.157904 0.115686
0.162500 0.169118 0.111764
0.292141 0.202941 0.096706
0.493260 0.269118 0.071078
0.661274 0.334804 0.053431
0.756372 0.392310 0.056710
0.833272 0.444899 0.066008
0.894118 0.492157 0.080024
0.111274 0.230882 0.142647
0.149081 0.237806 0.142647
0.206863 0.249020 0.139093
0.278079 0.260593 0.110110
0.422549 0.310294 0.077696
0.611765 0.392095 0.052144
0.737745 0.458027 0.057476
0.826470 0.515196 0.077290
0.894118 0.557843 0.094792
0.186765 0.345098 0.183333
0.224786 0.348958 0.183333
0.282353 0.356557 0.179412
0.341912 0.362500 0.156863
0.407721 0.372549 0.109681
0.530637 0.415441 0.061857
0.682353 0.486275 0.054902
0.787745 0.548039 0.085509
0.864706 0.598039 0.119363
0.300000 0.464706 0.250184
0.326961 0.467119 0.250490
0.375046 0.472549 0.254412
0.426470 0.476471 0.232353
0.474265 0.480392 0.183824
0.536213 0.487316 0.121944
0.629902 0.517157 0.068183
0.743811 0.575000 0.093589
0.829902 0.627145 0.144608
0.431495 0.580392 0.355024
0.446569 0.580392 0.355989
0.483579 0.583241 0.363725
0.519118 0.583333 0.350490
0.555392 0.587255 0.317157
0.597059 0.589338 0.256495
0.650000 0.595098 0.186826
0.716054 0.613894 0.133425
0.794608 0.655882 0.168137
0.558824 0.679902 0.491667
0.565748 0.679902 0.491667
0.584927 0.679902 0.491667
0.611765 0.679902 0.491667
0.638726 0.681617 0.466881
0.669608 0.685294 0.431970
0.704044 0.691667 0.380453
0.747059 0.696079 0.319661
0.793137 0.703431 0.277451
0.647549 0.752941 0.592157
0.650980 0.752941 0.592157
0.665687 0.752941 0.592157
0.688726 0.752941 0.592157
0.711765 0.758823 0.587745
0.738725 0.764706 0.568137
0.769607 0.772549 0.539706
0.812745 0.784314 0.505392
0.850980 0.788235 0.481863
0.041176 0.116667 0.235294
0.063113 0.115686 0.230882
0.152941 0.115686 0.215686
0.277084 0.116667 0.207843
0.422549 0.123039 0.199510
0.574020 0.152941 0.190073
0.702941 0.230637 0.188236
0.795466 0.316176 0.191176
0.855883 0.385294 0.195098
0.020956 0.143995 0.224020
0.058824 0.143627 0.222718
0.153186 0.143627 0.212776
0.277084 0.147549 0.207843
0.426225 0.159804 0.199510
0.578799 0.199877 0.192157
0.706495 0.270864 0.191176
0.797825 0.354412 0.199495
0.859804 0.422671 0.217157
0.025490 0.182353 0.207843
0.066667 0.189093 0.208824
0.161520 0.197059 0.211764
0.286765 0.212837 0.207843
0.449633 0.244975 0.202206
0.607506 0.298284 0.199020
0.718627 0.360233 0.206066
0.805025 0.426471 0.225000
0.866667 0.484314 0.247059
0.055392 0.257353 0.219118
0.101287 0.265196 0.223039
0.197304 0.280638 0.229902
0.300551 0.294715 0.220297
0.443995 0.333333 0.204902
0.611030 0.396078 0.206250
0.724878 0.457568 0.228309
0.805883 0.513909 0.254902
0.867647 0.557843 0.280760
0.128431 0.366176 0.255882
0.181801 0.371569 0.263235
0.269853 0.383333 0.268750
0.354657 0.392402 0.264216
0.433334 0.400735 0.224265
0.550184 0.441176 0.199020
0.682353 0.504902 0.216667
0.783824 0.566299 0.264522
0.856863 0.616667 0.307353
0.271079 0.483333 0.319118
0.307843 0.485555 0.325812
0.370619 0.491790 0.333333
0.434681 0.496860 0.333364
0.489767 0.500552 0.294608
0.546691 0.505392 0.236765
0.634406 0.531587 0.201103
0.743811 0.589568 0.244608
0.825980 0.642524 0.302451
0.424510 0.590196 0.415931
0.442647 0.590196 0.417647
0.479840 0.590196 0.425245
0.523039 0.593015 0.427696
0.562868 0.595466 0.404044
0.602819 0.598560 0.348621
0.650000 0.602206 0.288419
0.716054 0.620343 0.246446
0.795098 0.663725 0.286274
0.554902 0.682475 0.526470
0.561826 0.682475 0.529044
0.582598 0.682475 0.532965
0.611535 0.683701 0.534191
0.642157 0.686765 0.523529
0.673039 0.691590 0.491789
0.704412 0.695497 0.444731
0.747059 0.699877 0.390855
0.793137 0.703431 0.352573
0.644118 0.752941 0.614706
0.644118 0.752941 0.614706
0.661765 0.755883 0.614706
0.684804 0.756863 0.618627
0.709804 0.760784 0.618137
0.738725 0.768014 0.599020
0.769607 0.775736 0.571323
0.812745 0.784314 0.542647
0.850980 0.788235 0.512745
0.074510 0.175000 0.400490
0.076961 0.170098 0.392953
0.113358 0.158823 0.377941
0.262316 0.153922 0.368199
0.414461 0.159804 0.353431
0.547059 0.186765 0.343199
0.651471 0.222549 0.333823
0.741667 0.295588 0.334007
0.810784 0.372549 0.350980
0.028615 0.200490 0.391360
0.039438 0.196569 0.385401
0.104978 0.184804 0.373928
0.262316 0.184804 0.365311
0.414461 0.190104 0.353431
0.547059 0.215012 0.343199
0.651471 0.253876 0.337255
0.745404 0.333823 0.347365
0.814706 0.412561 0.377941
0.000000 0.244975 0.368628
0.006174 0.246078 0.368015
0.114706 0.245465 0.367647
0.268168 0.246569 0.363726
0.420588 0.257598 0.354902
0.551854 0.283334 0.350613
0.662898 0.328431 0.353247
0.755040 0.403784 0.377941
0.824387 0.473652 0.411274
0.003922 0.307843 0.359804
0.031794 0.311765 0.361274
0.157184 0.325368 0.368980
0.303025 0.338090 0.370994
0.443903 0.359314 0.370650
0.574510 0.392011 0.372120
0.680392 0.443168 0.391238
0.770389 0.501532 0.419118
0.836765 0.554841 0.447549
0.045343 0.394608 0.371814
0.111274 0.400398 0.376287
0.229350 0.415809 0.388051
0.355178 0.432629 0.395343
0.460662 0.447794 0.388603
0.571078 0.478248 0.378186
0.680882 0.533333 0.410294
0.774510 0.588480 0.452114
0.843872 0.631373 0.485539
0.207843 0.501532 0.415748
0.257843 0.504710 0.419477
0.340135 0.512745 0.429902
0.431924 0.524165 0.443199
0.508824 0.532077 0.436765
0.567647 0.536849 0.393221
0.647840 0.562377 0.372181
0.746086 0.616667 0.418826
0.825980 0.667586 0.469608
0.402818 0.599019 0.486275
0.425490 0.600628 0.489216
0.466176 0.604320 0.499418
0.521569 0.610003 0.508410
0.573774 0.614338 0.507292
0.613726 0.617570 0.470098
0.653921 0.620466 0.415319
0.720726 0.636642 0.387699
0.799019 0.681250 0.428431
0.544608 0.689890 0.572365
0.551532 0.689890 0.572365
0.576961 0.689890 0.578033
0.607843 0.691667 0.585470
0.642402 0.697733 0.586274
0.676961 0.701654 0.564216
0.708731 0.705576 0.525904
0.747059 0.709965 0.475651
0.793137 0.715012 0.448529
0.631373 0.756863 0.641667
0.632843 0.756863 0.641667
0.653922 0.756863 0.644608
0.680882 0.760784 0.649510
0.707843 0.767157 0.651961
0.738725 0.773468 0.642647
0.772426 0.780392 0.616054
0.812745 0.788541 0.588726
0.850980 0.792157 0.565686
0.041177 0.235295 0.543138
0.041177 0.231372 0.539215
0.061765 0.219608 0.529412
0.213235 0.215687 0.521568
0.400000 0.226471 0.508823
0.537255 0.254412 0.497304
0.642157 0.292157 0.488235
0.710784 0.350000 0.484314
0.762745 0.401960 0.484314
0.016176 0.262010 0.537500
0.016176 0.256587 0.533793
0.047304 0.242647 0.525490
0.215931 0.242647 0.517739
0.400000 0.253432 0.508823
0.537255 0.277451 0.497304
0.641667 0.320588 0.490993
0.710784 0.376961 0.488235
0.762745 0.430882 0.498039
0.009804 0.311765 0.524019
0.009804 0.307843 0.521630
0.075368 0.303922 0.520466
0.241238 0.303922 0.516421
0.403921 0.313480 0.508823
0.537255 0.336765 0.500000
0.641667 0.371569 0.497549
0.712745 0.419485 0.499755
0.770588 0.470588 0.514706
0.020833 0.373529 0.515686
0.031373 0.376716 0.515686
0.143137 0.383824 0.517647
0.298284 0.391667 0.517647
0.433823 0.402451 0.516176
0.548775 0.421814 0.516176
0.643076 0.450245 0.516176
0.723131 0.487408 0.522151
0.788725 0.533579 0.541667
0.049020 0.445098 0.511765
0.095588 0.447917 0.515686
0.219118 0.460294 0.517647
0.349632 0.474755 0.523774
0.468627 0.491177 0.528922
0.568137 0.511274 0.532720
0.659804 0.540196 0.540441
0.745343 0.577206 0.559191
0.812745 0.615686 0.574510
0.183333 0.527206 0.523039
0.235631 0.527941 0.525000
0.319853 0.539338 0.532843
0.417218 0.550919 0.543137
0.510784 0.564461 0.552451
0.586765 0.576226 0.546293
0.662500 0.598039 0.541238
0.750491 0.644700 0.570343
0.827451 0.688481 0.597304
0.364706 0.612255 0.564216
0.390686 0.612684 0.564216
0.439216 0.617647 0.569975
0.503922 0.625980 0.580821
0.570588 0.634559 0.589216
0.622243 0.641361 0.582843
0.663603 0.647059 0.545466
0.730392 0.666544 0.531311
0.806863 0.708823 0.562745
0.513480 0.695589 0.616667
0.520619 0.695589 0.616667
0.547549 0.697304 0.622059
0.588419 0.703095 0.631465
0.637255 0.708211 0.639093
0.678432 0.714797 0.638572
0.715502 0.718873 0.609375
0.750705 0.722825 0.567647
0.796568 0.730637 0.548039
0.600000 0.762745 0.672549
0.603676 0.762745 0.672549
0.628431 0.764706 0.672549
0.659314 0.768627 0.682843
0.698039 0.775491 0.688236
0.736274 0.783088 0.688236
0.773529 0.790196 0.674019
0.816176 0.800000 0.647058
0.854902 0.803922 0.623530
0.053921 0.302451 0.614706
0.056373 0.298530 0.614706
0.065319 0.298530 0.608946
0.196569 0.298530 0.608333
0.378431 0.316176 0.608333
0.515686 0.343137 0.608333
0.621078 0.377941 0.612255
0.702941 0.432843 0.612255
0.756863 0.486765 0.617647
0.045098 0.324020 0.618627
0.046385 0.321569 0.616445
0.063771 0.317647 0.614400
0.199571 0.317647 0.612255
0.378431 0.339216 0.612255
0.515686 0.366176 0.612255
0.621078 0.400980 0.612255
0.702941 0.454144 0.612707
0.756863 0.504412 0.621569
0.038235 0.377451 0.624020
0.057338 0.373575 0.624020
0.130790 0.371538 0.620098
0.257246 0.371078 0.619347
0.400981 0.384804 0.616177
0.525000 0.412377 0.616177
0.622549 0.443719 0.616177
0.702941 0.485172 0.620098
0.759314 0.524510 0.625490
0.070527 0.441605 0.627941
0.113167 0.441605 0.627389
0.223698 0.447059 0.624020
0.339560 0.452857 0.624020
0.442402 0.460049 0.624020
0.542241 0.475980 0.624020
0.632231 0.502712 0.624020
0.706862 0.529787 0.626654
0.762316 0.554412 0.630944
0.141421 0.502206 0.627941
0.195588 0.504810 0.627941
0.291177 0.512377 0.627941
0.391912 0.522120 0.627941
0.483088 0.531617 0.627941
0.567616 0.545803 0.631863
0.645588 0.562623 0.635233
0.716023 0.581220 0.637745
0.776961 0.596078 0.641667
0.266667 0.565196 0.627941
0.302076 0.566483 0.627941
0.364323 0.573039 0.627941
0.439560 0.583678 0.632437
0.517892 0.594608 0.639706
0.592647 0.608333 0.644753
0.662638 0.621078 0.649403
0.739530 0.647373 0.658510
0.807843 0.672059 0.666605
0.380882 0.630883 0.644608
0.400000 0.630883 0.644608
0.438205 0.634804 0.646446
0.495542 0.644179 0.650980
0.558639 0.655637 0.659375
0.621737 0.666866 0.666667
0.677298 0.675827 0.660049
0.745956 0.697059 0.656771
0.822916 0.733701 0.674020
0.479902 0.703431 0.677941
0.489400 0.703431 0.677941
0.520098 0.704718 0.677941
0.558019 0.710899 0.681863
0.614951 0.720251 0.690932
0.670405 0.730461 0.697549
0.719608 0.736673 0.690503
0.758785 0.743665 0.663274
0.809620 0.755208 0.649326
0.559314 0.766176 0.704902
0.559314 0.768627 0.704902
0.585784 0.770098 0.706740
0.616667 0.776471 0.715196
0.669118 0.784314 0.723039
0.723039 0.792708 0.733272
0.774142 0.802084 0.732353
0.816666 0.809620 0.712255
0.858824 0.815686 0.689216
0.109804 0.391176 0.680392
0.125981 0.391176 0.676471
0.163725 0.392157 0.676471
0.268627 0.392157 0.676471
0.401961 0.413726 0.676471
0.520220 0.443627 0.684681
0.614706 0.474755 0.692402
0.695098 0.509314 0.700000
0.752941 0.547059 0.703922
0.114583 0.411274 0.689093
0.134697 0.410294 0.687761
0.183824 0.410294 0.683946
0.287745 0.411274 0.683946
0.409436 0.431863 0.683946
0.522733 0.458824 0.688236
0.615441 0.489706 0.696079
0.695098 0.523652 0.703431
0.752941 0.557476 0.707353
0.169363 0.459804 0.704657
0.206373 0.459804 0.703278
0.266667 0.459804 0.702941
0.341942 0.459804 0.702941
0.438235 0.469240 0.702941
0.534069 0.492831 0.702941
0.622549 0.520588 0.704106
0.698162 0.550490 0.708578
0.756863 0.576716 0.711765
0.238848 0.509804 0.711765
0.280561 0.513112 0.711765
0.344118 0.516667 0.711765
0.411765 0.520588 0.711765
0.478738 0.527512 0.712378
0.557782 0.540977 0.712745
0.632660 0.560171 0.714583
0.705392 0.583946 0.716299
0.761397 0.601593 0.719608
0.302941 0.563235 0.715686
0.332843 0.566483 0.715686
0.387255 0.572059 0.715686
0.451961 0.578431 0.715686
0.516667 0.584069 0.716666
0.580944 0.590748 0.719792
0.647549 0.601961 0.720956
0.714705 0.619363 0.724081
0.772549 0.631373 0.727451
0.370588 0.615196 0.716666
0.389706 0.615196 0.716666
0.429289 0.619117 0.716666
0.481863 0.625521 0.718918
0.541544 0.633088 0.722611
0.603309 0.643137 0.726440
0.666176 0.653799 0.730086
0.732705 0.663588 0.733456
0.793627 0.669118 0.737377
0.435295 0.665686 0.723775
0.445037 0.665686 0.723775
0.475490 0.666238 0.724510
0.515135 0.673162 0.724510
0.565686 0.682843 0.730392
0.626716 0.694240 0.737010
0.688481 0.704902 0.743198
0.754044 0.717034 0.747059
0.820588 0.731373 0.750981
0.490809 0.722549 0.743137
0.495159 0.722549 0.743260
0.518505 0.723530 0.743260
0.549387 0.729289 0.744163
0.596569 0.739216 0.751226
0.654902 0.750368 0.756863
0.716636 0.762745 0.763235
0.777942 0.773330 0.755024
0.832843 0.784927 0.751961
0.533333 0.776471 0.762745
0.536765 0.776471 0.762745
0.552696 0.777451 0.762745
0.582843 0.784927 0.766667
0.634314 0.794608 0.770588
0.696079 0.806005 0.779535
0.765931 0.819853 0.786275
0.825490 0.828431 0.781985
0.867647 0.832353 0.766667
0.294118 0.507843 0.754412
0.320159 0.507843 0.750000
0.353921 0.511765 0.747427
0.405576 0.511765 0.746569
0.485784 0.523285 0.746569
0.568628 0.546752 0.750000
0.643015 0.571078 0.757476
0.710784 0.594118 0.761764
0.757353 0.612745 0.765686
0.324510 0.526532 0.757414
0.343137 0.526470 0.753975
0.376486 0.526470 0.753110
0.418321 0.526470 0.750000
0.491422 0.532598 0.750000
0.571952 0.551961 0.753431
0.645588 0.577252 0.757843
0.711275 0.600659 0.764821
0.760355 0.616666 0.765686
0.370465 0.560416 0.772549
0.385187 0.560294 0.769607
0.414828 0.557353 0.766422
0.452635 0.557353 0.765686
0.509926 0.561274 0.765686
0.579734 0.577941 0.765686
0.649510 0.596415 0.768842
0.711275 0.616284 0.773407
0.763848 0.631005 0.776103
0.404412 0.598529 0.787745
0.419608 0.598529 0.787745
0.453064 0.598529 0.783870
0.490870 0.600000 0.783824
0.535539 0.601072 0.783824
0.595588 0.608341 0.783824
0.658196 0.624019 0.783824
0.721262 0.639216 0.784168
0.769117 0.646569 0.787439
0.427206 0.636520 0.793628
0.439982 0.636520 0.793628
0.470833 0.638235 0.793628
0.514461 0.642157 0.793628
0.558578 0.644118 0.794485
0.611274 0.646722 0.795343
0.672549 0.654902 0.797059
0.730882 0.669608 0.799019
0.780882 0.676961 0.799019
0.457353 0.676961 0.801471
0.464706 0.676961 0.801471
0.491483 0.678248 0.801471
0.526287 0.680882 0.801471
0.573866 0.684804 0.802758
0.626961 0.688419 0.805393
0.684804 0.692647 0.808823
0.746262 0.702068 0.810601
0.798039 0.707843 0.812745
0.492157 0.716666 0.805393
0.495711 0.716666 0.805393
0.518627 0.716666 0.805393
0.549510 0.720466 0.806250
0.589216 0.725735 0.809314
0.642647 0.731465 0.814093
0.704412 0.739062 0.818015
0.767157 0.747549 0.821936
0.828431 0.751471 0.824632
0.527389 0.757905 0.812745
0.530071 0.758709 0.812745
0.549020 0.761014 0.812745
0.576249 0.762255 0.816666
0.612500 0.769669 0.817371
0.662745 0.778102 0.824510
0.725490 0.790564 0.830101
0.797664 0.801900 0.836274
0.859314 0.808823 0.837194
0.557843 0.793137 0.820588
0.557843 0.796568 0.820588
0.572549 0.799142 0.820588
0.599020 0.804412 0.824510
0.632108 0.814216 0.828431
0.685784 0.825490 0.836274
0.755024 0.839706 0.844117
0.837194 0.851470 0.848039
0.894608 0.855392 0.851961
0.466667 0.607843 0.815686
0.474020 0.607843 0.811765
0.489216 0.607843 0.807843
0.516176 0.607843 0.807843
0.564705 0.611765 0.807843
0.626470 0.627451 0.807843
0.684314 0.648039 0.807843
0.742156 0.666667 0.807843
0.788235 0.678431 0.811765
0.474020 0.615686 0.815686
0.478370 0.615196 0.811765
0.496569 0.615196 0.808701
0.523529 0.615196 0.807843
0.566421 0.615441 0.807843
0.626470 0.631067 0.807843
0.684314 0.648039 0.807843
0.742156 0.666667 0.807843
0.788235 0.678431 0.811765
0.494118 0.643137 0.827451
0.497059 0.642157 0.823529
0.513480 0.638235 0.819608
0.542647 0.638235 0.815686
0.575980 0.638235 0.815686
0.630392 0.644240 0.815686
0.688236 0.659559 0.815686
0.746078 0.677573 0.815686
0.788235 0.685294 0.815686
0.505882 0.673039 0.843137
0.513235 0.673039 0.841667
0.534804 0.673039 0.837745
0.561765 0.673039 0.833824
0.592647 0.673039 0.827451
0.638235 0.673039 0.827451
0.695711 0.679044 0.827451
0.750000 0.692831 0.827451
0.796078 0.698039 0.827451
0.509804 0.700000 0.854902
0.517157 0.700000 0.854902
0.540196 0.700000 0.852941
0.571078 0.700000 0.849755
0.605882 0.700000 0.845098
0.647304 0.700000 0.841176
0.703922 0.707843 0.839216
0.759804 0.715931 0.839216
0.807843 0.719608 0.839216
0.517647 0.730882 0.862745
0.521263 0.730882 0.862745
0.544118 0.730882 0.862745
0.575000 0.732353 0.864216
0.611765 0.734804 0.861520
0.656924 0.734804 0.858824
0.713235 0.738725 0.854902
0.773223 0.746875 0.852451
0.823529 0.750490 0.852451
0.542156 0.766667 0.866667
0.545588 0.766667 0.866667
0.556863 0.766667 0.866667
0.583824 0.769607 0.870588
0.618627 0.770588 0.873039
0.669608 0.774510 0.874510
0.729167 0.777451 0.874510
0.792770 0.782353 0.871568
0.848039 0.786275 0.870588
0.573039 0.800490 0.866667
0.576471 0.800490 0.866667
0.587745 0.800490 0.870588
0.614399 0.804412 0.873039
0.645588 0.808578 0.878431
0.689706 0.817953 0.882537
0.755392 0.825367 0.890196
0.821140 0.832353 0.894118
0.878921 0.836274 0.894608
0.607843 0.819608 0.866667
0.607843 0.819608 0.866667
0.619608 0.819608 0.870588
0.641667 0.827451 0.874510
0.672549 0.837255 0.880392
0.720588 0.850980 0.886275
0.782353 0.866667 0.894118
0.859804 0.878431 0.901961
0.921569 0.882353 0.901961
