public/luts/builtin/polaroid_600.cube
TITLE "Polaroid-600"
LUT_3D_SIZE 33
0.050980 0.082353 0.062745
0.054779 0.082353 0.062745
0.062500 0.082353 0.062745
0.074142 0.082353 0.062745
0.085785 0.082353 0.059314
0.104044 0.082353 0.058824
0.123284 0.085540 0.058824
0.149510 0.089338 0.055760
0.183333 0.093137 0.051960
0.219117 0.096936 0.048162
0.260539 0.104657 0.043137
0.305637 0.112377 0.036642
0.351961 0.120098 0.031373
0.398284 0.134069 0.025122
0.446814 0.149510 0.019608
0.494853 0.164951 0.019608
0.541176 0.180393 0.019608
0.587500 0.195833 0.019608
0.628186 0.211274 0.019608
0.665196 0.226716 0.019608
0.694608 0.242157 0.019608
0.717769 0.257598 0.019608
0.740932 0.273039 0.020833
0.762990 0.288481 0.023529
0.782353 0.303922 0.028431
0.801716 0.322427 0.032231
0.817157 0.334804 0.036029
0.832598 0.350245 0.039829
0.848039 0.365686 0.043627
0.863113 0.380760 0.047427
0.875000 0.392647 0.051225
0.886398 0.407966 0.058824
0.894118 0.415686 0.058824
0.050980 0.082353 0.062745
0.054779 0.082353 0.062745
0.062500 0.082353 0.062745
0.074142 0.082353 0.062745
0.089216 0.082353 0.059314
0.104637 0.085662 0.058824
0.123284 0.089361 0.058824
0.150341 0.090196 0.055760
0.180392 0.096967 0.051960
0.218015 0.104657 0.048162
0.259314 0.112377 0.043137
0.305637 0.120098 0.036642
0.351961 0.127819 0.031373
0.398284 0.141789 0.025122
0.446814 0.155094 0.019608
0.494853 0.168873 0.015809
0.541176 0.184252 0.015809
0.587500 0.199632 0.015751
0.628186 0.215127 0.015809
0.665196 0.230564 0.015809
0.694608 0.246078 0.017233
0.717769 0.261520 0.019608
0.740932 0.276923 0.020833
0.762990 0.292402 0.023529
0.782353 0.307843 0.028431
0.801716 0.323285 0.032231
0.817157 0.338603 0.036029
0.832598 0.350245 0.039829
0.848039 0.365686 0.043627
0.863113 0.380760 0.047427
0.875000 0.392647 0.051225
0.886398 0.407966 0.058824
0.894118 0.415686 0.058824
0.050980 0.086275 0.062745
0.054787 0.086275 0.062745
0.062500 0.086275 0.062745
0.074142 0.089951 0.062745
0.089216 0.089951 0.059314
0.104657 0.090158 0.058824
0.123284 0.094072 0.058824
0.150314 0.097794 0.055760
0.180392 0.104657 0.051960
0.218015 0.112377 0.048162
0.259314 0.120098 0.043137
0.305637 0.127819 0.036642
0.354259 0.137990 0.031373
0.402206 0.153432 0.025122
0.450597 0.168628 0.019608
0.498530 0.180262 0.015686
0.544853 0.195711 0.015686
0.589453 0.211159 0.015686
0.628186 0.226471 0.015686
0.665196 0.242012 0.015686
0.694608 0.257353 0.017157
0.717769 0.272794 0.019608
0.740932 0.284559 0.020833
0.762990 0.300000 0.024632
0.782353 0.315441 0.028431
0.801716 0.330883 0.032231
0.817157 0.346323 0.036029
0.832598 0.357843 0.039829
0.848039 0.372825 0.043627
0.863113 0.385026 0.047427
0.875000 0.400245 0.051225
0.886398 0.412002 0.058824
0.894118 0.423284 0.058824
0.054534 0.093750 0.062745
0.058345 0.093750 0.062745
0.066054 0.093750 0.062745
0.074142 0.097637 0.062745
0.089216 0.097671 0.059314
0.104657 0.097671 0.058824
0.123284 0.101593 0.058824
0.146734 0.105514 0.055760
0.179504 0.112377 0.054902
0.218015 0.120098 0.048162
0.259314 0.127819 0.044248
0.305637 0.138112 0.036642
0.354412 0.150965 0.031373
0.404534 0.165073 0.025122
0.454450 0.180308 0.019608
0.502328 0.195588 0.015686
0.548652 0.211029 0.015686
0.593138 0.226471 0.015686
0.631740 0.241912 0.015686
0.665196 0.257353 0.015686
0.694608 0.269103 0.017157
0.717769 0.284555 0.019608
0.740932 0.299755 0.020833
0.762990 0.314196 0.024632
0.779688 0.326715 0.028431
0.798652 0.341379 0.032231
0.817157 0.354044 0.036029
0.832598 0.368562 0.039829
0.848039 0.380515 0.043627
0.863480 0.392525 0.047427
0.875000 0.407721 0.051225
0.886398 0.419363 0.058824
0.894118 0.427451 0.058824
0.058334 0.101471 0.066177
0.062255 0.101471 0.062745
0.069853 0.101471 0.062745
0.078017 0.105024 0.062745
0.089216 0.105392 0.062745
0.104657 0.105392 0.059360
0.120496 0.109314 0.058824
0.143015 0.113235 0.055760
0.173039 0.120098 0.054902
0.210662 0.127819 0.048162
0.251961 0.135539 0.044363
0.300536 0.149755 0.036642
0.350674 0.164706 0.032660
0.404534 0.180147 0.025122
0.454657 0.195588 0.019608
0.504519 0.211029 0.015686
0.552451 0.226471 0.015686
0.596936 0.241912 0.015686
0.634038 0.257353 0.015686
0.665196 0.272794 0.015686
0.690686 0.288052 0.017157
0.714338 0.299755 0.019608
0.737500 0.315196 0.020833
0.760172 0.327068 0.024632
0.779412 0.341299 0.028431
0.797794 0.353676 0.032231
0.817157 0.365196 0.036029
0.832598 0.377206 0.039829
0.848039 0.392157 0.043627
0.863480 0.404121 0.047427
0.878217 0.415686 0.051225
0.886398 0.427083 0.058824
0.894118 0.434804 0.058824
0.066054 0.109191 0.069975
0.069853 0.109191 0.066770
0.077573 0.109191 0.066667
0.085294 0.113055 0.066054
0.093015 0.113112 0.066054
0.104657 0.113112 0.063262
0.123284 0.117034 0.062132
0.142524 0.124020 0.059548
0.169087 0.128646 0.055729
0.202941 0.135539 0.050980
0.241966 0.146990 0.044363
0.289426 0.158613 0.036642
0.343260 0.172917 0.032843
0.397304 0.190686 0.025122
0.447695 0.207721 0.019608
0.501471 0.226471 0.015686
0.552941 0.243566 0.015686
0.595669 0.260662 0.015686
0.634314 0.276103 0.015686
0.665196 0.291544 0.015686
0.690686 0.305744 0.017157
0.713848 0.318907 0.019608
0.737010 0.330637 0.020833
0.760172 0.344976 0.024632
0.778585 0.356618 0.028431
0.797794 0.369117 0.032231
0.813350 0.380637 0.036029
0.832598 0.392157 0.039829
0.848039 0.407108 0.043627
0.863480 0.418750 0.047427
0.878676 0.430392 0.051225
0.886398 0.438726 0.058824
0.894118 0.446446 0.058824
0.073775 0.116912 0.070588
0.077573 0.116912 0.070588
0.082108 0.120834 0.070588
0.089828 0.120834 0.070588
0.097549 0.120834 0.070588
0.107958 0.124640 0.067165
0.123882 0.128539 0.066070
0.142524 0.131740 0.063442
0.165686 0.139461 0.059620
0.192930 0.147182 0.052083
0.230637 0.154902 0.047059
0.275483 0.169118 0.040564
0.328431 0.183823 0.032843
0.382476 0.200000 0.027014
0.436520 0.221155 0.021002
0.490564 0.240074 0.015686
0.543873 0.259314 0.015686
0.591812 0.276716 0.015686
0.630714 0.292157 0.015686
0.665196 0.307598 0.015686
0.690686 0.323039 0.015962
0.713848 0.337745 0.019608
0.737010 0.349770 0.020833
0.759069 0.361519 0.024632
0.778432 0.373039 0.028431
0.797794 0.384559 0.032231
0.813236 0.396078 0.036029
0.828676 0.410907 0.039829
0.844117 0.422549 0.043627
0.859559 0.434191 0.047427
0.875000 0.445833 0.051225
0.886398 0.453554 0.058824
0.894118 0.461274 0.058824
0.081495 0.134681 0.077573
0.081495 0.134681 0.077573
0.089093 0.135539 0.077573
0.096814 0.135539 0.077573
0.104534 0.135539 0.074510
0.112978 0.136263 0.073786
0.127084 0.140157 0.071163
0.143195 0.144052 0.069730
0.161765 0.150245 0.065809
0.188603 0.157966 0.059069
0.220075 0.166276 0.051348
0.261347 0.176838 0.044485
0.310218 0.192279 0.036765
0.363113 0.210049 0.029044
0.417639 0.229289 0.021323
0.472059 0.249966 0.017122
0.525245 0.271262 0.015686
0.577451 0.290529 0.015686
0.621201 0.307598 0.015686
0.658211 0.323039 0.015686
0.687623 0.338480 0.015686
0.713848 0.353921 0.019608
0.737010 0.368137 0.020833
0.759069 0.379779 0.024632
0.778432 0.391422 0.028431
0.795401 0.403064 0.032231
0.813236 0.414706 0.036029
0.828676 0.426348 0.039829
0.844117 0.437990 0.043627
0.859559 0.449632 0.047427
0.875000 0.461274 0.051225
0.890319 0.468995 0.058824
0.898039 0.476715 0.058824
0.089216 0.150980 0.085294
0.089216 0.150980 0.082353
0.096814 0.150980 0.082353
0.104534 0.150980 0.082353
0.112255 0.150980 0.081373
0.119976 0.150980 0.078431
0.131618 0.154902 0.077635
0.146324 0.158823 0.075153
0.162500 0.161765 0.070588
0.184926 0.169485 0.062868
0.212684 0.177206 0.056128
0.249786 0.188480 0.048407
0.295098 0.202941 0.040686
0.343750 0.218964 0.032966
0.397794 0.237010 0.025245
0.451838 0.258088 0.017524
0.505882 0.279412 0.015686
0.558088 0.300214 0.015686
0.604412 0.321385 0.015686
0.644822 0.338480 0.015686
0.678064 0.353921 0.015686
0.706985 0.369363 0.019608
0.730147 0.383885 0.020833
0.753309 0.395220 0.024632
0.775490 0.406863 0.028431
0.793873 0.418505 0.032231
0.813236 0.430147 0.036029
0.828676 0.441789 0.039829
0.844117 0.453431 0.043627
0.859559 0.465074 0.047427
0.875000 0.476715 0.053983
0.890319 0.484437 0.058824
0.898039 0.492157 0.058824
0.096936 0.166421 0.089093
0.096936 0.166421 0.089093
0.104534 0.166421 0.089093
0.112255 0.166421 0.089093
0.119976 0.166421 0.085662
0.127696 0.168800 0.085172
0.139338 0.170343 0.085172
0.154044 0.174265 0.082108
0.169485 0.177206 0.077604
0.185719 0.181005 0.070588
0.208847 0.188726 0.062868
0.239572 0.197170 0.055147
0.280714 0.211642 0.047426
0.326635 0.227083 0.039706
0.378431 0.245963 0.029167
0.430978 0.267306 0.021446
0.483701 0.287132 0.015686
0.537228 0.308456 0.015686
0.585669 0.329534 0.015686
0.628106 0.350000 0.015686
0.664461 0.365441 0.015686
0.696691 0.380882 0.017758
0.722427 0.396323 0.019953
0.745588 0.410662 0.024632
0.768750 0.422304 0.028431
0.791670 0.434563 0.032231
0.809520 0.446117 0.036029
0.828676 0.457671 0.039829
0.844117 0.469225 0.043627
0.859559 0.480779 0.047427
0.875000 0.492333 0.054902
0.890319 0.502696 0.058824
0.898039 0.510416 0.058824
0.104657 0.181863 0.094118
0.107353 0.181863 0.094118
0.114951 0.181863 0.094118
0.122671 0.181863 0.094118
0.130392 0.184559 0.093046
0.139147 0.185784 0.092892
0.150751 0.189476 0.092892
0.162354 0.192402 0.089239
0.177206 0.196323 0.083027
0.192647 0.197204 0.075613
0.212852 0.204167 0.070588
0.238672 0.211887 0.061099
0.269394 0.220374 0.052451
0.310539 0.234804 0.043505
0.357552 0.254167 0.035784
0.410417 0.275613 0.028064
0.461887 0.294853 0.020343
0.514583 0.317440 0.015686
0.565686 0.337255 0.015686
0.610417 0.358824 0.015686
0.649020 0.376961 0.015686
0.682353 0.392402 0.017034
0.712852 0.407843 0.019608
0.737868 0.423284 0.024632
0.761029 0.437745 0.028431
0.784191 0.449387 0.032231
0.806618 0.461765 0.036029
0.824755 0.473285 0.039829
0.841422 0.484804 0.045987
0.859559 0.496323 0.050980
0.874832 0.507843 0.054902
0.887707 0.519240 0.058824
0.898039 0.526961 0.058824
0.116299 0.203799 0.103186
0.122714 0.203799 0.103186
0.130392 0.203799 0.103186
0.138112 0.203799 0.103186
0.145833 0.207231 0.100613
0.153554 0.207721 0.100613
0.164460 0.211160 0.100613
0.176838 0.214706 0.096691
0.191421 0.216575 0.089829
0.206863 0.219485 0.082108
0.223231 0.222181 0.077083
0.241667 0.228213 0.068015
0.269593 0.235049 0.058946
0.301110 0.249020 0.051225
0.342548 0.264461 0.043505
0.388461 0.281250 0.034417
0.439338 0.302573 0.024142
0.491422 0.323897 0.017053
0.542302 0.344975 0.015686
0.589526 0.366544 0.015686
0.631005 0.385907 0.015686
0.666912 0.403922 0.017034
0.697794 0.419363 0.019608
0.727574 0.434804 0.024632
0.753309 0.450245 0.028431
0.775908 0.462818 0.032231
0.796806 0.476470 0.038121
0.818260 0.488725 0.043137
0.837623 0.500245 0.047059
0.855637 0.511764 0.050980
0.871078 0.526961 0.054902
0.886440 0.534681 0.058824
0.898039 0.542402 0.058824
0.130392 0.226961 0.112255
0.138112 0.226961 0.112255
0.145833 0.226961 0.112255
0.153554 0.226961 0.112255
0.161275 0.230698 0.108333
0.168995 0.230882 0.108333
0.179902 0.234804 0.108333
0.191421 0.237868 0.104412
0.206863 0.238725 0.097549
0.222304 0.242647 0.089829
0.237745 0.246109 0.084804
0.253186 0.250490 0.075735
0.274387 0.256863 0.066667
0.300505 0.265456 0.058946
0.334069 0.274602 0.051225
0.373453 0.288971 0.040273
0.419363 0.309068 0.031863
0.468260 0.329534 0.021691
0.518382 0.350245 0.015686
0.566912 0.371936 0.015686
0.611765 0.392095 0.015686
0.649862 0.411382 0.017034
0.682353 0.428431 0.019608
0.713235 0.443872 0.024632
0.741667 0.459314 0.028431
0.764828 0.474755 0.032231
0.787990 0.488725 0.039216
0.810539 0.501486 0.043137
0.830392 0.515380 0.047059
0.849632 0.527206 0.050980
0.871078 0.542402 0.054902
0.886398 0.550122 0.058824
0.895588 0.557843 0.058824
0.145833 0.252451 0.119976
0.153554 0.252451 0.119976
0.161275 0.252451 0.119976
0.168995 0.253895 0.117647
0.176716 0.256373 0.116253
0.184436 0.257717 0.116054
0.195780 0.260294 0.116054
0.207721 0.263706 0.112990
0.222304 0.265411 0.105269
0.237745 0.268138 0.097549
0.253186 0.271331 0.092525
0.268628 0.273652 0.083456
0.286520 0.278569 0.074387
0.307353 0.283824 0.066667
0.333616 0.292440 0.058946
0.366043 0.301704 0.047304
0.404351 0.316054 0.039583
0.449510 0.335417 0.027941
0.496530 0.355476 0.020918
0.543750 0.376681 0.017069
0.588603 0.398024 0.015686
0.630580 0.417337 0.017034
0.666912 0.436152 0.019608
0.697794 0.451593 0.024632
0.727696 0.467034 0.028431
0.753186 0.482475 0.034050
0.776348 0.497917 0.039216
0.799510 0.512745 0.043501
0.822380 0.524877 0.047350
0.841912 0.539951 0.051198
0.864828 0.551739 0.055048
0.880147 0.563235 0.058824
0.891789 0.570956 0.058824
0.161275 0.283333 0.127696
0.168995 0.283333 0.127696
0.176716 0.283333 0.127696
0.184436 0.283333 0.127696
0.192157 0.284834 0.125981
0.199878 0.287255 0.123775
0.211519 0.288649 0.123775
0.226225 0.291176 0.120711
0.239951 0.292892 0.112990
0.255392 0.296331 0.105270
0.270833 0.299019 0.100934
0.286275 0.300735 0.092624
0.302788 0.304014 0.082108
0.319891 0.307881 0.074387
0.341406 0.313465 0.066667
0.366230 0.319416 0.056058
0.396936 0.329902 0.045343
0.434206 0.343137 0.035662
0.475506 0.360294 0.025735
0.520588 0.380553 0.020918
0.566268 0.401869 0.019608
0.608724 0.421178 0.019608
0.648775 0.439951 0.019608
0.682353 0.457108 0.024632
0.713235 0.473100 0.028431
0.741544 0.490196 0.035294
0.764706 0.505637 0.039216
0.787868 0.520466 0.043750
0.811029 0.532598 0.047549
0.833985 0.547672 0.051348
0.855040 0.559559 0.055147
0.872426 0.570956 0.058824
0.884069 0.578677 0.058824
0.182721 0.312132 0.139338
0.186577 0.312132 0.137500
0.194240 0.312132 0.135547
0.201961 0.312132 0.135417
0.209681 0.314216 0.135417
0.221323 0.317524 0.133866
0.232231 0.318137 0.131886
0.247671 0.321201 0.130059
0.261550 0.322059 0.124173
0.274632 0.324877 0.116912
0.288641 0.327244 0.109191
0.303432 0.329186 0.101471
0.318872 0.331051 0.093750
0.334313 0.333823 0.084191
0.352872 0.336834 0.075299
0.374016 0.340560 0.064583
0.397120 0.347304 0.053064
0.427823 0.357970 0.043382
0.463373 0.370221 0.031740
0.502585 0.387255 0.024019
0.545052 0.406495 0.020910
0.587519 0.425735 0.019608
0.627328 0.444324 0.019608
0.665415 0.463113 0.023529
0.697794 0.478554 0.028431
0.727819 0.494397 0.032231
0.753064 0.511275 0.039216
0.776226 0.524877 0.043750
0.799387 0.540318 0.047549
0.822549 0.555392 0.051348
0.845581 0.567279 0.057100
0.864706 0.578677 0.058824
0.876348 0.586397 0.058824
0.205883 0.341176 0.149019
0.209743 0.341176 0.149019
0.217402 0.341176 0.149019
0.225123 0.341176 0.149019
0.232843 0.344608 0.149019
0.243873 0.345098 0.145404
0.255392 0.349019 0.145098
0.269302 0.349019 0.145098
0.282353 0.352941 0.138235
0.296385 0.352941 0.130515
0.309314 0.354902 0.122794
0.323468 0.356863 0.115074
0.338235 0.360049 0.107353
0.353676 0.360784 0.099632
0.369117 0.363848 0.086888
0.385601 0.365748 0.074265
0.405882 0.369608 0.063725
0.430086 0.375429 0.051103
0.457843 0.383824 0.039461
0.491483 0.397304 0.029780
0.528922 0.414216 0.022059
0.567525 0.432108 0.019608
0.608088 0.450123 0.019608
0.646140 0.467463 0.023529
0.682353 0.486275 0.028431
0.712377 0.501716 0.033762
0.739828 0.517157 0.039216
0.766544 0.532598 0.043750
0.789706 0.548039 0.047549
0.812867 0.563113 0.051348
0.835907 0.575000 0.058824
0.855086 0.586397 0.058824
0.866667 0.594118 0.058824
0.229044 0.372059 0.164460
0.232843 0.372059 0.164460
0.240564 0.372059 0.164460
0.248284 0.372059 0.164460
0.256005 0.373881 0.164460
0.267034 0.375980 0.160539
0.278554 0.377673 0.160539
0.290074 0.379902 0.160539
0.305515 0.381464 0.153677
0.317034 0.383824 0.145956
0.332475 0.383824 0.138235
0.343995 0.387113 0.130515
0.358288 0.387745 0.122794
0.370956 0.388982 0.115074
0.386397 0.391667 0.101226
0.401838 0.393750 0.089706
0.419363 0.395588 0.075306
0.438726 0.398533 0.062745
0.461887 0.403309 0.048215
0.486742 0.411876 0.036631
0.519240 0.425536 0.027819
0.555289 0.439828 0.020814
0.590686 0.455270 0.020182
0.629289 0.473311 0.024046
0.663971 0.490594 0.028431
0.697794 0.507598 0.035294
0.726248 0.523384 0.039216
0.753267 0.540319 0.043750
0.778416 0.555760 0.047549
0.803186 0.570833 0.051348
0.826103 0.582721 0.058824
0.845343 0.594118 0.058824
0.856986 0.601838 0.058824
0.252206 0.402941 0.179902
0.256074 0.402941 0.179902
0.263726 0.402941 0.179902
0.271446 0.402941 0.179902
0.279167 0.402941 0.179902
0.290196 0.404802 0.175980
0.301716 0.406863 0.175980
0.314093 0.408586 0.175980
0.328676 0.410785 0.170833
0.340679 0.412370 0.163113
0.355637 0.414706 0.155392
0.367157 0.416153 0.147671
0.378676 0.418628 0.139951
0.391789 0.418628 0.131212
0.405637 0.419868 0.116667
0.421079 0.421745 0.105147
0.436520 0.422549 0.089706
0.452995 0.424755 0.077014
0.470573 0.427436 0.062745
0.492770 0.433494 0.048200
0.516758 0.440196 0.036611
0.547327 0.450391 0.027819
0.579657 0.464706 0.023529
0.613848 0.480768 0.024632
0.648530 0.497794 0.028431
0.682353 0.513235 0.035294
0.713235 0.528676 0.039538
0.740196 0.544117 0.043750
0.768382 0.559559 0.047549
0.791544 0.575000 0.052903
0.814706 0.590196 0.058824
0.837623 0.601838 0.058824
0.849265 0.609559 0.058824
0.276961 0.433823 0.196937
0.279290 0.433823 0.196937
0.286887 0.433823 0.196937
0.294608 0.433823 0.196937
0.302328 0.433823 0.196937
0.313971 0.433823 0.196937
0.325613 0.437010 0.193015
0.340319 0.437745 0.193015
0.351838 0.441268 0.193015
0.364461 0.441666 0.186274
0.378799 0.443267 0.178554
0.390319 0.445588 0.170833
0.401838 0.445588 0.163113
0.413358 0.447917 0.153064
0.425896 0.449510 0.137623
0.439472 0.449510 0.122181
0.454167 0.450674 0.109865
0.469608 0.452585 0.094474
0.485049 0.453431 0.079779
0.502083 0.456407 0.065284
0.523652 0.462148 0.051225
0.547614 0.468873 0.036585
0.574625 0.477321 0.028546
0.605067 0.490074 0.025777
0.637623 0.505515 0.029626
0.668157 0.520956 0.035294
0.697794 0.536397 0.039951
0.728313 0.551838 0.043750
0.755346 0.567279 0.050980
0.782231 0.582571 0.054902
0.806886 0.594240 0.058924
0.826103 0.609559 0.060539
0.837623 0.617279 0.064338
0.307843 0.464706 0.216176
0.307843 0.464706 0.216176
0.315441 0.464706 0.216176
0.323162 0.464706 0.216176
0.330882 0.464706 0.219914
0.340671 0.464706 0.220098
0.352237 0.467892 0.216176
0.363802 0.468627 0.216176
0.377083 0.470466 0.216176
0.388680 0.472549 0.209436
0.401961 0.472549 0.201716
0.413480 0.474157 0.193995
0.425000 0.476471 0.186274
0.435646 0.476471 0.177099
0.447212 0.476471 0.162255
0.459559 0.478922 0.146814
0.473530 0.479657 0.132598
0.488971 0.480392 0.118382
0.504411 0.481464 0.101562
0.519853 0.483440 0.087500
0.535294 0.486765 0.069608
0.554534 0.491529 0.055009
0.576226 0.495374 0.041942
0.600490 0.503186 0.033900
0.628922 0.514706 0.032843
0.656863 0.529825 0.035294
0.687470 0.544117 0.039951
0.714706 0.559559 0.043750
0.743811 0.573529 0.051470
0.770849 0.588741 0.055270
0.795343 0.601961 0.060539
0.818260 0.617279 0.066713
0.829902 0.625000 0.072059
0.338725 0.495588 0.239338
0.338725 0.495588 0.239338
0.342647 0.495588 0.239338
0.350122 0.495588 0.239338
0.357843 0.495588 0.240686
0.368137 0.495588 0.240686
0.379297 0.497679 0.239591
0.390858 0.499510 0.239338
0.402420 0.499510 0.239338
0.413982 0.501360 0.233946
0.425544 0.503431 0.226225
0.436642 0.503431 0.218505
0.448162 0.503431 0.210784
0.457353 0.506005 0.203064
0.468995 0.507353 0.193137
0.480005 0.507353 0.177696
0.492280 0.507353 0.162255
0.505128 0.508559 0.146814
0.519853 0.510516 0.131373
0.535294 0.511274 0.115931
0.550735 0.512240 0.097411
0.566176 0.514312 0.080664
0.582422 0.517769 0.064338
0.604278 0.522415 0.050969
0.626470 0.530147 0.042923
0.650490 0.541372 0.041912
0.679289 0.552934 0.042394
0.706372 0.566877 0.045098
0.733456 0.578799 0.051470
0.759317 0.594240 0.059192
0.786274 0.609597 0.064338
0.806740 0.623694 0.072059
0.820833 0.632721 0.079779
0.369608 0.525245 0.267647
0.369608 0.525245 0.267647
0.373529 0.525245 0.267647
0.381005 0.525245 0.267647
0.388726 0.525245 0.267647
0.396446 0.526279 0.267647
0.407353 0.526471 0.267647
0.418872 0.528577 0.267647
0.429473 0.530086 0.267647
0.441031 0.530392 0.264829
0.450352 0.530392 0.257108
0.461152 0.533088 0.249387
0.471323 0.533088 0.241667
0.480515 0.533816 0.233946
0.491621 0.534314 0.224709
0.501310 0.535746 0.209804
0.512867 0.537010 0.194363
0.524425 0.537010 0.178921
0.537500 0.537010 0.163480
0.550735 0.538235 0.148039
0.562255 0.539246 0.132598
0.577696 0.540932 0.113235
0.593980 0.542157 0.093873
0.611274 0.544853 0.079190
0.628615 0.549449 0.066360
0.650590 0.556250 0.057721
0.675490 0.564476 0.053201
0.698652 0.575000 0.052206
0.725735 0.587592 0.056465
0.748897 0.601961 0.063113
0.775904 0.617157 0.070910
0.797710 0.628922 0.079779
0.810539 0.640441 0.087500
0.400490 0.553432 0.298530
0.400490 0.553432 0.298530
0.404412 0.553432 0.298530
0.411887 0.553432 0.298530
0.419608 0.553432 0.298530
0.427328 0.553432 0.298530
0.435049 0.555721 0.298530
0.446450 0.556250 0.298530
0.457230 0.556250 0.298530
0.465744 0.556250 0.298530
0.476593 0.557353 0.293015
0.484314 0.559203 0.285294
0.494899 0.560172 0.277574
0.503676 0.560172 0.269853
0.512982 0.560172 0.258211
0.523039 0.560172 0.248407
0.532169 0.561275 0.232966
0.543723 0.564093 0.217524
0.555277 0.564093 0.202083
0.566176 0.564093 0.186642
0.577696 0.564093 0.171201
0.593137 0.564472 0.152941
0.607476 0.568015 0.133579
0.622917 0.568015 0.117034
0.638358 0.571109 0.097672
0.654657 0.572553 0.082847
0.673690 0.579412 0.074265
0.695784 0.587132 0.066984
0.718015 0.598162 0.066406
0.741176 0.610681 0.069240
0.764338 0.624877 0.077137
0.787343 0.636520 0.087535
0.801716 0.648162 0.096324
0.435295 0.580392 0.329411
0.435295 0.580392 0.329411
0.435295 0.580392 0.329411
0.442770 0.580392 0.329411
0.450490 0.580392 0.329411
0.458211 0.580392 0.330392
0.465931 0.580392 0.330392
0.473652 0.580392 0.330392
0.483579 0.582598 0.330392
0.492739 0.583333 0.330392
0.500735 0.583333 0.329718
0.510386 0.583333 0.323897
0.519118 0.583333 0.316176
0.526838 0.583333 0.308456
0.534559 0.583885 0.296814
0.543842 0.585876 0.287010
0.553922 0.587255 0.272549
0.563021 0.587255 0.257108
0.572733 0.587255 0.241667
0.582200 0.587653 0.226225
0.593750 0.588236 0.210784
0.607231 0.591176 0.195343
0.620098 0.591176 0.178677
0.631618 0.591176 0.159436
0.647059 0.592157 0.140931
0.663144 0.595098 0.121599
0.680882 0.595833 0.106128
0.696783 0.602574 0.094485
0.716054 0.610662 0.087132
0.738266 0.622212 0.086550
0.757537 0.632843 0.092402
0.779534 0.644271 0.100122
0.791176 0.655882 0.107843
0.467034 0.606495 0.364216
0.467034 0.606495 0.364216
0.467034 0.606495 0.364216
0.473652 0.606495 0.364216
0.481372 0.606495 0.364216
0.489094 0.606495 0.365073
0.496814 0.606495 0.365073
0.504534 0.606495 0.365073
0.511612 0.606495 0.365073
0.519118 0.606495 0.365073
0.526838 0.607353 0.365073
0.534559 0.607353 0.362500
0.542279 0.607353 0.354779
0.550000 0.607353 0.347059
0.557721 0.610417 0.335792
0.565441 0.610417 0.326068
0.573162 0.610417 0.314522
0.583946 0.610417 0.303432
0.592524 0.610792 0.287990
0.601490 0.614338 0.272549
0.611351 0.614338 0.257108
0.622966 0.614338 0.241667
0.635540 0.614338 0.225268
0.647059 0.614580 0.207480
0.660876 0.618260 0.188144
0.673832 0.618260 0.168808
0.688603 0.618834 0.149471
0.703910 0.622660 0.134670
0.718627 0.626593 0.122304
0.737990 0.634601 0.114871
0.757353 0.645098 0.114285
0.772767 0.655882 0.120343
0.783456 0.663603 0.124142
0.500980 0.633579 0.399755
0.500980 0.633579 0.399755
0.500980 0.633579 0.399755
0.504534 0.633579 0.399755
0.511612 0.633579 0.399755
0.516551 0.633579 0.402443
0.523775 0.633579 0.402941
0.531495 0.633579 0.402941
0.538480 0.633579 0.402941
0.546201 0.633579 0.402941
0.551731 0.633579 0.402941
0.557721 0.633579 0.400850
0.565441 0.633579 0.393382
0.573162 0.633579 0.385662
0.580882 0.633579 0.377941
0.588603 0.633579 0.367034
0.596323 0.633579 0.358579
0.604044 0.633923 0.347327
0.611765 0.635708 0.334314
0.622672 0.637500 0.319171
0.630392 0.637500 0.305362
0.639943 0.637500 0.290816
0.650981 0.638235 0.273284
0.662500 0.641422 0.257843
0.674019 0.641422 0.241422
0.685378 0.641422 0.222342
0.696921 0.642754 0.203677
0.711765 0.645343 0.185049
0.723285 0.649663 0.169271
