public/luts/builtin/polaroid_600.cube
TITLE "Polaroid-600"
LUT_3D_SIZE 5
0.050980 0.082353 0.062745
0.183333 0.093137 0.051960
0.541176 0.180393 0.019608
0.782353 0.303922 0.028431
0.894118 0.415686 0.058824
0.089216 0.150980 0.085294
0.162500 0.161765 0.070588
0.505882 0.279412 0.015686
0.775490 0.406863 0.028431
0.898039 0.492157 0.058824
0.205883 0.341176 0.149019
0.282353 0.352941 0.138235
0.405882 0.369608 0.063725
0.682353 0.486275 0.028431
0.866667 0.594118 0.058824
0.435295 0.580392 0.329411
0.483579 0.582598 0.330392
0.553922 0.587255 0.272549
0.647059 0.592157 0.140931
0.791176 0.655882 0.107843
0.650980 0.752941 0.584314
0.669608 0.752941 0.588235
0.711765 0.756863 0.578431
0.766667 0.772549 0.524510
0.850980 0.788235 0.466667
0.041176 0.116667 0.235294
0.152941 0.115686 0.215686
0.422549 0.123039 0.199510
0.702941 0.230637 0.188236
0.855883 0.385294 0.195098
0.025490 0.182353 0.207843
0.161520 0.197059 0.211764
0.449633 0.244975 0.202206
0.718627 0.360233 0.206066
0.866667 0.484314 0.247059
0.128431 0.366176 0.255882
0.269853 0.383333 0.268750
0.433334 0.400735 0.224265
0.682353 0.504902 0.216667
0.856863 0.616667 0.307353
0.424510 0.590196 0.415931
0.479840 0.590196 0.425245
0.562868 0.595466 0.404044
0.650000 0.602206 0.288419
0.795098 0.663725 0.286274
0.644118 0.752941 0.614706
0.661765 0.755883 0.614706
0.709804 0.760784 0.618137
0.769607 0.775736 0.571323
0.850980 0.788235 0.512745
0.041177 0.235295 0.543138
0.061765 0.219608 0.529412
0.400000 0.226471 0.508823
0.642157 0.292157 0.488235
0.762745 0.401960 0.484314
0.009804 0.311765 0.524019
0.075368 0.303922 0.520466
0.403921 0.313480 0.508823
0.641667 0.371569 0.497549
0.770588 0.470588 0.514706
0.049020 0.445098 0.511765
0.219118 0.460294 0.517647
0.468627 0.491177 0.528922
0.659804 0.540196 0.540441
0.812745 0.615686 0.574510
0.364706 0.612255 0.564216
0.439216 0.617647 0.569975
0.570588 0.634559 0.589216
0.663603 0.647059 0.545466
0.806863 0.708823 0.562745
0.600000 0.762745 0.672549
0.628431 0.764706 0.672549
0.698039 0.775491 0.688236
0.773529 0.790196 0.674019
0.854902 0.803922 0.623530
0.109804 0.391176 0.680392
0.163725 0.392157 0.676471
0.401961 0.413726 0.676471
0.614706 0.474755 0.692402
0.752941 0.547059 0.703922
0.169363 0.459804 0.704657
0.266667 0.459804 0.702941
0.438235 0.469240 0.702941
0.622549 0.520588 0.704106
0.756863 0.576716 0.711765
0.302941 0.563235 0.715686
0.387255 0.572059 0.715686
0.516667 0.584069 0.716666
0.647549 0.601961 0.720956
0.772549 0.631373 0.727451
0.435295 0.665686 0.723775
0.475490 0.666238 0.724510
0.565686 0.682843 0.730392
0.688481 0.704902 0.743198
0.820588 0.731373 0.750981
0.533333 0.776471 0.762745
0.552696 0.777451 0.762745
0.634314 0.794608 0.770588
0.765931 0.819853 0.786275
0.867647 0.832353 0.766667
0.466667 0.607843 0.815686
0.489216 0.607843 0.807843
0.564705 0.611765 0.807843
0.684314 0.648039 0.807843
0.788235 0.678431 0.811765
0.494118 0.643137 0.827451
0.513480 0.638235 0.819608
0.575980 0.638235 0.815686
0.688236 0.659559 0.815686
0.788235 0.685294 0.815686
0.509804 0.700000 0.854902
0.540196 0.700000 0.852941
0.605882 0.700000 0.845098
0.703922 0.707843 0.839216
0.807843 0.719608 0.839216
0.542156 0.766667 0.866667
0.556863 0.766667 0.866667
0.618627 0.770588 0.873039
0.729167 0.777451 0.874510
0.848039 0.786275 0.870588
0.607843 0.819608 0.866667
0.619608 0.819608 0.870588
0.672549 0.837255 0.880392
0.782353 0.866667 0.894118
0.921569 0.882353 0.901961
